; KISSlicer
; Windows
; version 1.0.9.7
; Built: Jun 13 2012, 22:16:39
;
; Saved: Mon Jul 16 00:26:54 2012
; 'ColorPatern.gcode'
;
; *** Printer Settings ***
;
; printer_name = Prusa
; extension = gcode
; cost_per_hour = 0
; g_code_prefix = 4732383B0909486F6D6520616C6C20617865730A
; g_code_postfix = 4D3130342054302053303B095475726E206F6666206E6F7A7A6C6520312074656D70657261747572652E0A4D3130342054312053303B095475726E206F6666206E6F7A7A6C6520322074656D70657261747572652E0A4D3139302053303B095475726E206F66662068656174206265642074656D70657261747572652E0A4739313B0909496E6372656D656E74616C20506F736974696F6E696E672E0A473031205A31303B0953746570205A20617869732075702031306D6D2E0A4739303B09094162736F6C75746520506F736974696F6E696E672E0A4731204631323030303B09323030205B6D6D2F735D0A4732382058303B0909486F6D65205820617869732E0A47303120593230303B09536C69646520746865206275696C6420706C6174666F726D206F757420746F206578706F736520746865207072696E742E0A4D38343B090944697361626C65206D6F746F72730A
; g_code_ext_change = NULL
; post_process = NULL
; num_extruders = 1
; firmware_type = 2
; M104_M109 = 1
; add_comments = 1
; z_speed_mm_per_s = 3.5
; z_settle_mm = 0.25
; bed_size_x_mm = 180
; bed_size_y_mm = 190
; bed_size_z_mm = 150
; bed_offset_x_mm = 90
; bed_offset_y_mm = 95
; bed_offset_z_mm = 0
; bed_roughness_mm = 0
; travel_speed_mm_per_s = 90
; first_layer_speed_mm_per_s = 10
; lo_speed_perim_mm_per_s = 4
; lo_speed_solid_mm_per_s = 15
; lo_speed_sparse_mm_per_s = 15
; hi_speed_perim_mm_per_s = 50
; hi_speed_solid_mm_per_s = 60
; hi_speed_sparse_mm_per_s = 60
; ext_mm_per_rev_1 = 1
; ext_material_1 = 2
; ext_axis_1 = 0
; ext_mm_per_rev_2 = 1
; ext_material_2 = 4
; ext_axis_2 = 0
; ext_mm_per_rev_3 = 1.25
; ext_material_3 = 0
; ext_axis_3 = 0
; model_ext = 0
; support_ext = 0
; support_body_ext = 0
; raft_ext = 0
; solid_loop_overlap_fraction = 1
;
; *** Material Settings for Extruder 1 ***
;
; material_name = ABS
; fan_off_ISOs_all = 1
; temperature_C = 220
; keep_warm_C = 220
; first_layer_C = 220
; bed_C = 110
; sec_per_C_per_C = 0.0015
; RPM_min = 10
; RPM_max = 300
; destring_suck = 10
; destring_prime = 10
; destring_min_mm = 1
; destring_speed_mm_per_s = 30
; min_layer_time_s = 10
; wipe_mm = 2
; cost_per_cm3 = 0.0712331
; flowrate_tweak = 1
; fiber_dia_mm = 1.75
; color = -16774400
;
; *** Style Settings ***
;
; style_name = Normal
; layer_thickness_mm = 0.2
; extrusion_width_mm = 0.4
; num_loops = 2
; skin_thickness_mm = 1.2
; infill_extrusion_width = 0.4
; infill_density_denominator = 2
; stacked_layers = 1
; use_destring = 1
; loops_insideout = 1
; round_infill = 1
;
; *** Actual Slicing Settings As Used ***
;
; layer_thickness_mm = 0.2
; extrusion_width = 0.4
; num_ISOs = 2
; wall_thickness = 1.2
; infill_style = 3
; support_style = 0
; support_angle = 90
; destring_min_mm = 1
; stacked_infill_layers = 1
; ISO_wipe_mm = 2
; raft_style = 0
; extra_raft_depth = 0
; oversample_res_mm = 0.125
; crowning_threshold_mm = -1
; loops_insideout = 1
; sheathed_support = 0
; solid_loop_overlap_fraction = 1
; inflate_raft_mm = 0
; inflate_support_mm = 1
; model_support_gap_mm = 0.5
; round_infill = 1
; Speed vs Quality = 0.40
;
; *** Header ***
;
; fan off
M107
; [mm] mode
G21
; absolute mode
G90
; *** User-Supplied G-code Prefix ***
;
G28;		Home all axes

;
; *** Main G-code ***
;
; Reset extruder pos
G92 E0
; BEGIN_LAYER_OBJECT z=0.20
;
; *** Warming Extruder 1 to 220 C ***
M109 S220
G92 E0
;
;
; 'Loop', 20.0 [RPM], 10.0 [mm/s]
G1 F5400
G1 X18.38 Y25.36 Z0.45 E0
G1 F210
G1 X18.38 Y25.36 Z0.2 E0
G1 F600
G1 X18.22 Y25.38 E0.0056
G1 X13.78 Y25.38 E0.1531
G1 X13.62 Y25.36 E0.1586
G1 X13.62 Y19.14 E0.3656
G1 X13.58 Y18.8 E0.377
G1 X13.44 Y18.56 E0.3861
G1 X13.2 Y18.42 E0.3952
G1 X12.86 Y18.38 E0.4066
G1 X6.64 Y18.38 E0.6136
G1 X6.62 Y18.22 E0.6192
G1 X6.62 Y13.78 E0.7667
G1 X6.64 Y13.62 E0.7722
G1 X12.86 Y13.62 E0.9792
G1 X13.2 Y13.58 E0.9906
G1 X13.44 Y13.44 E0.9997
G1 X13.58 Y13.2 E1.0088
G1 X13.62 Y12.86 E1.0202
G1 X13.62 Y6.64 E1.2272
G1 X13.78 Y6.62 E1.2327
G1 X18.22 Y6.62 E1.3802
G1 X18.38 Y6.64 E1.3858
G1 X18.38 Y12.86 E1.5928
G1 X18.42 Y13.2 E1.6042
G1 X18.56 Y13.44 E1.6133
G1 X18.8 Y13.58 E1.6224
G1 X19.08 Y13.62 E1.632
G1 X25.36 Y13.62 E1.8408
G1 X25.38 Y13.78 E1.8463
G1 X25.38 Y18.22 E1.9938
G1 X25.36 Y18.38 E1.9994
G1 X19.14 Y18.38 E2.2064
G1 X18.8 Y18.42 E2.2178
G1 X18.56 Y18.56 E2.2269
G1 X18.42 Y18.8 E2.236
G1 X18.38 Y19.08 E2.2456
G1 X18.38 Y25.36 E2.4544
;
; 'Perimeter', 20.0 [RPM], 10.0 [mm/s]
G1 F5400
G1 X18.64 Y25.53 E2.4544
G1 F600
G1 X18.79 Y25.76 E2.4636
G1 X18.62 Y25.78 E2.4692
G1 X13.38 Y25.78 E2.6433
G1 X13.21 Y25.76 E2.6489
G1 X13.21 Y19.16 E2.8684
G1 X13.15 Y18.85 E2.8791
G1 X12.84 Y18.79 E2.8898
G1 X6.24 Y18.79 E3.1093
G1 X6.22 Y18.62 E3.1149
G1 X6.22 Y13.38 E3.2891
G1 X6.24 Y13.21 E3.2947
G1 X12.84 Y13.21 E3.5142
G1 X13.15 Y13.15 E3.5249
G1 X13.21 Y12.84 E3.5355
G1 X13.21 Y6.24 E3.755
G1 X13.38 Y6.22 E3.7607
G1 X18.62 Y6.22 E3.9348
G1 X18.79 Y6.24 E3.9404
G1 X18.79 Y12.84 E4.1599
G1 X18.85 Y13.15 E4.1706
G1 X19.06 Y13.21 E4.1779
G1 X25.76 Y13.21 E4.4009
G1 X25.78 Y13.38 E4.4065
G1 X25.78 Y18.62 E4.5806
G1 X25.76 Y18.79 E4.5862
G1 X19.16 Y18.79 E4.8057
G1 X18.85 Y18.85 E4.8164
G1 X18.79 Y19.06 E4.8238
G1 X18.79 Y25.76 E5.0467
G1 X18.54 Y25.64 E5.0559
;
; 'Solid', 20.0 [RPM], 10.0 [mm/s]
G1 F5400
G1 X18.18 Y24.57 E5.0559
G1 F600
G1 X17.63 Y25.12 E5.082
G1 X17.06 Y25.12 E5.1008
G1 X18.12 Y24.06 E5.1508
G1 X18.12 Y23.5 E5.1696
G1 X16.49 Y25.12 E5.2461
G1 X15.93 Y25.12 E5.2649
G1 X18.12 Y22.93 E5.3681
G1 X18.12 Y22.36 E5.3869
G1 X15.36 Y25.12 E5.5166
G1 X14.8 Y25.12 E5.5354
G1 X18.12 Y21.8 E5.6918
G1 X18.12 Y21.23 E5.7106
G1 X14.21 Y25.14 E5.8943
G1 X13.86 Y24.93 E5.908
G1 X18.12 Y20.67 E6.1083
G1 X18.12 Y20.1 E6.1271
G1 X13.88 Y24.34 E6.3267
G1 X13.88 Y23.78 E6.3455
G1 X18.12 Y19.54 E6.5449
G1 X18.14 Y18.95 E6.5643
G1 X13.88 Y23.21 E6.7646
G1 X13.88 Y22.65 E6.7834
G1 X22.65 Y13.88 E7.1958
G1 X22.08 Y13.88 E7.2147
G1 X13.88 Y22.08 E7.6004
G1 X13.88 Y21.52 E7.6193
G1 X21.52 Y13.88 E7.9784
G1 X20.95 Y13.88 E7.9973
G1 X13.88 Y20.95 E8.3298
G1 X13.88 Y20.38 E8.3486
G1 X20.38 Y13.88 E8.6546
G1 X19.82 Y13.88 E8.6734
G1 X13.88 Y19.82 E8.9528
G1 X13.88 Y19.25 E8.9716
G1 X19.26 Y13.88 E9.2245
G1 X18.73 Y13.84 E9.2422
G1 X13.83 Y18.74 E9.4726
G1 X13.62 Y18.38 E9.4864
G1 X18.38 Y13.62 E9.7102
G1 X18.17 Y13.26 E9.724
G1 X13.27 Y18.16 E9.9544
G1 X12.74 Y18.12 E9.9721
G1 X18.12 Y12.75 E10.225
G1 X18.12 Y12.18 E10.2438
G1 X12.18 Y18.12 E10.5231
G1 X11.62 Y18.12 E10.542
G1 X18.12 Y11.62 E10.8479
G1 X18.12 Y11.05 E10.8667
G1 X11.05 Y18.12 E11.1993
G1 X10.48 Y18.12 E11.2181
G1 X18.12 Y10.48 E11.5773
G1 X18.12 Y9.92 E11.5961
G1 X9.92 Y18.12 E11.9819
G1 X9.35 Y18.12 E12.0007
G1 X18.18 Y9.29 E12.4159
;
; 'Solid', 20.0 [RPM], 10.0 [mm/s]
G1 F5400
G1 X14.43 Y6.82 E12.4159
G1 F600
G1 X13.88 Y7.37 E12.442
G1 X13.88 Y7.94 E12.4609
G1 X14.94 Y6.88 E12.5108
G1 X15.51 Y6.88 E12.5296
G1 X13.88 Y8.5 E12.6061
G1 X13.88 Y9.07 E12.625
G1 X16.07 Y6.88 E12.7281
G1 X16.64 Y6.88 E12.7469
G1 X13.88 Y9.64 E12.8767
G1 X13.88 Y10.2 E12.8955
G1 X17.2 Y6.88 E13.0518
G1 X17.77 Y6.88 E13.0706
G1 X13.88 Y10.77 E13.2536
G1 X13.88 Y11.33 E13.2724
G1 X18.12 Y7.09 E13.472
G1 X18.12 Y7.66 E13.4908
G1 X13.88 Y11.9 E13.6903
G1 X13.88 Y12.46 E13.7091
G1 X18.12 Y8.22 E13.9086
G1 X18.12 Y8.79 E13.9275
G1 X8.79 Y18.12 E14.3665
G1 X8.22 Y18.12 E14.3853
G1 X12.46 Y13.88 E14.5848
G1 X11.9 Y13.88 E14.6036
G1 X7.66 Y18.12 E14.8032
G1 X7.09 Y18.12 E14.822
G1 X11.33 Y13.88 E15.0215
G1 X10.77 Y13.88 E15.0403
G1 X6.88 Y17.77 E15.2233
G1 X6.88 Y17.2 E15.2421
G1 X10.2 Y13.88 E15.3984
G1 X9.64 Y13.88 E15.4173
G1 X6.88 Y16.64 E15.547
G1 X6.88 Y16.07 E15.5658
G1 X9.07 Y13.88 E15.669
G1 X8.5 Y13.88 E15.6878
G1 X6.88 Y15.51 E15.7643
G1 X6.88 Y14.94 E15.7831
G1 X7.94 Y13.88 E15.8331
G1 X7.37 Y13.88 E15.8519
G1 X6.86 Y14.39 E15.876
;
; 'Solid', 20.0 [RPM], 10.0 [mm/s]
G1 F5400
G1 X18.89 Y18.2 E15.876
G1 F600
G1 X23.21 Y13.88 E16.0792
G1 X23.78 Y13.88 E16.098
G1 X19.54 Y18.12 E16.2976
G1 X20.1 Y18.12 E16.3164
G1 X24.34 Y13.88 E16.5159
G1 X24.91 Y13.88 E16.5347
G1 X20.67 Y18.12 E16.7343
G1 X21.23 Y18.12 E16.7531
G1 X25.12 Y14.23 E16.936
G1 X25.12 Y14.8 E16.9548
G1 X21.8 Y18.12 E17.1112
G1 X22.36 Y18.12 E17.13
G1 X25.12 Y15.36 E17.2598
G1 X25.12 Y15.93 E17.2786
G1 X22.93 Y18.12 E17.3817
G1 X23.5 Y18.12 E17.4005
G1 X25.12 Y16.49 E17.477
G1 X25.12 Y17.06 E17.4959
G1 X24.06 Y18.12 E17.5458
G1 X24.63 Y18.12 E17.5646
G1 X25.18 Y17.57 E17.5907
;
; 'Wipe', 0.0 [RPM], 10.0 [mm/s]
G1 F1800
G1 E7.5907
G1 F600
G1 X24.63 Y18.12 E7.5907
G1 X24.06 Y18.12 E7.5907
G1 X25.12 Y17.06 E7.5907
G1 F210
G1 X25.12 Y17.06 Z0.65 E7.5907
; END_LAYER_OBJECT z=0.20
; Reset extruder pos
G92 E0
; BEGIN_LAYER_OBJECT z=0.40
; fan on
M106
;
; 'Loop', 77.7 [RPM], 39.0 [mm/s]
G1 F5400
G1 X18.38 Y25.36 E0
G1 F210
G1 X18.38 Y25.36 Z0.4 E0
G1 F1800
G1 E10
G1 F2337.2
G1 X18.22 Y25.38 E10.0056
G1 X13.78 Y25.38 E10.1531
G1 X13.62 Y25.36 E10.1586
G1 X13.62 Y19.14 E10.3656
G1 X13.58 Y18.8 E10.377
G1 X13.43 Y18.57 E10.3861
G1 X13.2 Y18.42 E10.3952
G1 X12.86 Y18.38 E10.4066
G1 X6.64 Y18.38 E10.6135
G1 X6.62 Y18.22 E10.6191
G1 X6.62 Y13.78 E10.7666
G1 X6.64 Y13.62 E10.7722
G1 X12.86 Y13.62 E10.9791
G1 X13.2 Y13.58 E10.9905
G1 X13.43 Y13.43 E10.9996
G1 X13.58 Y13.2 E11.0087
G1 X13.62 Y12.86 E11.0201
G1 X13.62 Y6.64 E11.227
G1 X13.78 Y6.62 E11.2326
G1 X18.22 Y6.62 E11.3801
G1 X18.38 Y6.64 E11.3857
G1 X18.38 Y12.86 E11.5927
G1 X18.42 Y13.2 E11.604
G1 X18.57 Y13.43 E11.6131
G1 X18.8 Y13.58 E11.6222
G1 X19.08 Y13.62 E11.6319
G1 X25.36 Y13.62 E11.8406
G1 X25.38 Y13.78 E11.8462
G1 X25.38 Y18.22 E11.9937
G1 X25.36 Y18.38 E11.9992
G1 X19.14 Y18.38 E12.2062
G1 X18.8 Y18.42 E12.2176
G1 X18.57 Y18.57 E12.2267
G1 X18.42 Y18.8 E12.2358
G1 X18.38 Y19.08 E12.2454
G1 X18.38 Y25.36 E12.4541
;
; 'Perimeter', 63.1 [RPM], 31.6 [mm/s]
G1 F5400
G1 X18.64 Y25.53 E12.4541
G1 F1896
G1 X18.79 Y25.76 E12.4633
G1 X18.62 Y25.78 E12.4689
G1 X13.38 Y25.78 E12.6431
G1 X13.21 Y25.76 E12.6487
G1 X13.21 Y19.16 E12.8682
G1 X13.15 Y18.85 E12.8789
G1 X12.84 Y18.79 E12.8895
G1 X6.24 Y18.79 E13.109
G1 X6.22 Y18.62 E13.1146
G1 X6.22 Y13.38 E13.2888
G1 X6.24 Y13.21 E13.2944
G1 X12.84 Y13.21 E13.5139
G1 X13.15 Y13.15 E13.5245
G1 X13.21 Y12.84 E13.5352
G1 X13.21 Y6.24 E13.7547
G1 X13.38 Y6.22 E13.7603
G1 X18.62 Y6.22 E13.9345
G1 X18.79 Y6.24 E13.9401
G1 X18.79 Y12.84 E14.1596
G1 X18.85 Y13.15 E14.1702
G1 X19.06 Y13.21 E14.1776
G1 X25.76 Y13.21 E14.4005
G1 X25.78 Y13.38 E14.4061
G1 X25.78 Y18.62 E14.5802
G1 X25.76 Y18.79 E14.5859
G1 X19.16 Y18.79 E14.8054
G1 X18.85 Y18.85 E14.816
G1 X18.79 Y19.06 E14.8233
G1 X18.79 Y25.76 E15.0463
G1 X18.54 Y25.64 E15.0555
; fan off
M107
;
; 'Solid', 83.8 [RPM], 42.0 [mm/s]
G1 F5400
G1 X18.18 Y22.71 E15.0555
G1 F2520
G1 X9.35 Y13.88 E15.4707
G1 X9.92 Y13.88 E15.4895
G1 X18.12 Y22.08 E15.8753
G1 X18.12 Y21.52 E15.8941
G1 X10.48 Y13.88 E16.2533
G1 X11.05 Y13.88 E16.2721
G1 X18.12 Y20.95 E16.6047
G1 X18.12 Y20.38 E16.6235
G1 X11.62 Y13.88 E16.9294
G1 X12.18 Y13.88 E16.9483
G1 X18.12 Y19.82 E17.2276
G1 X18.12 Y19.25 E17.2464
G1 X12.74 Y13.88 E17.4994
G1 X13.27 Y13.84 E17.517
G1 X18.17 Y18.74 E17.7475
G1 X18.38 Y18.38 E17.7613
G1 X13.62 Y13.62 E17.9852
G1 X13.83 Y13.26 E17.999
G1 X18.73 Y18.16 E18.2295
G1 X19.26 Y18.12 E18.2471
G1 X13.88 Y12.75 E18.5
G1 X13.88 Y12.18 E18.5189
G1 X19.82 Y18.12 E18.7982
G1 X20.38 Y18.12 E18.817
G1 X13.88 Y11.62 E19.123
G1 X13.88 Y11.05 E19.1418
G1 X20.95 Y18.12 E19.4744
G1 X21.52 Y18.12 E19.4932
G1 X13.88 Y10.48 E19.8524
G1 X13.88 Y9.92 E19.8712
G1 X22.08 Y18.12 E20.257
G1 X22.65 Y18.12 E20.2758
G1 X13.88 Y9.35 E20.6882
G1 X13.88 Y8.79 E20.707
G1 X18.14 Y13.05 E20.9073
G1 X18.12 Y12.46 E20.9268
G1 X13.88 Y8.22 E21.1262
G1 X13.88 Y7.66 E21.145
G1 X18.12 Y11.9 E21.3445
G1 X18.12 Y11.33 E21.3634
G1 X13.86 Y7.07 E21.5637
G1 X14.21 Y6.86 E21.5773
G1 X18.12 Y10.77 E21.7611
G1 X18.12 Y10.2 E21.7799
G1 X14.8 Y6.88 E21.9363
G1 X15.36 Y6.88 E21.9551
G1 X18.12 Y9.64 E22.0848
G1 X18.12 Y9.07 E22.1036
G1 X15.93 Y6.88 E22.2068
G1 X16.49 Y6.88 E22.2256
G1 X18.12 Y8.5 E22.3021
G1 X18.12 Y7.94 E22.3209
G1 X17.06 Y6.88 E22.3709
G1 X17.63 Y6.88 E22.3897
G1 X18.18 Y7.43 E22.4158
;
; 'Wipe', 0.0 [RPM], 42.0 [mm/s]
G1 F1800
G1 E12.4158
G1 F2520
G1 X17.63 Y6.88 E12.4158
G1 X17.06 Y6.88 E12.4158
G1 X18.12 Y7.94 E12.4158
;
; 'Solid', 83.8 [RPM], 42.0 [mm/s]
G1 F5400
G1 X18.89 Y13.8 E12.4158
G1 F1800
G1 E22.4158
G1 F2520
G1 X23.21 Y18.12 E22.6191
G1 X23.78 Y18.12 E22.6379
G1 X19.54 Y13.88 E22.8374
G1 X20.1 Y13.88 E22.8562
G1 X24.34 Y18.12 E23.0558
G1 X24.91 Y18.12 E23.0746
G1 X20.67 Y13.88 E23.2741
G1 X21.23 Y13.88 E23.2929
G1 X25.12 Y17.77 E23.4759
G1 X25.12 Y17.2 E23.4947
G1 X21.8 Y13.88 E23.6511
G1 X22.36 Y13.88 E23.6699
G1 X25.12 Y16.64 E23.7996
G1 X25.12 Y16.07 E23.8184
G1 X22.93 Y13.88 E23.9216
G1 X23.5 Y13.88 E23.9404
G1 X25.12 Y15.51 E24.0169
G1 X25.12 Y14.94 E24.0357
G1 X24.06 Y13.88 E24.0857
G1 X24.63 Y13.88 E24.1045
G1 X25.18 Y14.43 E24.1306
;
; 'Solid', 83.8 [RPM], 42.0 [mm/s]
G1 F5400
G1 X13.8 Y18.89 E24.1306
G1 F2520
G1 X18.12 Y23.21 E24.3339
G1 X18.12 Y23.78 E24.3527
G1 X13.88 Y19.54 E24.5522
G1 X13.88 Y20.1 E24.571
G1 X18.12 Y24.34 E24.7706
G1 X18.12 Y24.91 E24.7894
G1 X13.88 Y20.67 E24.9889
G1 X13.88 Y21.23 E25.0077
G1 X17.77 Y25.12 E25.1907
G1 X17.2 Y25.12 E25.2095
G1 X13.88 Y21.8 E25.3658
G1 X13.88 Y22.36 E25.3847
G1 X16.64 Y25.12 E25.5144
G1 X16.07 Y25.12 E25.5332
G1 X13.88 Y22.93 E25.6364
G1 X13.88 Y23.5 E25.6552
G1 X15.51 Y25.12 E25.7317
G1 X14.94 Y25.12 E25.7505
G1 X13.88 Y24.06 E25.8004
G1 X13.88 Y24.63 E25.8192
G1 X14.43 Y25.18 E25.8454
;
; 'Wipe', 0.0 [RPM], 42.0 [mm/s]
G1 F1800
G1 E15.8454
G1 F2520
G1 X13.88 Y24.63 E15.8454
G1 X13.88 Y24.06 E15.8454
G1 X14.94 Y25.12 E15.8454
;
; 'Solid', 83.8 [RPM], 42.0 [mm/s]
G1 F5400
G1 X13.11 Y18.2 E15.8454
G1 F1800
G1 E25.8454
G1 F2520
G1 X8.79 Y13.88 E26.0486
G1 X8.22 Y13.88 E26.0674
G1 X12.46 Y18.12 E26.267
G1 X11.9 Y18.12 E26.2858
G1 X7.66 Y13.88 E26.4853
G1 X7.09 Y13.88 E26.5041
G1 X11.33 Y18.12 E26.7037
G1 X10.77 Y18.12 E26.7225
G1 X6.88 Y14.23 E26.9054
G1 X6.88 Y14.8 E26.9242
G1 X10.2 Y18.12 E27.0806
G1 X9.64 Y18.12 E27.0994
G1 X6.88 Y15.36 E27.2292
G1 X6.88 Y15.93 E27.248
G1 X9.07 Y18.12 E27.3511
G1 X8.5 Y18.12 E27.3699
G1 X6.88 Y16.49 E27.4465
G1 X6.88 Y17.06 E27.4653
G1 X7.94 Y18.12 E27.5152
G1 X7.37 Y18.12 E27.534
G1 X6.86 Y17.61 E27.5581
;
; 'Wipe', 0.0 [RPM], 42.0 [mm/s]
G1 F1800
G1 E17.5581
G1 F2520
G1 X7.37 Y18.12 E17.5581
G1 X7.94 Y18.12 E17.5581
G1 X6.88 Y17.06 E17.5581
G1 F210
G1 X6.88 Y17.06 Z0.85 E17.5581
; END_LAYER_OBJECT z=0.40
; Reset extruder pos
G92 E0
; BEGIN_LAYER_OBJECT z=0.60
; fan on
M106
;
; 'Loop', 77.7 [RPM], 39.0 [mm/s]
G1 F5400
G1 X18.38 Y25.36 E0
G1 F210
G1 X18.38 Y25.36 Z0.6 E0
G1 F1800
G1 E10
G1 F2337.2
G1 X18.22 Y25.38 E10.0056
G1 X13.78 Y25.38 E10.1531
G1 X13.62 Y25.36 E10.1586
G1 X13.62 Y19.14 E10.3656
G1 X13.58 Y18.8 E10.377
G1 X13.43 Y18.57 E10.3861
G1 X13.2 Y18.42 E10.3952
G1 X12.86 Y18.38 E10.4066
G1 X6.64 Y18.38 E10.6135
G1 X6.62 Y18.22 E10.6191
G1 X6.62 Y13.78 E10.7666
G1 X6.64 Y13.62 E10.7722
G1 X12.86 Y13.62 E10.9791
G1 X13.2 Y13.58 E10.9905
G1 X13.43 Y13.43 E10.9996
G1 X13.58 Y13.2 E11.0087
G1 X13.62 Y12.86 E11.0201
G1 X13.62 Y6.64 E11.227
G1 X13.78 Y6.62 E11.2326
G1 X18.22 Y6.62 E11.3801
G1 X18.38 Y6.64 E11.3857
G1 X18.38 Y12.86 E11.5927
G1 X18.42 Y13.2 E11.604
G1 X18.57 Y13.43 E11.6131
G1 X18.8 Y13.58 E11.6222
G1 X19.08 Y13.62 E11.6319
G1 X25.36 Y13.62 E11.8406
G1 X25.38 Y13.78 E11.8462
G1 X25.38 Y18.22 E11.9937
G1 X25.36 Y18.38 E11.9992
G1 X19.14 Y18.38 E12.2062
G1 X18.8 Y18.42 E12.2176
G1 X18.57 Y18.57 E12.2267
G1 X18.42 Y18.8 E12.2358
G1 X18.38 Y19.08 E12.2454
G1 X18.38 Y25.36 E12.4541
;
; 'Perimeter', 63.1 [RPM], 31.6 [mm/s]
G1 F5400
G1 X18.64 Y25.53 E12.4541
G1 F1896
G1 X18.79 Y25.76 E12.4633
G1 X18.62 Y25.78 E12.4689
G1 X13.38 Y25.78 E12.6431
G1 X13.21 Y25.76 E12.6487
G1 X13.21 Y19.16 E12.8682
G1 X13.15 Y18.85 E12.8789
G1 X12.84 Y18.79 E12.8895
G1 X6.24 Y18.79 E13.109
G1 X6.22 Y18.62 E13.1146
G1 X6.22 Y13.38 E13.2888
G1 X6.24 Y13.21 E13.2944
G1 X12.84 Y13.21 E13.5139
G1 X13.15 Y13.15 E13.5245
G1 X13.21 Y12.84 E13.5352
G1 X13.21 Y6.24 E13.7547
G1 X13.38 Y6.22 E13.7603
G1 X18.62 Y6.22 E13.9345
G1 X18.79 Y6.24 E13.9401
G1 X18.79 Y12.84 E14.1596
G1 X18.85 Y13.15 E14.1702
G1 X19.06 Y13.21 E14.1776
G1 X25.76 Y13.21 E14.4005
G1 X25.78 Y13.38 E14.4061
G1 X25.78 Y18.62 E14.5802
G1 X25.76 Y18.79 E14.5859
G1 X19.16 Y18.79 E14.8054
G1 X18.85 Y18.85 E14.816
G1 X18.79 Y19.06 E14.8233
G1 X18.79 Y25.76 E15.0463
G1 X18.54 Y25.64 E15.0555
; fan off
M107
;
; 'Solid', 83.8 [RPM], 42.0 [mm/s]
G1 F5400
G1 X18.18 Y24.57 E15.0555
G1 F2520
G1 X17.63 Y25.12 E15.0816
G1 X17.06 Y25.12 E15.1004
G1 X18.12 Y24.06 E15.1503
G1 X18.12 Y23.5 E15.1691
G1 X16.49 Y25.12 E15.2457
G1 X15.93 Y25.12 E15.2645
G1 X18.12 Y22.93 E15.3676
G1 X18.12 Y22.36 E15.3864
G1 X15.36 Y25.12 E15.5162
G1 X14.8 Y25.12 E15.535
G1 X18.12 Y21.8 E15.6914
G1 X18.12 Y21.23 E15.7102
G1 X14.21 Y25.14 E15.8939
G1 X13.86 Y24.93 E15.9076
G1 X18.12 Y20.67 E16.1079
G1 X18.12 Y20.1 E16.1267
G1 X13.88 Y24.34 E16.3262
G1 X13.88 Y23.78 E16.345
G1 X18.12 Y19.54 E16.5445
G1 X18.14 Y18.95 E16.5639
G1 X13.88 Y23.21 E16.7643
G1 X13.88 Y22.65 E16.7831
G1 X22.65 Y13.88 E17.1955
G1 X22.08 Y13.88 E17.2143
G1 X13.88 Y22.08 E17.6001
G1 X13.88 Y21.52 E17.6189
G1 X21.52 Y13.88 E17.9781
G1 X20.95 Y13.88 E17.9969
G1 X13.88 Y20.95 E18.3295
G1 X13.88 Y20.38 E18.3483
G1 X20.38 Y13.88 E18.6542
G1 X19.82 Y13.88 E18.6731
G1 X13.88 Y19.82 E18.9524
G1 X13.88 Y19.25 E18.9712
G1 X19.26 Y13.88 E19.2242
G1 X18.73 Y13.84 E19.2418
G1 X13.83 Y18.74 E19.4723
G1 X13.62 Y18.38 E19.4861
G1 X18.38 Y13.62 E19.71
G1 X18.17 Y13.26 E19.7238
G1 X13.27 Y18.16 E19.9543
G1 X12.74 Y18.12 E19.9719
G1 X18.12 Y12.75 E20.2248
G1 X18.12 Y12.18 E20.2437
G1 X12.18 Y18.12 E20.523
G1 X11.62 Y18.12 E20.5418
G1 X18.12 Y11.62 E20.8478
G1 X18.12 Y11.05 E20.8666
G1 X11.05 Y18.12 E21.1992
G1 X10.48 Y18.12 E21.218
G1 X18.12 Y10.48 E21.5771
G1 X18.12 Y9.92 E21.596
G1 X9.92 Y18.12 E21.9817
G1 X9.35 Y18.12 E22.0006
G1 X18.18 Y9.29 E22.4158
;
; 'Solid', 83.8 [RPM], 42.0 [mm/s]
G1 F5400
G1 X14.43 Y6.82 E22.4158
G1 F2520
G1 X13.88 Y7.37 E22.4419
G1 X13.88 Y7.94 E22.4607
G1 X14.94 Y6.88 E22.5107
G1 X15.51 Y6.88 E22.5295
G1 X13.88 Y8.5 E22.606
G1 X13.88 Y9.07 E22.6248
G1 X16.07 Y6.88 E22.728
G1 X16.64 Y6.88 E22.7468
G1 X13.88 Y9.64 E22.8765
G1 X13.88 Y10.2 E22.8953
G1 X17.2 Y6.88 E23.0517
G1 X17.77 Y6.88 E23.0705
G1 X13.88 Y10.77 E23.2535
G1 X13.88 Y11.33 E23.2723
G1 X18.12 Y7.09 E23.4718
G1 X18.12 Y7.66 E23.4906
G1 X13.88 Y11.9 E23.6902
G1 X13.88 Y12.46 E23.709
G1 X18.12 Y8.22 E23.9085
G1 X18.12 Y8.79 E23.9273
G1 X8.79 Y18.12 E24.3663
G1 X8.22 Y18.12 E24.3851
G1 X12.46 Y13.88 E24.5847
G1 X11.9 Y13.88 E24.6035
G1 X7.66 Y18.12 E24.803
G1 X7.09 Y18.12 E24.8218
G1 X11.33 Y13.88 E25.0214
G1 X10.77 Y13.88 E25.0402
G1 X6.88 Y17.77 E25.2231
G1 X6.88 Y17.2 E25.242
G1 X10.2 Y13.88 E25.3983
G1 X9.64 Y13.88 E25.4171
G1 X6.88 Y16.64 E25.5469
G1 X6.88 Y16.07 E25.5657
G1 X9.07 Y13.88 E25.6688
G1 X8.5 Y13.88 E25.6877
G1 X6.88 Y15.51 E25.7642
G1 X6.88 Y14.94 E25.783
G1 X7.94 Y13.88 E25.8329
G1 X7.37 Y13.88 E25.8517
G1 X6.86 Y14.39 E25.8759
;
; 'Solid', 83.8 [RPM], 42.0 [mm/s]
G1 F5400
G1 X18.89 Y18.2 E25.8759
G1 F2520
G1 X23.21 Y13.88 E26.0791
G1 X23.78 Y13.88 E26.0979
G1 X19.54 Y18.12 E26.2975
G1 X20.1 Y18.12 E26.3163
G1 X24.34 Y13.88 E26.5158
G1 X24.91 Y13.88 E26.5346
G1 X20.67 Y18.12 E26.7342
G1 X21.23 Y18.12 E26.753
G1 X25.12 Y14.23 E26.9359
G1 X25.12 Y14.8 E26.9548
G1 X21.8 Y18.12 E27.1111
G1 X22.36 Y18.12 E27.1299
G1 X25.12 Y15.36 E27.2597
G1 X25.12 Y15.93 E27.2785
G1 X22.93 Y18.12 E27.3816
G1 X23.5 Y18.12 E27.4004
G1 X25.12 Y16.49 E27.477
G1 X25.12 Y17.06 E27.4958
G1 X24.06 Y18.12 E27.5457
G1 X24.63 Y18.12 E27.5645
G1 X25.18 Y17.57 E27.5906
;
; 'Wipe', 0.0 [RPM], 42.0 [mm/s]
G1 F1800
G1 E17.5906
G1 F2520
G1 X24.63 Y18.12 E17.5906
G1 X24.06 Y18.12 E17.5906
G1 X25.12 Y17.06 E17.5906
G1 F210
G1 X25.12 Y17.06 Z1.05 E17.5906
; END_LAYER_OBJECT z=0.60
; Reset extruder pos
G92 E0
; BEGIN_LAYER_OBJECT z=0.80
; fan on
M106
;
; 'Loop', 77.7 [RPM], 39.0 [mm/s]
G1 F5400
G1 X18.38 Y25.36 E0
G1 F210
G1 X18.38 Y25.36 Z0.8 E0
G1 F1800
G1 E10
G1 F2337.2
G1 X18.22 Y25.38 E10.0056
G1 X13.78 Y25.38 E10.1531
G1 X13.62 Y25.36 E10.1586
G1 X13.62 Y19.14 E10.3656
G1 X13.58 Y18.8 E10.377
G1 X13.43 Y18.57 E10.3861
G1 X13.2 Y18.42 E10.3952
G1 X12.86 Y18.38 E10.4066
G1 X6.64 Y18.38 E10.6135
G1 X6.62 Y18.22 E10.6191
G1 X6.62 Y13.78 E10.7666
G1 X6.64 Y13.62 E10.7722
G1 X12.86 Y13.62 E10.9791
G1 X13.2 Y13.58 E10.9905
G1 X13.43 Y13.43 E10.9996
G1 X13.58 Y13.2 E11.0087
G1 X13.62 Y12.86 E11.0201
G1 X13.62 Y6.64 E11.227
G1 X13.78 Y6.62 E11.2326
G1 X18.22 Y6.62 E11.3801
G1 X18.38 Y6.64 E11.3857
G1 X18.38 Y12.86 E11.5927
G1 X18.42 Y13.2 E11.604
G1 X18.57 Y13.43 E11.6131
G1 X18.8 Y13.58 E11.6222
G1 X19.08 Y13.62 E11.6319
G1 X25.36 Y13.62 E11.8406
G1 X25.38 Y13.78 E11.8462
G1 X25.38 Y18.22 E11.9937
G1 X25.36 Y18.38 E11.9992
G1 X19.14 Y18.38 E12.2062
G1 X18.8 Y18.42 E12.2176
G1 X18.57 Y18.57 E12.2267
G1 X18.42 Y18.8 E12.2358
G1 X18.38 Y19.08 E12.2454
G1 X18.38 Y25.36 E12.4541
;
; 'Perimeter', 63.1 [RPM], 31.6 [mm/s]
G1 F5400
G1 X18.64 Y25.53 E12.4541
G1 F1896
G1 X18.79 Y25.76 E12.4633
G1 X18.62 Y25.78 E12.4689
G1 X13.38 Y25.78 E12.6431
G1 X13.21 Y25.76 E12.6487
G1 X13.21 Y19.16 E12.8682
G1 X13.15 Y18.85 E12.8789
G1 X12.84 Y18.79 E12.8895
G1 X6.24 Y18.79 E13.109
G1 X6.22 Y18.62 E13.1146
G1 X6.22 Y13.38 E13.2888
G1 X6.24 Y13.21 E13.2944
G1 X12.84 Y13.21 E13.5139
G1 X13.15 Y13.15 E13.5245
G1 X13.21 Y12.84 E13.5352
G1 X13.21 Y6.24 E13.7547
G1 X13.38 Y6.22 E13.7603
G1 X18.62 Y6.22 E13.9345
G1 X18.79 Y6.24 E13.9401
G1 X18.79 Y12.84 E14.1596
G1 X18.85 Y13.15 E14.1702
G1 X19.06 Y13.21 E14.1776
G1 X25.76 Y13.21 E14.4005
G1 X25.78 Y13.38 E14.4061
G1 X25.78 Y18.62 E14.5802
G1 X25.76 Y18.79 E14.5859
G1 X19.16 Y18.79 E14.8054
G1 X18.85 Y18.85 E14.816
G1 X18.79 Y19.06 E14.8233
G1 X18.79 Y25.76 E15.0463
G1 X18.54 Y25.64 E15.0555
; fan off
M107
;
; 'Solid', 83.8 [RPM], 42.0 [mm/s]
G1 F5400
G1 X18.18 Y22.71 E15.0555
G1 F2520
G1 X9.35 Y13.88 E15.4707
G1 X9.92 Y13.88 E15.4895
G1 X18.12 Y22.08 E15.8753
G1 X18.12 Y21.52 E15.8941
G1 X10.48 Y13.88 E16.2533
G1 X11.05 Y13.88 E16.2721
G1 X18.12 Y20.95 E16.6047
G1 X18.12 Y20.38 E16.6235
G1 X11.62 Y13.88 E16.9294
G1 X12.18 Y13.88 E16.9483
G1 X18.12 Y19.82 E17.2276
G1 X18.12 Y19.25 E17.2464
G1 X12.74 Y13.88 E17.4994
G1 X13.27 Y13.84 E17.517
G1 X18.17 Y18.74 E17.7475
G1 X18.38 Y18.38 E17.7613
G1 X13.62 Y13.62 E17.9852
G1 X13.83 Y13.26 E17.999
G1 X18.73 Y18.16 E18.2295
G1 X19.26 Y18.12 E18.2471
G1 X13.88 Y12.75 E18.5
G1 X13.88 Y12.18 E18.5189
G1 X19.82 Y18.12 E18.7982
G1 X20.38 Y18.12 E18.817
G1 X13.88 Y11.62 E19.123
G1 X13.88 Y11.05 E19.1418
G1 X20.95 Y18.12 E19.4744
G1 X21.52 Y18.12 E19.4932
G1 X13.88 Y10.48 E19.8524
G1 X13.88 Y9.92 E19.8712
G1 X22.08 Y18.12 E20.257
G1 X22.65 Y18.12 E20.2758
G1 X13.88 Y9.35 E20.6882
G1 X13.88 Y8.79 E20.707
G1 X18.14 Y13.05 E20.9073
G1 X18.12 Y12.46 E20.9268
G1 X13.88 Y8.22 E21.1262
G1 X13.88 Y7.66 E21.145
G1 X18.12 Y11.9 E21.3445
G1 X18.12 Y11.33 E21.3634
G1 X13.86 Y7.07 E21.5637
G1 X14.21 Y6.86 E21.5773
G1 X18.12 Y10.77 E21.7611
G1 X18.12 Y10.2 E21.7799
G1 X14.8 Y6.88 E21.9363
G1 X15.36 Y6.88 E21.9551
G1 X18.12 Y9.64 E22.0848
G1 X18.12 Y9.07 E22.1036
G1 X15.93 Y6.88 E22.2068
G1 X16.49 Y6.88 E22.2256
G1 X18.12 Y8.5 E22.3021
G1 X18.12 Y7.94 E22.3209
G1 X17.06 Y6.88 E22.3709
G1 X17.63 Y6.88 E22.3897
G1 X18.18 Y7.43 E22.4158
;
; 'Wipe', 0.0 [RPM], 42.0 [mm/s]
G1 F1800
G1 E12.4158
G1 F2520
G1 X17.63 Y6.88 E12.4158
G1 X17.06 Y6.88 E12.4158
G1 X18.12 Y7.94 E12.4158
;
; 'Solid', 83.8 [RPM], 42.0 [mm/s]
G1 F5400
G1 X18.89 Y13.8 E12.4158
G1 F1800
G1 E22.4158
G1 F2520
G1 X23.21 Y18.12 E22.6191
G1 X23.78 Y18.12 E22.6379
G1 X19.54 Y13.88 E22.8374
G1 X20.1 Y13.88 E22.8562
G1 X24.34 Y18.12 E23.0558
G1 X24.91 Y18.12 E23.0746
G1 X20.67 Y13.88 E23.2741
G1 X21.23 Y13.88 E23.2929
G1 X25.12 Y17.77 E23.4759
G1 X25.12 Y17.2 E23.4947
G1 X21.8 Y13.88 E23.6511
G1 X22.36 Y13.88 E23.6699
G1 X25.12 Y16.64 E23.7996
G1 X25.12 Y16.07 E23.8184
G1 X22.93 Y13.88 E23.9216
G1 X23.5 Y13.88 E23.9404
G1 X25.12 Y15.51 E24.0169
G1 X25.12 Y14.94 E24.0357
G1 X24.06 Y13.88 E24.0857
G1 X24.63 Y13.88 E24.1045
G1 X25.18 Y14.43 E24.1306
;
; 'Solid', 83.8 [RPM], 42.0 [mm/s]
G1 F5400
G1 X13.8 Y18.89 E24.1306
G1 F2520
G1 X18.12 Y23.21 E24.3339
G1 X18.12 Y23.78 E24.3527
G1 X13.88 Y19.54 E24.5522
G1 X13.88 Y20.1 E24.571
G1 X18.12 Y24.34 E24.7706
G1 X18.12 Y24.91 E24.7894
G1 X13.88 Y20.67 E24.9889
G1 X13.88 Y21.23 E25.0077
G1 X17.77 Y25.12 E25.1907
G1 X17.2 Y25.12 E25.2095
G1 X13.88 Y21.8 E25.3658
G1 X13.88 Y22.36 E25.3847
G1 X16.64 Y25.12 E25.5144
G1 X16.07 Y25.12 E25.5332
G1 X13.88 Y22.93 E25.6364
G1 X13.88 Y23.5 E25.6552
G1 X15.51 Y25.12 E25.7317
G1 X14.94 Y25.12 E25.7505
G1 X13.88 Y24.06 E25.8004
G1 X13.88 Y24.63 E25.8192
G1 X14.43 Y25.18 E25.8454
;
; 'Wipe', 0.0 [RPM], 42.0 [mm/s]
G1 F1800
G1 E15.8454
G1 F2520
G1 X13.88 Y24.63 E15.8454
G1 X13.88 Y24.06 E15.8454
G1 X14.94 Y25.12 E15.8454
;
; 'Solid', 83.8 [RPM], 42.0 [mm/s]
G1 F5400
G1 X13.11 Y18.2 E15.8454
G1 F1800
G1 E25.8454
G1 F2520
G1 X8.79 Y13.88 E26.0486
G1 X8.22 Y13.88 E26.0674
G1 X12.46 Y18.12 E26.267
G1 X11.9 Y18.12 E26.2858
G1 X7.66 Y13.88 E26.4853
G1 X7.09 Y13.88 E26.5041
G1 X11.33 Y18.12 E26.7037
G1 X10.77 Y18.12 E26.7225
G1 X6.88 Y14.23 E26.9054
G1 X6.88 Y14.8 E26.9242
G1 X10.2 Y18.12 E27.0806
G1 X9.64 Y18.12 E27.0994
G1 X6.88 Y15.36 E27.2292
G1 X6.88 Y15.93 E27.248
G1 X9.07 Y18.12 E27.3511
G1 X8.5 Y18.12 E27.3699
G1 X6.88 Y16.49 E27.4465
G1 X6.88 Y17.06 E27.4653
G1 X7.94 Y18.12 E27.5152
G1 X7.37 Y18.12 E27.534
G1 X6.86 Y17.61 E27.5581
;
; 'Wipe', 0.0 [RPM], 42.0 [mm/s]
G1 F1800
G1 E17.5581
G1 F2520
G1 X7.37 Y18.12 E17.5581
G1 X7.94 Y18.12 E17.5581
G1 X6.88 Y17.06 E17.5581
G1 F210
G1 X6.88 Y17.06 Z1.25 E17.5581
; END_LAYER_OBJECT z=0.80
; Reset extruder pos
G92 E0
; BEGIN_LAYER_OBJECT z=1.00
; fan on
M106
;
; 'Loop', 77.7 [RPM], 39.0 [mm/s]
G1 F5400
G1 X18.38 Y25.36 E0
G1 F210
G1 X18.38 Y25.36 Z1 E0
G1 F1800
G1 E10
G1 F2337.2
G1 X18.22 Y25.38 E10.0056
G1 X13.78 Y25.38 E10.1531
G1 X13.62 Y25.36 E10.1586
G1 X13.62 Y19.14 E10.3656
G1 X13.58 Y18.8 E10.377
G1 X13.44 Y18.56 E10.3861
G1 X13.2 Y18.42 E10.3952
G1 X12.86 Y18.38 E10.4066
G1 X6.64 Y18.38 E10.6136
G1 X6.62 Y18.22 E10.6192
G1 X6.62 Y13.78 E10.7667
G1 X6.64 Y13.62 E10.7722
G1 X12.86 Y13.62 E10.9792
G1 X13.2 Y13.58 E10.9906
G1 X13.44 Y13.44 E10.9997
G1 X13.58 Y13.2 E11.0088
G1 X13.62 Y12.86 E11.0202
G1 X13.62 Y6.64 E11.2272
G1 X13.78 Y6.62 E11.2327
G1 X18.22 Y6.62 E11.3802
G1 X18.38 Y6.64 E11.3858
G1 X18.38 Y12.86 E11.5928
G1 X18.42 Y13.2 E11.6042
G1 X18.56 Y13.44 E11.6133
G1 X18.8 Y13.58 E11.6224
G1 X19.08 Y13.62 E11.632
G1 X25.36 Y13.62 E11.8408
G1 X25.38 Y13.78 E11.8463
G1 X25.38 Y18.22 E11.9938
G1 X25.36 Y18.38 E11.9994
G1 X19.14 Y18.38 E12.2064
G1 X18.8 Y18.42 E12.2178
G1 X18.56 Y18.56 E12.2269
G1 X18.42 Y18.8 E12.236
G1 X18.38 Y19.08 E12.2456
G1 X18.38 Y25.36 E12.4544
;
; 'Perimeter', 63.1 [RPM], 31.6 [mm/s]
G1 F5400
G1 X18.64 Y25.53 E12.4544
G1 F1896
G1 X18.79 Y25.76 E12.4636
G1 X18.62 Y25.78 E12.4692
G1 X13.38 Y25.78 E12.6433
G1 X13.21 Y25.76 E12.6489
G1 X13.21 Y19.16 E12.8684
G1 X13.15 Y18.85 E12.8791
G1 X12.84 Y18.79 E12.8898
G1 X6.24 Y18.79 E13.1093
G1 X6.22 Y18.62 E13.1149
G1 X6.22 Y13.38 E13.2891
G1 X6.24 Y13.21 E13.2947
G1 X12.84 Y13.21 E13.5142
G1 X13.15 Y13.15 E13.5249
G1 X13.21 Y12.84 E13.5355
G1 X13.21 Y6.24 E13.755
G1 X13.38 Y6.22 E13.7607
G1 X18.62 Y6.22 E13.9348
G1 X18.79 Y6.24 E13.9404
G1 X18.79 Y12.84 E14.1599
G1 X18.85 Y13.15 E14.1706
G1 X19.06 Y13.21 E14.1779
G1 X25.76 Y13.21 E14.4009
G1 X25.78 Y13.38 E14.4065
G1 X25.78 Y18.62 E14.5806
G1 X25.76 Y18.79 E14.5862
G1 X19.16 Y18.79 E14.8057
G1 X18.85 Y18.85 E14.8164
G1 X18.79 Y19.06 E14.8238
G1 X18.79 Y25.76 E15.0467
G1 X18.54 Y25.64 E15.0559
; fan off
M107
;
; 'Solid', 83.8 [RPM], 42.0 [mm/s]
G1 F5400
G1 X18.18 Y24.57 E15.0559
G1 F2520
G1 X17.63 Y25.12 E15.082
G1 X17.06 Y25.12 E15.1008
G1 X18.12 Y24.06 E15.1508
G1 X18.12 Y23.5 E15.1696
G1 X16.49 Y25.12 E15.2461
G1 X15.93 Y25.12 E15.2649
G1 X18.12 Y22.93 E15.3681
G1 X18.12 Y22.36 E15.3869
G1 X15.36 Y25.12 E15.5166
G1 X14.8 Y25.12 E15.5354
G1 X18.12 Y21.8 E15.6918
G1 X18.12 Y21.23 E15.7106
G1 X14.21 Y25.14 E15.8943
G1 X13.86 Y24.93 E15.908
G1 X18.12 Y20.67 E16.1083
G1 X18.12 Y20.1 E16.1271
G1 X13.88 Y24.34 E16.3267
G1 X13.88 Y23.78 E16.3455
G1 X18.12 Y19.54 E16.5449
G1 X18.14 Y18.95 E16.5643
G1 X13.88 Y23.21 E16.7646
G1 X13.88 Y22.65 E16.7834
G1 X22.65 Y13.88 E17.1958
G1 X22.08 Y13.88 E17.2147
G1 X13.88 Y22.08 E17.6004
G1 X13.88 Y21.52 E17.6193
G1 X21.52 Y13.88 E17.9784
G1 X20.95 Y13.88 E17.9973
G1 X13.88 Y20.95 E18.3298
G1 X13.88 Y20.38 E18.3486
G1 X20.38 Y13.88 E18.6546
G1 X19.82 Y13.88 E18.6734
G1 X13.88 Y19.82 E18.9528
G1 X13.88 Y19.25 E18.9716
G1 X19.26 Y13.88 E19.2245
G1 X18.73 Y13.84 E19.2422
G1 X13.83 Y18.74 E19.4726
G1 X13.62 Y18.38 E19.4864
G1 X18.38 Y13.62 E19.7102
G1 X18.17 Y13.26 E19.724
G1 X13.27 Y18.16 E19.9544
G1 X12.74 Y18.12 E19.9721
G1 X18.12 Y12.75 E20.225
G1 X18.12 Y12.18 E20.2438
G1 X12.18 Y18.12 E20.5231
G1 X11.62 Y18.12 E20.542
G1 X18.12 Y11.62 E20.8479
G1 X18.12 Y11.05 E20.8667
G1 X11.05 Y18.12 E21.1993
G1 X10.48 Y18.12 E21.2181
G1 X18.12 Y10.48 E21.5773
G1 X18.12 Y9.92 E21.5961
G1 X9.92 Y18.12 E21.9819
G1 X9.35 Y18.12 E22.0007
G1 X18.18 Y9.29 E22.4159
;
; 'Solid', 83.8 [RPM], 42.0 [mm/s]
G1 F5400
G1 X14.43 Y6.82 E22.4159
G1 F2520
G1 X13.88 Y7.37 E22.442
G1 X13.88 Y7.94 E22.4609
G1 X14.94 Y6.88 E22.5108
G1 X15.51 Y6.88 E22.5296
G1 X13.88 Y8.5 E22.6061
G1 X13.88 Y9.07 E22.625
G1 X16.07 Y6.88 E22.7281
G1 X16.64 Y6.88 E22.7469
G1 X13.88 Y9.64 E22.8767
G1 X13.88 Y10.2 E22.8955
G1 X17.2 Y6.88 E23.0518
G1 X17.77 Y6.88 E23.0706
G1 X13.88 Y10.77 E23.2536
G1 X13.88 Y11.33 E23.2724
G1 X18.12 Y7.09 E23.472
G1 X18.12 Y7.66 E23.4908
G1 X13.88 Y11.9 E23.6903
G1 X13.88 Y12.46 E23.7091
G1 X18.12 Y8.22 E23.9086
G1 X18.12 Y8.79 E23.9275
G1 X8.79 Y18.12 E24.3665
G1 X8.22 Y18.12 E24.3853
G1 X12.46 Y13.88 E24.5848
G1 X11.9 Y13.88 E24.6036
G1 X7.66 Y18.12 E24.8032
G1 X7.09 Y18.12 E24.822
G1 X11.33 Y13.88 E25.0215
G1 X10.77 Y13.88 E25.0403
G1 X6.88 Y17.77 E25.2233
G1 X6.88 Y17.2 E25.2421
G1 X10.2 Y13.88 E25.3984
G1 X9.64 Y13.88 E25.4173
G1 X6.88 Y16.64 E25.547
G1 X6.88 Y16.07 E25.5658
G1 X9.07 Y13.88 E25.669
G1 X8.5 Y13.88 E25.6878
G1 X6.88 Y15.51 E25.7643
G1 X6.88 Y14.94 E25.7831
G1 X7.94 Y13.88 E25.8331
G1 X7.37 Y13.88 E25.8519
G1 X6.86 Y14.39 E25.876
;
; 'Solid', 83.8 [RPM], 42.0 [mm/s]
G1 F5400
G1 X18.89 Y18.2 E25.876
G1 F2520
G1 X23.21 Y13.88 E26.0792
G1 X23.78 Y13.88 E26.098
G1 X19.54 Y18.12 E26.2976
G1 X20.1 Y18.12 E26.3164
G1 X24.34 Y13.88 E26.5159
G1 X24.91 Y13.88 E26.5347
G1 X20.67 Y18.12 E26.7343
G1 X21.23 Y18.12 E26.7531
G1 X25.12 Y14.23 E26.936
G1 X25.12 Y14.8 E26.9548
G1 X21.8 Y18.12 E27.1112
G1 X22.36 Y18.12 E27.13
G1 X25.12 Y15.36 E27.2598
G1 X25.12 Y15.93 E27.2786
G1 X22.93 Y18.12 E27.3817
G1 X23.5 Y18.12 E27.4005
G1 X25.12 Y16.49 E27.477
G1 X25.12 Y17.06 E27.4959
G1 X24.06 Y18.12 E27.5458
G1 X24.63 Y18.12 E27.5646
G1 X25.18 Y17.57 E27.5907
;
; 'Wipe', 0.0 [RPM], 42.0 [mm/s]
G1 F1800
G1 E17.5907
G1 F2520
G1 X24.63 Y18.12 E17.5907
G1 X24.06 Y18.12 E17.5907
G1 X25.12 Y17.06 E17.5907
G1 F210
G1 X25.12 Y17.06 Z1.45 E17.5907
; END_LAYER_OBJECT z=1.00
; Reset extruder pos
G92 E0
; BEGIN_LAYER_OBJECT z=1.20
; *** Cooling...speed multiplier is 0.222104 ***
; fan on
M106
;
; 'Perimeter', 14.0 [RPM], 7.0 [mm/s]
G1 F5400
G1 X6.67 Y18.53 E0
G1 F210
G1 X6.67 Y18.53 Z1.2 E0
G1 F1800
G1 E10
G1 F421.1
G1 X6.72 Y18.79 E10.0088
G1 X6.24 Y18.79 E10.0248
G1 X6.22 Y18.62 E10.0304
G1 X6.22 Y13.38 E10.2045
G1 X6.24 Y13.21 E10.2101
G1 X6.72 Y13.21 E10.2261
G1 X6.79 Y13.33 E10.2307
G1 X6.79 Y18.67 E10.408
G1 X6.72 Y18.79 E10.4126
G1 X6.52 Y18.61 E10.4214
; fan off
M107
;
; 'Wipe', 0.0 [RPM], 9.3 [mm/s]
G1 F1800
G1 E0.4214
G1 F559.7
G1 X6.72 Y18.79 E0.4214
G1 X6.79 Y18.67 E0.4214
G1 X6.79 Y16.97 E0.4214
; fan on
M106
;
; 'Perimeter', 14.0 [RPM], 7.0 [mm/s]
G1 F1199.4
G1 X18.64 Y25.53 E0.4214
G1 F1800
G1 E10.4214
G1 F421.1
G1 X18.79 Y25.76 E10.4306
G1 X18.62 Y25.78 E10.4362
G1 X13.38 Y25.78 E10.6103
G1 X13.21 Y25.76 E10.616
G1 X13.21 Y25.28 E10.6319
G1 X13.33 Y25.21 E10.6365
G1 X18.67 Y25.21 E10.8138
G1 X18.79 Y25.28 E10.8184
G1 X18.79 Y25.76 E10.8344
G1 X18.54 Y25.64 E10.8436
; fan off
M107
;
; 'Wipe', 0.0 [RPM], 9.3 [mm/s]
G1 F1800
G1 E0.8436
G1 F559.7
G1 X18.79 Y25.76 E0.8436
G1 X18.79 Y25.28 E0.8436
G1 X18.67 Y25.21 E0.8436
G1 X17.53 Y25.21 E0.8436
; fan on
M106
;
; 'Perimeter', 14.0 [RPM], 7.0 [mm/s]
G1 F1199.4
G1 X25.64 Y18.54 E0.8436
G1 F1800
G1 E10.8436
G1 F421.1
G1 X25.76 Y18.79 E10.8528
G1 X25.28 Y18.79 E10.8687
G1 X25.21 Y18.67 E10.8733
G1 X25.21 Y13.33 E11.0506
G1 X25.28 Y13.21 E11.0552
G1 X25.76 Y13.21 E11.0712
G1 X25.78 Y13.38 E11.0768
G1 X25.78 Y18.62 E11.2509
G1 X25.76 Y18.79 E11.2565
G1 X25.53 Y18.64 E11.2657
; fan off
M107
;
; 'Wipe', 0.0 [RPM], 9.3 [mm/s]
G1 F1800
G1 E1.2657
G1 F559.7
G1 X25.76 Y18.79 E1.2657
G1 X25.78 Y18.62 E1.2657
G1 X25.78 Y16.96 E1.2657
; fan on
M106
;
; 'Perimeter', 14.0 [RPM], 7.0 [mm/s]
G1 F1199.4
G1 X18.61 Y6.52 E1.2657
G1 F1800
G1 E11.2657
G1 F421.1
G1 X18.79 Y6.72 E11.2746
G1 X18.66 Y6.79 E11.2792
G1 X13.34 Y6.79 E11.4564
G1 X13.21 Y6.72 E11.461
G1 X13.21 Y6.24 E11.477
G1 X13.38 Y6.22 E11.4826
G1 X18.62 Y6.22 E11.6568
G1 X18.79 Y6.24 E11.6624
G1 X18.79 Y6.72 E11.6783
G1 X18.53 Y6.67 E11.6871
; fan off
M107
;
; 'Wipe', 0.0 [RPM], 9.3 [mm/s]
G1 F1800
G1 E1.6871
G1 F559.7
G1 X18.79 Y6.72 E1.6871
G1 X18.79 Y6.24 E1.6871
G1 X18.62 Y6.22 E1.6871
G1 X17.53 Y6.22 E1.6871
G1 F210
G1 X17.53 Y6.22 Z1.65 E1.6871
; END_LAYER_OBJECT z=1.20
; Reset extruder pos
G92 E0
; BEGIN_LAYER_OBJECT z=1.40
; *** Cooling...speed multiplier is 0.222104 ***
; fan on
M106
;
; 'Perimeter', 14.0 [RPM], 7.0 [mm/s]
G1 F5400
G1 X6.67 Y18.53 E0
G1 F210
G1 X6.67 Y18.53 Z1.4 E0
G1 F1800
G1 E10
G1 F421.1
G1 X6.72 Y18.79 E10.0088
G1 X6.24 Y18.79 E10.0248
G1 X6.22 Y18.62 E10.0304
G1 X6.22 Y13.38 E10.2045
G1 X6.24 Y13.21 E10.2101
G1 X6.72 Y13.21 E10.2261
G1 X6.79 Y13.33 E10.2307
G1 X6.79 Y18.67 E10.408
G1 X6.72 Y18.79 E10.4126
G1 X6.52 Y18.61 E10.4214
; fan off
M107
;
; 'Wipe', 0.0 [RPM], 9.3 [mm/s]
G1 F1800
G1 E0.4214
G1 F559.7
G1 X6.72 Y18.79 E0.4214
G1 X6.79 Y18.67 E0.4214
G1 X6.79 Y16.97 E0.4214
; fan on
M106
;
; 'Perimeter', 14.0 [RPM], 7.0 [mm/s]
G1 F1199.4
G1 X18.64 Y25.53 E0.4214
G1 F1800
G1 E10.4214
G1 F421.1
G1 X18.79 Y25.76 E10.4306
G1 X18.62 Y25.78 E10.4362
G1 X13.38 Y25.78 E10.6103
G1 X13.21 Y25.76 E10.616
G1 X13.21 Y25.28 E10.6319
G1 X13.33 Y25.21 E10.6365
G1 X18.67 Y25.21 E10.8138
G1 X18.79 Y25.28 E10.8184
G1 X18.79 Y25.76 E10.8344
G1 X18.54 Y25.64 E10.8436
; fan off
M107
;
; 'Wipe', 0.0 [RPM], 9.3 [mm/s]
G1 F1800
G1 E0.8436
G1 F559.7
G1 X18.79 Y25.76 E0.8436
G1 X18.79 Y25.28 E0.8436
G1 X18.67 Y25.21 E0.8436
G1 X17.53 Y25.21 E0.8436
; fan on
M106
;
; 'Perimeter', 14.0 [RPM], 7.0 [mm/s]
G1 F1199.4
G1 X25.64 Y18.54 E0.8436
G1 F1800
G1 E10.8436
G1 F421.1
G1 X25.76 Y18.79 E10.8528
G1 X25.28 Y18.79 E10.8687
G1 X25.21 Y18.67 E10.8733
G1 X25.21 Y13.33 E11.0506
G1 X25.28 Y13.21 E11.0552
G1 X25.76 Y13.21 E11.0712
G1 X25.78 Y13.38 E11.0768
G1 X25.78 Y18.62 E11.2509
G1 X25.76 Y18.79 E11.2565
G1 X25.53 Y18.64 E11.2657
; fan off
M107
;
; 'Wipe', 0.0 [RPM], 9.3 [mm/s]
G1 F1800
G1 E1.2657
G1 F559.7
G1 X25.76 Y18.79 E1.2657
G1 X25.78 Y18.62 E1.2657
G1 X25.78 Y16.96 E1.2657
; fan on
M106
;
; 'Perimeter', 14.0 [RPM], 7.0 [mm/s]
G1 F1199.4
G1 X18.61 Y6.52 E1.2657
G1 F1800
G1 E11.2657
G1 F421.1
G1 X18.79 Y6.72 E11.2746
G1 X18.66 Y6.79 E11.2792
G1 X13.34 Y6.79 E11.4564
G1 X13.21 Y6.72 E11.461
G1 X13.21 Y6.24 E11.477
G1 X13.38 Y6.22 E11.4826
G1 X18.62 Y6.22 E11.6568
G1 X18.79 Y6.24 E11.6624
G1 X18.79 Y6.72 E11.6783
G1 X18.53 Y6.67 E11.6871
; fan off
M107
;
; 'Wipe', 0.0 [RPM], 9.3 [mm/s]
G1 F1800
G1 E1.6871
G1 F559.7
G1 X18.79 Y6.72 E1.6871
G1 X18.79 Y6.24 E1.6871
G1 X18.62 Y6.22 E1.6871
G1 X17.53 Y6.22 E1.6871
G1 F210
G1 X17.53 Y6.22 Z1.85 E1.6871
; END_LAYER_OBJECT z=1.40
; Reset extruder pos
G92 E0
; BEGIN_LAYER_OBJECT z=1.60
; *** Cooling...speed multiplier is 0.222104 ***
; fan on
M106
;
; 'Perimeter', 14.0 [RPM], 7.0 [mm/s]
G1 F5400
G1 X6.67 Y18.53 E0
G1 F210
G1 X6.67 Y18.53 Z1.6 E0
G1 F1800
G1 E10
G1 F421.1
G1 X6.72 Y18.79 E10.0088
G1 X6.24 Y18.79 E10.0248
G1 X6.22 Y18.62 E10.0304
G1 X6.22 Y13.38 E10.2045
G1 X6.24 Y13.21 E10.2101
G1 X6.72 Y13.21 E10.2261
G1 X6.79 Y13.33 E10.2307
G1 X6.79 Y18.67 E10.408
G1 X6.72 Y18.79 E10.4126
G1 X6.52 Y18.61 E10.4214
; fan off
M107
;
; 'Wipe', 0.0 [RPM], 9.3 [mm/s]
G1 F1800
G1 E0.4214
G1 F559.7
G1 X6.72 Y18.79 E0.4214
G1 X6.79 Y18.67 E0.4214
G1 X6.79 Y16.97 E0.4214
; fan on
M106
;
; 'Perimeter', 14.0 [RPM], 7.0 [mm/s]
G1 F1199.4
G1 X18.64 Y25.53 E0.4214
G1 F1800
G1 E10.4214
G1 F421.1
G1 X18.79 Y25.76 E10.4306
G1 X18.62 Y25.78 E10.4362
G1 X13.38 Y25.78 E10.6103
G1 X13.21 Y25.76 E10.616
G1 X13.21 Y25.28 E10.6319
G1 X13.33 Y25.21 E10.6365
G1 X18.67 Y25.21 E10.8138
G1 X18.79 Y25.28 E10.8184
G1 X18.79 Y25.76 E10.8344
G1 X18.54 Y25.64 E10.8436
; fan off
M107
;
; 'Wipe', 0.0 [RPM], 9.3 [mm/s]
G1 F1800
G1 E0.8436
G1 F559.7
G1 X18.79 Y25.76 E0.8436
G1 X18.79 Y25.28 E0.8436
G1 X18.67 Y25.21 E0.8436
G1 X17.53 Y25.21 E0.8436
; fan on
M106
;
; 'Perimeter', 14.0 [RPM], 7.0 [mm/s]
G1 F1199.4
G1 X25.64 Y18.54 E0.8436
G1 F1800
G1 E10.8436
G1 F421.1
G1 X25.76 Y18.79 E10.8528
G1 X25.28 Y18.79 E10.8687
G1 X25.21 Y18.67 E10.8733
G1 X25.21 Y13.33 E11.0506
G1 X25.28 Y13.21 E11.0552
G1 X25.76 Y13.21 E11.0712
G1 X25.78 Y13.38 E11.0768
G1 X25.78 Y18.62 E11.2509
G1 X25.76 Y18.79 E11.2565
G1 X25.53 Y18.64 E11.2657
; fan off
M107
;
; 'Wipe', 0.0 [RPM], 9.3 [mm/s]
G1 F1800
G1 E1.2657
G1 F559.7
G1 X25.76 Y18.79 E1.2657
G1 X25.78 Y18.62 E1.2657
G1 X25.78 Y16.96 E1.2657
; fan on
M106
;
; 'Perimeter', 14.0 [RPM], 7.0 [mm/s]
G1 F1199.4
G1 X18.61 Y6.52 E1.2657
G1 F1800
G1 E11.2657
G1 F421.1
G1 X18.79 Y6.72 E11.2746
G1 X18.66 Y6.79 E11.2792
G1 X13.34 Y6.79 E11.4564
G1 X13.21 Y6.72 E11.461
G1 X13.21 Y6.24 E11.477
G1 X13.38 Y6.22 E11.4826
G1 X18.62 Y6.22 E11.6568
G1 X18.79 Y6.24 E11.6624
G1 X18.79 Y6.72 E11.6783
G1 X18.53 Y6.67 E11.6871
; fan off
M107
;
; 'Wipe', 0.0 [RPM], 9.3 [mm/s]
G1 F1800
G1 E1.6871
G1 F559.7
G1 X18.79 Y6.72 E1.6871
G1 X18.79 Y6.24 E1.6871
G1 X18.62 Y6.22 E1.6871
G1 X17.53 Y6.22 E1.6871
G1 F210
G1 X17.53 Y6.22 Z2.05 E1.6871
; END_LAYER_OBJECT z=1.60
; Reset extruder pos
G92 E0
; BEGIN_LAYER_OBJECT z=1.80
; *** Cooling...speed multiplier is 0.222104 ***
; fan on
M106
;
; 'Perimeter', 14.0 [RPM], 7.0 [mm/s]
G1 F5400
G1 X6.67 Y18.53 E0
G1 F210
G1 X6.67 Y18.53 Z1.8 E0
G1 F1800
G1 E10
G1 F421.1
G1 X6.72 Y18.79 E10.0088
G1 X6.24 Y18.79 E10.0248
G1 X6.22 Y18.62 E10.0304
G1 X6.22 Y13.38 E10.2045
G1 X6.24 Y13.21 E10.2101
G1 X6.72 Y13.21 E10.2261
G1 X6.79 Y13.33 E10.2307
G1 X6.79 Y18.67 E10.408
G1 X6.72 Y18.79 E10.4126
G1 X6.52 Y18.61 E10.4214
; fan off
M107
;
; 'Wipe', 0.0 [RPM], 9.3 [mm/s]
G1 F1800
G1 E0.4214
G1 F559.7
G1 X6.72 Y18.79 E0.4214
G1 X6.79 Y18.67 E0.4214
G1 X6.79 Y16.97 E0.4214
; fan on
M106
;
; 'Perimeter', 14.0 [RPM], 7.0 [mm/s]
G1 F1199.4
G1 X18.64 Y25.53 E0.4214
G1 F1800
G1 E10.4214
G1 F421.1
G1 X18.79 Y25.76 E10.4306
G1 X18.62 Y25.78 E10.4362
G1 X13.38 Y25.78 E10.6103
G1 X13.21 Y25.76 E10.616
G1 X13.21 Y25.28 E10.6319
G1 X13.33 Y25.21 E10.6365
G1 X18.67 Y25.21 E10.8138
G1 X18.79 Y25.28 E10.8184
G1 X18.79 Y25.76 E10.8344
G1 X18.54 Y25.64 E10.8436
; fan off
M107
;
; 'Wipe', 0.0 [RPM], 9.3 [mm/s]
G1 F1800
G1 E0.8436
G1 F559.7
G1 X18.79 Y25.76 E0.8436
G1 X18.79 Y25.28 E0.8436
G1 X18.67 Y25.21 E0.8436
G1 X17.53 Y25.21 E0.8436
; fan on
M106
;
; 'Perimeter', 14.0 [RPM], 7.0 [mm/s]
G1 F1199.4
G1 X25.64 Y18.54 E0.8436
G1 F1800
G1 E10.8436
G1 F421.1
G1 X25.76 Y18.79 E10.8528
G1 X25.28 Y18.79 E10.8687
G1 X25.21 Y18.67 E10.8733
G1 X25.21 Y13.33 E11.0506
G1 X25.28 Y13.21 E11.0552
G1 X25.76 Y13.21 E11.0712
G1 X25.78 Y13.38 E11.0768
G1 X25.78 Y18.62 E11.2509
G1 X25.76 Y18.79 E11.2565
G1 X25.53 Y18.64 E11.2657
; fan off
M107
;
; 'Wipe', 0.0 [RPM], 9.3 [mm/s]
G1 F1800
G1 E1.2657
G1 F559.7
G1 X25.76 Y18.79 E1.2657
G1 X25.78 Y18.62 E1.2657
G1 X25.78 Y16.96 E1.2657
; fan on
M106
;
; 'Perimeter', 14.0 [RPM], 7.0 [mm/s]
G1 F1199.4
G1 X18.61 Y6.52 E1.2657
G1 F1800
G1 E11.2657
G1 F421.1
G1 X18.79 Y6.72 E11.2746
G1 X18.66 Y6.79 E11.2792
G1 X13.34 Y6.79 E11.4564
G1 X13.21 Y6.72 E11.461
G1 X13.21 Y6.24 E11.477
G1 X13.38 Y6.22 E11.4826
G1 X18.62 Y6.22 E11.6568
G1 X18.79 Y6.24 E11.6624
G1 X18.79 Y6.72 E11.6783
G1 X18.53 Y6.67 E11.6871
; fan off
M107
;
; 'Wipe', 0.0 [RPM], 9.3 [mm/s]
G1 F1800
G1 E1.6871
G1 F559.7
G1 X18.79 Y6.72 E1.6871
G1 X18.79 Y6.24 E1.6871
G1 X18.62 Y6.22 E1.6871
G1 X17.53 Y6.22 E1.6871
G1 F210
G1 X17.53 Y6.22 Z2.25 E1.6871
; END_LAYER_OBJECT z=1.80
; Reset extruder pos
G92 E0
; BEGIN_LAYER_OBJECT z=2.00
; *** Cooling...speed multiplier is 0.222104 ***
; fan on
M106
;
; 'Perimeter', 14.0 [RPM], 7.0 [mm/s]
G1 F5400
G1 X6.67 Y18.53 E0
G1 F210
G1 X6.67 Y18.53 Z2 E0
G1 F1800
G1 E10
G1 F421.1
G1 X6.72 Y18.79 E10.0088
G1 X6.24 Y18.79 E10.0248
G1 X6.22 Y18.62 E10.0304
G1 X6.22 Y13.38 E10.2045
G1 X6.24 Y13.21 E10.2101
G1 X6.72 Y13.21 E10.2261
G1 X6.79 Y13.33 E10.2307
G1 X6.79 Y18.67 E10.408
G1 X6.72 Y18.79 E10.4126
G1 X6.52 Y18.61 E10.4214
; fan off
M107
;
; 'Wipe', 0.0 [RPM], 9.3 [mm/s]
G1 F1800
G1 E0.4214
G1 F559.7
G1 X6.72 Y18.79 E0.4214
G1 X6.79 Y18.67 E0.4214
G1 X6.79 Y16.97 E0.4214
; fan on
M106
;
; 'Perimeter', 14.0 [RPM], 7.0 [mm/s]
G1 F1199.4
G1 X18.64 Y25.53 E0.4214
G1 F1800
G1 E10.4214
G1 F421.1
G1 X18.79 Y25.76 E10.4306
G1 X18.62 Y25.78 E10.4362
G1 X13.38 Y25.78 E10.6103
G1 X13.21 Y25.76 E10.616
G1 X13.21 Y25.28 E10.6319
G1 X13.33 Y25.21 E10.6365
G1 X18.67 Y25.21 E10.8138
G1 X18.79 Y25.28 E10.8184
G1 X18.79 Y25.76 E10.8344
G1 X18.54 Y25.64 E10.8436
; fan off
M107
;
; 'Wipe', 0.0 [RPM], 9.3 [mm/s]
G1 F1800
G1 E0.8436
G1 F559.7
G1 X18.79 Y25.76 E0.8436
G1 X18.79 Y25.28 E0.8436
G1 X18.67 Y25.21 E0.8436
G1 X17.53 Y25.21 E0.8436
; fan on
M106
;
; 'Perimeter', 14.0 [RPM], 7.0 [mm/s]
G1 F1199.4
G1 X25.64 Y18.54 E0.8436
G1 F1800
G1 E10.8436
G1 F421.1
G1 X25.76 Y18.79 E10.8528
G1 X25.28 Y18.79 E10.8687
G1 X25.21 Y18.67 E10.8733
G1 X25.21 Y13.33 E11.0506
G1 X25.28 Y13.21 E11.0552
G1 X25.76 Y13.21 E11.0712
G1 X25.78 Y13.38 E11.0768
G1 X25.78 Y18.62 E11.2509
G1 X25.76 Y18.79 E11.2565
G1 X25.53 Y18.64 E11.2657
; fan off
M107
;
; 'Wipe', 0.0 [RPM], 9.3 [mm/s]
G1 F1800
G1 E1.2657
G1 F559.7
G1 X25.76 Y18.79 E1.2657
G1 X25.78 Y18.62 E1.2657
G1 X25.78 Y16.96 E1.2657
; fan on
M106
;
; 'Perimeter', 14.0 [RPM], 7.0 [mm/s]
G1 F1199.4
G1 X18.61 Y6.52 E1.2657
G1 F1800
G1 E11.2657
G1 F421.1
G1 X18.79 Y6.72 E11.2746
G1 X18.66 Y6.79 E11.2792
G1 X13.34 Y6.79 E11.4564
G1 X13.21 Y6.72 E11.461
G1 X13.21 Y6.24 E11.477
G1 X13.38 Y6.22 E11.4826
G1 X18.62 Y6.22 E11.6568
G1 X18.79 Y6.24 E11.6624
G1 X18.79 Y6.72 E11.6783
G1 X18.53 Y6.67 E11.6871
; fan off
M107
;
; 'Wipe', 0.0 [RPM], 9.3 [mm/s]
G1 F1800
G1 E1.6871
G1 F559.7
G1 X18.79 Y6.72 E1.6871
G1 X18.79 Y6.24 E1.6871
G1 X18.62 Y6.22 E1.6871
G1 X17.53 Y6.22 E1.6871
G1 F210
G1 X17.53 Y6.22 Z2.45 E1.6871
; END_LAYER_OBJECT z=2.00
; Reset extruder pos
G92 E0
; BEGIN_LAYER_OBJECT z=2.20
; *** Cooling...speed multiplier is 0.222104 ***
; fan on
M106
;
; 'Perimeter', 14.0 [RPM], 7.0 [mm/s]
G1 F5400
G1 X6.67 Y18.53 E0
G1 F210
G1 X6.67 Y18.53 Z2.2 E0
G1 F1800
G1 E10
G1 F421.1
G1 X6.72 Y18.79 E10.0088
G1 X6.24 Y18.79 E10.0248
G1 X6.22 Y18.62 E10.0304
G1 X6.22 Y13.38 E10.2045
G1 X6.24 Y13.21 E10.2101
G1 X6.72 Y13.21 E10.2261
G1 X6.79 Y13.33 E10.2307
G1 X6.79 Y18.67 E10.408
G1 X6.72 Y18.79 E10.4126
G1 X6.52 Y18.61 E10.4214
; fan off
M107
;
; 'Wipe', 0.0 [RPM], 9.3 [mm/s]
G1 F1800
G1 E0.4214
G1 F559.7
G1 X6.72 Y18.79 E0.4214
G1 X6.79 Y18.67 E0.4214
G1 X6.79 Y16.97 E0.4214
; fan on
M106
;
; 'Perimeter', 14.0 [RPM], 7.0 [mm/s]
G1 F1199.4
G1 X18.64 Y25.53 E0.4214
G1 F1800
G1 E10.4214
G1 F421.1
G1 X18.79 Y25.76 E10.4306
G1 X18.62 Y25.78 E10.4362
G1 X13.38 Y25.78 E10.6103
G1 X13.21 Y25.76 E10.616
G1 X13.21 Y25.28 E10.6319
G1 X13.33 Y25.21 E10.6365
G1 X18.67 Y25.21 E10.8138
G1 X18.79 Y25.28 E10.8184
G1 X18.79 Y25.76 E10.8344
G1 X18.54 Y25.64 E10.8436
; fan off
M107
;
; 'Wipe', 0.0 [RPM], 9.3 [mm/s]
G1 F1800
G1 E0.8436
G1 F559.7
G1 X18.79 Y25.76 E0.8436
G1 X18.79 Y25.28 E0.8436
G1 X18.67 Y25.21 E0.8436
G1 X17.53 Y25.21 E0.8436
; fan on
M106
;
; 'Perimeter', 14.0 [RPM], 7.0 [mm/s]
G1 F1199.4
G1 X25.64 Y18.54 E0.8436
G1 F1800
G1 E10.8436
G1 F421.1
G1 X25.76 Y18.79 E10.8528
G1 X25.28 Y18.79 E10.8687
G1 X25.21 Y18.67 E10.8733
G1 X25.21 Y13.33 E11.0506
G1 X25.28 Y13.21 E11.0552
G1 X25.76 Y13.21 E11.0712
G1 X25.78 Y13.38 E11.0768
G1 X25.78 Y18.62 E11.2509
G1 X25.76 Y18.79 E11.2565
G1 X25.53 Y18.64 E11.2657
; fan off
M107
;
; 'Wipe', 0.0 [RPM], 9.3 [mm/s]
G1 F1800
G1 E1.2657
G1 F559.7
G1 X25.76 Y18.79 E1.2657
G1 X25.78 Y18.62 E1.2657
G1 X25.78 Y16.96 E1.2657
; fan on
M106
;
; 'Perimeter', 14.0 [RPM], 7.0 [mm/s]
G1 F1199.4
G1 X18.61 Y6.52 E1.2657
G1 F1800
G1 E11.2657
G1 F421.1
G1 X18.79 Y6.72 E11.2746
G1 X18.66 Y6.79 E11.2792
G1 X13.34 Y6.79 E11.4564
G1 X13.21 Y6.72 E11.461
G1 X13.21 Y6.24 E11.477
G1 X13.38 Y6.22 E11.4826
G1 X18.62 Y6.22 E11.6568
G1 X18.79 Y6.24 E11.6624
G1 X18.79 Y6.72 E11.6783
G1 X18.53 Y6.67 E11.6871
; fan off
M107
;
; 'Wipe', 0.0 [RPM], 9.3 [mm/s]
G1 F1800
G1 E1.6871
G1 F559.7
G1 X18.79 Y6.72 E1.6871
G1 X18.79 Y6.24 E1.6871
G1 X18.62 Y6.22 E1.6871
G1 X17.53 Y6.22 E1.6871
G1 F210
G1 X17.53 Y6.22 Z2.65 E1.6871
; END_LAYER_OBJECT z=2.20
; Reset extruder pos
G92 E0
; BEGIN_LAYER_OBJECT z=2.40
; *** Cooling...speed multiplier is 0.222104 ***
; fan on
M106
;
; 'Perimeter', 14.0 [RPM], 7.0 [mm/s]
G1 F5400
G1 X6.67 Y18.53 E0
G1 F210
G1 X6.67 Y18.53 Z2.4 E0
G1 F1800
G1 E10
G1 F421.1
G1 X6.72 Y18.79 E10.0088
G1 X6.24 Y18.79 E10.0248
G1 X6.22 Y18.62 E10.0304
G1 X6.22 Y13.38 E10.2045
G1 X6.24 Y13.21 E10.2101
G1 X6.72 Y13.21 E10.2261
G1 X6.79 Y13.33 E10.2307
G1 X6.79 Y18.67 E10.408
G1 X6.72 Y18.79 E10.4126
G1 X6.52 Y18.61 E10.4214
; fan off
M107
;
; 'Wipe', 0.0 [RPM], 9.3 [mm/s]
G1 F1800
G1 E0.4214
G1 F559.7
G1 X6.72 Y18.79 E0.4214
G1 X6.79 Y18.67 E0.4214
G1 X6.79 Y16.97 E0.4214
; fan on
M106
;
; 'Perimeter', 14.0 [RPM], 7.0 [mm/s]
G1 F1199.4
G1 X18.64 Y25.53 E0.4214
G1 F1800
G1 E10.4214
G1 F421.1
G1 X18.79 Y25.76 E10.4306
G1 X18.62 Y25.78 E10.4362
G1 X13.38 Y25.78 E10.6103
G1 X13.21 Y25.76 E10.616
G1 X13.21 Y25.28 E10.6319
G1 X13.33 Y25.21 E10.6365
G1 X18.67 Y25.21 E10.8138
G1 X18.79 Y25.28 E10.8184
G1 X18.79 Y25.76 E10.8344
G1 X18.54 Y25.64 E10.8436
; fan off
M107
;
; 'Wipe', 0.0 [RPM], 9.3 [mm/s]
G1 F1800
G1 E0.8436
G1 F559.7
G1 X18.79 Y25.76 E0.8436
G1 X18.79 Y25.28 E0.8436
G1 X18.67 Y25.21 E0.8436
G1 X17.53 Y25.21 E0.8436
; fan on
M106
;
; 'Perimeter', 14.0 [RPM], 7.0 [mm/s]
G1 F1199.4
G1 X25.64 Y18.54 E0.8436
G1 F1800
G1 E10.8436
G1 F421.1
G1 X25.76 Y18.79 E10.8528
G1 X25.28 Y18.79 E10.8687
G1 X25.21 Y18.67 E10.8733
G1 X25.21 Y13.33 E11.0506
G1 X25.28 Y13.21 E11.0552
G1 X25.76 Y13.21 E11.0712
G1 X25.78 Y13.38 E11.0768
G1 X25.78 Y18.62 E11.2509
G1 X25.76 Y18.79 E11.2565
G1 X25.53 Y18.64 E11.2657
; fan off
M107
;
; 'Wipe', 0.0 [RPM], 9.3 [mm/s]
G1 F1800
G1 E1.2657
G1 F559.7
G1 X25.76 Y18.79 E1.2657
G1 X25.78 Y18.62 E1.2657
G1 X25.78 Y16.96 E1.2657
; fan on
M106
;
; 'Perimeter', 14.0 [RPM], 7.0 [mm/s]
G1 F1199.4
G1 X18.61 Y6.52 E1.2657
G1 F1800
G1 E11.2657
G1 F421.1
G1 X18.79 Y6.72 E11.2746
G1 X18.66 Y6.79 E11.2792
G1 X13.34 Y6.79 E11.4564
G1 X13.21 Y6.72 E11.461
G1 X13.21 Y6.24 E11.477
G1 X13.38 Y6.22 E11.4826
G1 X18.62 Y6.22 E11.6568
G1 X18.79 Y6.24 E11.6624
G1 X18.79 Y6.72 E11.6783
G1 X18.53 Y6.67 E11.6871
; fan off
M107
;
; 'Wipe', 0.0 [RPM], 9.3 [mm/s]
G1 F1800
G1 E1.6871
G1 F559.7
G1 X18.79 Y6.72 E1.6871
G1 X18.79 Y6.24 E1.6871
G1 X18.62 Y6.22 E1.6871
G1 X17.53 Y6.22 E1.6871
G1 F210
G1 X17.53 Y6.22 Z2.85 E1.6871
; END_LAYER_OBJECT z=2.40
; Reset extruder pos
G92 E0
; BEGIN_LAYER_OBJECT z=2.60
; *** Cooling...speed multiplier is 0.222104 ***
; fan on
M106
;
; 'Perimeter', 14.0 [RPM], 7.0 [mm/s]
G1 F5400
G1 X6.67 Y18.53 E0
G1 F210
G1 X6.67 Y18.53 Z2.6 E0
G1 F1800
G1 E10
G1 F421.1
G1 X6.72 Y18.79 E10.0088
G1 X6.24 Y18.79 E10.0248
G1 X6.22 Y18.62 E10.0304
G1 X6.22 Y13.38 E10.2045
G1 X6.24 Y13.21 E10.2101
G1 X6.72 Y13.21 E10.2261
G1 X6.79 Y13.33 E10.2307
G1 X6.79 Y18.67 E10.408
G1 X6.72 Y18.79 E10.4126
G1 X6.52 Y18.61 E10.4214
; fan off
M107
;
; 'Wipe', 0.0 [RPM], 9.3 [mm/s]
G1 F1800
G1 E0.4214
G1 F559.7
G1 X6.72 Y18.79 E0.4214
G1 X6.79 Y18.67 E0.4214
G1 X6.79 Y16.97 E0.4214
; fan on
M106
;
; 'Perimeter', 14.0 [RPM], 7.0 [mm/s]
G1 F1199.4
G1 X18.64 Y25.53 E0.4214
G1 F1800
G1 E10.4214
G1 F421.1
G1 X18.79 Y25.76 E10.4306
G1 X18.62 Y25.78 E10.4362
G1 X13.38 Y25.78 E10.6103
G1 X13.21 Y25.76 E10.616
G1 X13.21 Y25.28 E10.6319
G1 X13.33 Y25.21 E10.6365
G1 X18.67 Y25.21 E10.8138
G1 X18.79 Y25.28 E10.8184
G1 X18.79 Y25.76 E10.8344
G1 X18.54 Y25.64 E10.8436
; fan off
M107
;
; 'Wipe', 0.0 [RPM], 9.3 [mm/s]
G1 F1800
G1 E0.8436
G1 F559.7
G1 X18.79 Y25.76 E0.8436
G1 X18.79 Y25.28 E0.8436
G1 X18.67 Y25.21 E0.8436
G1 X17.53 Y25.21 E0.8436
; fan on
M106
;
; 'Perimeter', 14.0 [RPM], 7.0 [mm/s]
G1 F1199.4
G1 X25.64 Y18.54 E0.8436
G1 F1800
G1 E10.8436
G1 F421.1
G1 X25.76 Y18.79 E10.8528
G1 X25.28 Y18.79 E10.8687
G1 X25.21 Y18.67 E10.8733
G1 X25.21 Y13.33 E11.0506
G1 X25.28 Y13.21 E11.0552
G1 X25.76 Y13.21 E11.0712
G1 X25.78 Y13.38 E11.0768
G1 X25.78 Y18.62 E11.2509
G1 X25.76 Y18.79 E11.2565
G1 X25.53 Y18.64 E11.2657
; fan off
M107
;
; 'Wipe', 0.0 [RPM], 9.3 [mm/s]
G1 F1800
G1 E1.2657
G1 F559.7
G1 X25.76 Y18.79 E1.2657
G1 X25.78 Y18.62 E1.2657
G1 X25.78 Y16.96 E1.2657
; fan on
M106
;
; 'Perimeter', 14.0 [RPM], 7.0 [mm/s]
G1 F1199.4
G1 X18.61 Y6.52 E1.2657
G1 F1800
G1 E11.2657
G1 F421.1
G1 X18.79 Y6.72 E11.2746
G1 X18.66 Y6.79 E11.2792
G1 X13.34 Y6.79 E11.4564
G1 X13.21 Y6.72 E11.461
G1 X13.21 Y6.24 E11.477
G1 X13.38 Y6.22 E11.4826
G1 X18.62 Y6.22 E11.6568
G1 X18.79 Y6.24 E11.6624
G1 X18.79 Y6.72 E11.6783
G1 X18.53 Y6.67 E11.6871
; fan off
M107
;
; 'Wipe', 0.0 [RPM], 9.3 [mm/s]
G1 F1800
G1 E1.6871
G1 F559.7
G1 X18.79 Y6.72 E1.6871
G1 X18.79 Y6.24 E1.6871
G1 X18.62 Y6.22 E1.6871
G1 X17.53 Y6.22 E1.6871
G1 F210
G1 X17.53 Y6.22 Z3.05 E1.6871
; END_LAYER_OBJECT z=2.60
; Reset extruder pos
G92 E0
; BEGIN_LAYER_OBJECT z=2.80
; *** Cooling...speed multiplier is 0.222104 ***
; fan on
M106
;
; 'Perimeter', 14.0 [RPM], 7.0 [mm/s]
G1 F5400
G1 X6.67 Y18.53 E0
G1 F210
G1 X6.67 Y18.53 Z2.8 E0
G1 F1800
G1 E10
G1 F421.1
G1 X6.72 Y18.79 E10.0088
G1 X6.24 Y18.79 E10.0248
G1 X6.22 Y18.62 E10.0304
G1 X6.22 Y13.38 E10.2045
G1 X6.24 Y13.21 E10.2101
G1 X6.72 Y13.21 E10.2261
G1 X6.79 Y13.33 E10.2307
G1 X6.79 Y18.67 E10.408
G1 X6.72 Y18.79 E10.4126
G1 X6.52 Y18.61 E10.4214
; fan off
M107
;
; 'Wipe', 0.0 [RPM], 9.3 [mm/s]
G1 F1800
G1 E0.4214
G1 F559.7
G1 X6.72 Y18.79 E0.4214
G1 X6.79 Y18.67 E0.4214
G1 X6.79 Y16.97 E0.4214
; fan on
M106
;
; 'Perimeter', 14.0 [RPM], 7.0 [mm/s]
G1 F1199.4
G1 X18.64 Y25.53 E0.4214
G1 F1800
G1 E10.4214
G1 F421.1
G1 X18.79 Y25.76 E10.4306
G1 X18.62 Y25.78 E10.4362
G1 X13.38 Y25.78 E10.6103
G1 X13.21 Y25.76 E10.616
G1 X13.21 Y25.28 E10.6319
G1 X13.33 Y25.21 E10.6365
G1 X18.67 Y25.21 E10.8138
G1 X18.79 Y25.28 E10.8184
G1 X18.79 Y25.76 E10.8344
G1 X18.54 Y25.64 E10.8436
; fan off
M107
;
; 'Wipe', 0.0 [RPM], 9.3 [mm/s]
G1 F1800
G1 E0.8436
G1 F559.7
G1 X18.79 Y25.76 E0.8436
G1 X18.79 Y25.28 E0.8436
G1 X18.67 Y25.21 E0.8436
G1 X17.53 Y25.21 E0.8436
; fan on
M106
;
; 'Perimeter', 14.0 [RPM], 7.0 [mm/s]
G1 F1199.4
G1 X25.64 Y18.54 E0.8436
G1 F1800
G1 E10.8436
G1 F421.1
G1 X25.76 Y18.79 E10.8528
G1 X25.28 Y18.79 E10.8687
G1 X25.21 Y18.67 E10.8733
G1 X25.21 Y13.33 E11.0506
G1 X25.28 Y13.21 E11.0552
G1 X25.76 Y13.21 E11.0712
G1 X25.78 Y13.38 E11.0768
G1 X25.78 Y18.62 E11.2509
G1 X25.76 Y18.79 E11.2565
G1 X25.53 Y18.64 E11.2657
; fan off
M107
;
; 'Wipe', 0.0 [RPM], 9.3 [mm/s]
G1 F1800
G1 E1.2657
G1 F559.7
G1 X25.76 Y18.79 E1.2657
G1 X25.78 Y18.62 E1.2657
G1 X25.78 Y16.96 E1.2657
; fan on
M106
;
; 'Perimeter', 14.0 [RPM], 7.0 [mm/s]
G1 F1199.4
G1 X18.61 Y6.52 E1.2657
G1 F1800
G1 E11.2657
G1 F421.1
G1 X18.79 Y6.72 E11.2746
G1 X18.66 Y6.79 E11.2792
G1 X13.34 Y6.79 E11.4564
G1 X13.21 Y6.72 E11.461
G1 X13.21 Y6.24 E11.477
G1 X13.38 Y6.22 E11.4826
G1 X18.62 Y6.22 E11.6568
G1 X18.79 Y6.24 E11.6624
G1 X18.79 Y6.72 E11.6783
G1 X18.53 Y6.67 E11.6871
; fan off
M107
;
; 'Wipe', 0.0 [RPM], 9.3 [mm/s]
G1 F1800
G1 E1.6871
G1 F559.7
G1 X18.79 Y6.72 E1.6871
G1 X18.79 Y6.24 E1.6871
G1 X18.62 Y6.22 E1.6871
G1 X17.53 Y6.22 E1.6871
G1 F210
G1 X17.53 Y6.22 Z3.25 E1.6871
; END_LAYER_OBJECT z=2.80
; Reset extruder pos
G92 E0
; BEGIN_LAYER_OBJECT z=3.00
; *** Cooling...speed multiplier is 0.222104 ***
; fan on
M106
;
; 'Perimeter', 14.0 [RPM], 7.0 [mm/s]
G1 F5400
G1 X6.67 Y18.53 E0
G1 F210
G1 X6.67 Y18.53 Z3 E0
G1 F1800
G1 E10
G1 F421.1
G1 X6.72 Y18.79 E10.0088
G1 X6.24 Y18.79 E10.0248
G1 X6.22 Y18.62 E10.0304
G1 X6.22 Y13.38 E10.2045
G1 X6.24 Y13.21 E10.2101
G1 X6.72 Y13.21 E10.2261
G1 X6.79 Y13.33 E10.2307
G1 X6.79 Y18.67 E10.408
G1 X6.72 Y18.79 E10.4126
G1 X6.52 Y18.61 E10.4214
; fan off
M107
;
; 'Wipe', 0.0 [RPM], 9.3 [mm/s]
G1 F1800
G1 E0.4214
G1 F559.7
G1 X6.72 Y18.79 E0.4214
G1 X6.79 Y18.67 E0.4214
G1 X6.79 Y16.97 E0.4214
; fan on
M106
;
; 'Perimeter', 14.0 [RPM], 7.0 [mm/s]
G1 F1199.4
G1 X18.64 Y25.53 E0.4214
G1 F1800
G1 E10.4214
G1 F421.1
G1 X18.79 Y25.76 E10.4306
G1 X18.62 Y25.78 E10.4362
G1 X13.38 Y25.78 E10.6103
G1 X13.21 Y25.76 E10.616
G1 X13.21 Y25.28 E10.6319
G1 X13.33 Y25.21 E10.6365
G1 X18.67 Y25.21 E10.8138
G1 X18.79 Y25.28 E10.8184
G1 X18.79 Y25.76 E10.8344
G1 X18.54 Y25.64 E10.8436
; fan off
M107
;
; 'Wipe', 0.0 [RPM], 9.3 [mm/s]
G1 F1800
G1 E0.8436
G1 F559.7
G1 X18.79 Y25.76 E0.8436
G1 X18.79 Y25.28 E0.8436
G1 X18.67 Y25.21 E0.8436
G1 X17.53 Y25.21 E0.8436
; fan on
M106
;
; 'Perimeter', 14.0 [RPM], 7.0 [mm/s]
G1 F1199.4
G1 X25.64 Y18.54 E0.8436
G1 F1800
G1 E10.8436
G1 F421.1
G1 X25.76 Y18.79 E10.8528
G1 X25.28 Y18.79 E10.8687
G1 X25.21 Y18.67 E10.8733
G1 X25.21 Y13.33 E11.0506
G1 X25.28 Y13.21 E11.0552
G1 X25.76 Y13.21 E11.0712
G1 X25.78 Y13.38 E11.0768
G1 X25.78 Y18.62 E11.2509
G1 X25.76 Y18.79 E11.2565
G1 X25.53 Y18.64 E11.2657
; fan off
M107
;
; 'Wipe', 0.0 [RPM], 9.3 [mm/s]
G1 F1800
G1 E1.2657
G1 F559.7
G1 X25.76 Y18.79 E1.2657
G1 X25.78 Y18.62 E1.2657
G1 X25.78 Y16.96 E1.2657
; fan on
M106
;
; 'Perimeter', 14.0 [RPM], 7.0 [mm/s]
G1 F1199.4
G1 X18.61 Y6.52 E1.2657
G1 F1800
G1 E11.2657
G1 F421.1
G1 X18.79 Y6.72 E11.2746
G1 X18.66 Y6.79 E11.2792
G1 X13.34 Y6.79 E11.4564
G1 X13.21 Y6.72 E11.461
G1 X13.21 Y6.24 E11.477
G1 X13.38 Y6.22 E11.4826
G1 X18.62 Y6.22 E11.6568
G1 X18.79 Y6.24 E11.6624
G1 X18.79 Y6.72 E11.6783
G1 X18.53 Y6.67 E11.6871
; fan off
M107
;
; 'Wipe', 0.0 [RPM], 9.3 [mm/s]
G1 F1800
G1 E1.6871
G1 F559.7
G1 X18.79 Y6.72 E1.6871
G1 X18.79 Y6.24 E1.6871
G1 X18.62 Y6.22 E1.6871
G1 X17.53 Y6.22 E1.6871
G1 F210
G1 X17.53 Y6.22 Z3.45 E1.6871
; END_LAYER_OBJECT z=3.00
; Reset extruder pos
G92 E0
; BEGIN_LAYER_OBJECT z=3.20
; *** Cooling...speed multiplier is 0.222104 ***
; fan on
M106
;
; 'Perimeter', 14.0 [RPM], 7.0 [mm/s]
G1 F5400
G1 X6.67 Y18.53 E0
G1 F210
G1 X6.67 Y18.53 Z3.2 E0
G1 F1800
G1 E10
G1 F421.1
G1 X6.72 Y18.79 E10.0088
G1 X6.24 Y18.79 E10.0248
G1 X6.22 Y18.62 E10.0304
G1 X6.22 Y13.38 E10.2045
G1 X6.24 Y13.21 E10.2101
G1 X6.72 Y13.21 E10.2261
G1 X6.79 Y13.33 E10.2307
G1 X6.79 Y18.67 E10.408
G1 X6.72 Y18.79 E10.4126
G1 X6.52 Y18.61 E10.4214
; fan off
M107
;
; 'Wipe', 0.0 [RPM], 9.3 [mm/s]
G1 F1800
G1 E0.4214
G1 F559.7
G1 X6.72 Y18.79 E0.4214
G1 X6.79 Y18.67 E0.4214
G1 X6.79 Y16.97 E0.4214
; fan on
M106
;
; 'Perimeter', 14.0 [RPM], 7.0 [mm/s]
G1 F1199.4
G1 X18.64 Y25.53 E0.4214
G1 F1800
G1 E10.4214
G1 F421.1
G1 X18.79 Y25.76 E10.4306
G1 X18.62 Y25.78 E10.4362
G1 X13.38 Y25.78 E10.6103
G1 X13.21 Y25.76 E10.616
G1 X13.21 Y25.28 E10.6319
G1 X13.33 Y25.21 E10.6365
G1 X18.67 Y25.21 E10.8138
G1 X18.79 Y25.28 E10.8184
G1 X18.79 Y25.76 E10.8344
G1 X18.54 Y25.64 E10.8436
; fan off
M107
;
; 'Wipe', 0.0 [RPM], 9.3 [mm/s]
G1 F1800
G1 E0.8436
G1 F559.7
G1 X18.79 Y25.76 E0.8436
G1 X18.79 Y25.28 E0.8436
G1 X18.67 Y25.21 E0.8436
G1 X17.53 Y25.21 E0.8436
; fan on
M106
;
; 'Perimeter', 14.0 [RPM], 7.0 [mm/s]
G1 F1199.4
G1 X25.64 Y18.54 E0.8436
G1 F1800
G1 E10.8436
G1 F421.1
G1 X25.76 Y18.79 E10.8528
G1 X25.28 Y18.79 E10.8687
G1 X25.21 Y18.67 E10.8733
G1 X25.21 Y13.33 E11.0506
G1 X25.28 Y13.21 E11.0552
G1 X25.76 Y13.21 E11.0712
G1 X25.78 Y13.38 E11.0768
G1 X25.78 Y18.62 E11.2509
G1 X25.76 Y18.79 E11.2565
G1 X25.53 Y18.64 E11.2657
; fan off
M107
;
; 'Wipe', 0.0 [RPM], 9.3 [mm/s]
G1 F1800
G1 E1.2657
G1 F559.7
G1 X25.76 Y18.79 E1.2657
G1 X25.78 Y18.62 E1.2657
G1 X25.78 Y16.96 E1.2657
; fan on
M106
;
; 'Perimeter', 14.0 [RPM], 7.0 [mm/s]
G1 F1199.4
G1 X18.61 Y6.52 E1.2657
G1 F1800
G1 E11.2657
G1 F421.1
G1 X18.79 Y6.72 E11.2746
G1 X18.66 Y6.79 E11.2792
G1 X13.34 Y6.79 E11.4564
G1 X13.21 Y6.72 E11.461
G1 X13.21 Y6.24 E11.477
G1 X13.38 Y6.22 E11.4826
G1 X18.62 Y6.22 E11.6568
G1 X18.79 Y6.24 E11.6624
G1 X18.79 Y6.72 E11.6783
G1 X18.53 Y6.67 E11.6871
; fan off
M107
;
; 'Wipe', 0.0 [RPM], 9.3 [mm/s]
G1 F1800
G1 E1.6871
G1 F559.7
G1 X18.79 Y6.72 E1.6871
G1 X18.79 Y6.24 E1.6871
G1 X18.62 Y6.22 E1.6871
G1 X17.53 Y6.22 E1.6871
G1 F210
G1 X17.53 Y6.22 Z3.65 E1.6871
; END_LAYER_OBJECT z=3.20
; Reset extruder pos
G92 E0
; BEGIN_LAYER_OBJECT z=3.40
; *** Cooling...speed multiplier is 0.222104 ***
; fan on
M106
;
; 'Perimeter', 14.0 [RPM], 7.0 [mm/s]
G1 F5400
G1 X6.67 Y18.53 E0
G1 F210
G1 X6.67 Y18.53 Z3.4 E0
G1 F1800
G1 E10
G1 F421.1
G1 X6.72 Y18.79 E10.0088
G1 X6.24 Y18.79 E10.0248
G1 X6.22 Y18.62 E10.0304
G1 X6.22 Y13.38 E10.2045
G1 X6.24 Y13.21 E10.2101
G1 X6.72 Y13.21 E10.2261
G1 X6.79 Y13.33 E10.2307
G1 X6.79 Y18.67 E10.408
G1 X6.72 Y18.79 E10.4126
G1 X6.52 Y18.61 E10.4214
; fan off
M107
;
; 'Wipe', 0.0 [RPM], 9.3 [mm/s]
G1 F1800
G1 E0.4214
G1 F559.7
G1 X6.72 Y18.79 E0.4214
G1 X6.79 Y18.67 E0.4214
G1 X6.79 Y16.97 E0.4214
; fan on
M106
;
; 'Perimeter', 14.0 [RPM], 7.0 [mm/s]
G1 F1199.4
G1 X18.64 Y25.53 E0.4214
G1 F1800
G1 E10.4214
G1 F421.1
G1 X18.79 Y25.76 E10.4306
G1 X18.62 Y25.78 E10.4362
G1 X13.38 Y25.78 E10.6103
G1 X13.21 Y25.76 E10.616
G1 X13.21 Y25.28 E10.6319
G1 X13.33 Y25.21 E10.6365
G1 X18.67 Y25.21 E10.8138
G1 X18.79 Y25.28 E10.8184
G1 X18.79 Y25.76 E10.8344
G1 X18.54 Y25.64 E10.8436
; fan off
M107
;
; 'Wipe', 0.0 [RPM], 9.3 [mm/s]
G1 F1800
G1 E0.8436
G1 F559.7
G1 X18.79 Y25.76 E0.8436
G1 X18.79 Y25.28 E0.8436
G1 X18.67 Y25.21 E0.8436
G1 X17.53 Y25.21 E0.8436
; fan on
M106
;
; 'Perimeter', 14.0 [RPM], 7.0 [mm/s]
G1 F1199.4
G1 X25.64 Y18.54 E0.8436
G1 F1800
G1 E10.8436
G1 F421.1
G1 X25.76 Y18.79 E10.8528
G1 X25.28 Y18.79 E10.8687
G1 X25.21 Y18.67 E10.8733
G1 X25.21 Y13.33 E11.0506
G1 X25.28 Y13.21 E11.0552
G1 X25.76 Y13.21 E11.0712
G1 X25.78 Y13.38 E11.0768
G1 X25.78 Y18.62 E11.2509
G1 X25.76 Y18.79 E11.2565
G1 X25.53 Y18.64 E11.2657
; fan off
M107
;
; 'Wipe', 0.0 [RPM], 9.3 [mm/s]
G1 F1800
G1 E1.2657
G1 F559.7
G1 X25.76 Y18.79 E1.2657
G1 X25.78 Y18.62 E1.2657
G1 X25.78 Y16.96 E1.2657
; fan on
M106
;
; 'Perimeter', 14.0 [RPM], 7.0 [mm/s]
G1 F1199.4
G1 X18.61 Y6.52 E1.2657
G1 F1800
G1 E11.2657
G1 F421.1
G1 X18.79 Y6.72 E11.2746
G1 X18.66 Y6.79 E11.2792
G1 X13.34 Y6.79 E11.4564
G1 X13.21 Y6.72 E11.461
G1 X13.21 Y6.24 E11.477
G1 X13.38 Y6.22 E11.4826
G1 X18.62 Y6.22 E11.6568
G1 X18.79 Y6.24 E11.6624
G1 X18.79 Y6.72 E11.6783
G1 X18.53 Y6.67 E11.6871
; fan off
M107
;
; 'Wipe', 0.0 [RPM], 9.3 [mm/s]
G1 F1800
G1 E1.6871
G1 F559.7
G1 X18.79 Y6.72 E1.6871
G1 X18.79 Y6.24 E1.6871
G1 X18.62 Y6.22 E1.6871
G1 X17.53 Y6.22 E1.6871
G1 F210
G1 X17.53 Y6.22 Z3.85 E1.6871
; END_LAYER_OBJECT z=3.40
; Reset extruder pos
G92 E0
; BEGIN_LAYER_OBJECT z=3.60
; *** Cooling...speed multiplier is 0.222104 ***
; fan on
M106
;
; 'Perimeter', 14.0 [RPM], 7.0 [mm/s]
G1 F5400
G1 X6.67 Y18.53 E0
G1 F210
G1 X6.67 Y18.53 Z3.6 E0
G1 F1800
G1 E10
G1 F421.1
G1 X6.72 Y18.79 E10.0088
G1 X6.24 Y18.79 E10.0248
G1 X6.22 Y18.62 E10.0304
G1 X6.22 Y13.38 E10.2045
G1 X6.24 Y13.21 E10.2101
G1 X6.72 Y13.21 E10.2261
G1 X6.79 Y13.33 E10.2307
G1 X6.79 Y18.67 E10.408
G1 X6.72 Y18.79 E10.4126
G1 X6.52 Y18.61 E10.4214
; fan off
M107
;
; 'Wipe', 0.0 [RPM], 9.3 [mm/s]
G1 F1800
G1 E0.4214
G1 F559.7
G1 X6.72 Y18.79 E0.4214
G1 X6.79 Y18.67 E0.4214
G1 X6.79 Y16.97 E0.4214
; fan on
M106
;
; 'Perimeter', 14.0 [RPM], 7.0 [mm/s]
G1 F1199.4
G1 X18.64 Y25.53 E0.4214
G1 F1800
G1 E10.4214
G1 F421.1
G1 X18.79 Y25.76 E10.4306
G1 X18.62 Y25.78 E10.4362
G1 X13.38 Y25.78 E10.6103
G1 X13.21 Y25.76 E10.616
G1 X13.21 Y25.28 E10.6319
G1 X13.33 Y25.21 E10.6365
G1 X18.67 Y25.21 E10.8138
G1 X18.79 Y25.28 E10.8184
G1 X18.79 Y25.76 E10.8344
G1 X18.54 Y25.64 E10.8436
; fan off
M107
;
; 'Wipe', 0.0 [RPM], 9.3 [mm/s]
G1 F1800
G1 E0.8436
G1 F559.7
G1 X18.79 Y25.76 E0.8436
G1 X18.79 Y25.28 E0.8436
G1 X18.67 Y25.21 E0.8436
G1 X17.53 Y25.21 E0.8436
; fan on
M106
;
; 'Perimeter', 14.0 [RPM], 7.0 [mm/s]
G1 F1199.4
G1 X25.64 Y18.54 E0.8436
G1 F1800
G1 E10.8436
G1 F421.1
G1 X25.76 Y18.79 E10.8528
G1 X25.28 Y18.79 E10.8687
G1 X25.21 Y18.67 E10.8733
G1 X25.21 Y13.33 E11.0506
G1 X25.28 Y13.21 E11.0552
G1 X25.76 Y13.21 E11.0712
G1 X25.78 Y13.38 E11.0768
G1 X25.78 Y18.62 E11.2509
G1 X25.76 Y18.79 E11.2565
G1 X25.53 Y18.64 E11.2657
; fan off
M107
;
; 'Wipe', 0.0 [RPM], 9.3 [mm/s]
G1 F1800
G1 E1.2657
G1 F559.7
G1 X25.76 Y18.79 E1.2657
G1 X25.78 Y18.62 E1.2657
G1 X25.78 Y16.96 E1.2657
; fan on
M106
;
; 'Perimeter', 14.0 [RPM], 7.0 [mm/s]
G1 F1199.4
G1 X18.61 Y6.52 E1.2657
G1 F1800
G1 E11.2657
G1 F421.1
G1 X18.79 Y6.72 E11.2746
G1 X18.66 Y6.79 E11.2792
G1 X13.34 Y6.79 E11.4564
G1 X13.21 Y6.72 E11.461
G1 X13.21 Y6.24 E11.477
G1 X13.38 Y6.22 E11.4826
G1 X18.62 Y6.22 E11.6568
G1 X18.79 Y6.24 E11.6624
G1 X18.79 Y6.72 E11.6783
G1 X18.53 Y6.67 E11.6871
; fan off
M107
;
; 'Wipe', 0.0 [RPM], 9.3 [mm/s]
G1 F1800
G1 E1.6871
G1 F559.7
G1 X18.79 Y6.72 E1.6871
G1 X18.79 Y6.24 E1.6871
G1 X18.62 Y6.22 E1.6871
G1 X17.53 Y6.22 E1.6871
G1 F210
G1 X17.53 Y6.22 Z4.05 E1.6871
; END_LAYER_OBJECT z=3.60
; Reset extruder pos
G92 E0
; BEGIN_LAYER_OBJECT z=3.80
; *** Cooling...speed multiplier is 0.222104 ***
; fan on
M106
;
; 'Perimeter', 14.0 [RPM], 7.0 [mm/s]
G1 F5400
G1 X6.67 Y18.53 E0
G1 F210
G1 X6.67 Y18.53 Z3.8 E0
G1 F1800
G1 E10
G1 F421.1
G1 X6.72 Y18.79 E10.0088
G1 X6.24 Y18.79 E10.0248
G1 X6.22 Y18.62 E10.0304
G1 X6.22 Y13.38 E10.2045
G1 X6.24 Y13.21 E10.2101
G1 X6.72 Y13.21 E10.2261
G1 X6.79 Y13.33 E10.2307
G1 X6.79 Y18.67 E10.408
G1 X6.72 Y18.79 E10.4126
G1 X6.52 Y18.61 E10.4214
; fan off
M107
;
; 'Wipe', 0.0 [RPM], 9.3 [mm/s]
G1 F1800
G1 E0.4214
G1 F559.7
G1 X6.72 Y18.79 E0.4214
G1 X6.79 Y18.67 E0.4214
G1 X6.79 Y16.97 E0.4214
; fan on
M106
;
; 'Perimeter', 14.0 [RPM], 7.0 [mm/s]
G1 F1199.4
G1 X18.64 Y25.53 E0.4214
G1 F1800
G1 E10.4214
G1 F421.1
G1 X18.79 Y25.76 E10.4306
G1 X18.62 Y25.78 E10.4362
G1 X13.38 Y25.78 E10.6103
G1 X13.21 Y25.76 E10.616
G1 X13.21 Y25.28 E10.6319
G1 X13.33 Y25.21 E10.6365
G1 X18.67 Y25.21 E10.8138
G1 X18.79 Y25.28 E10.8184
G1 X18.79 Y25.76 E10.8344
G1 X18.54 Y25.64 E10.8436
; fan off
M107
;
; 'Wipe', 0.0 [RPM], 9.3 [mm/s]
G1 F1800
G1 E0.8436
G1 F559.7
G1 X18.79 Y25.76 E0.8436
G1 X18.79 Y25.28 E0.8436
G1 X18.67 Y25.21 E0.8436
G1 X17.53 Y25.21 E0.8436
; fan on
M106
;
; 'Perimeter', 14.0 [RPM], 7.0 [mm/s]
G1 F1199.4
G1 X25.64 Y18.54 E0.8436
G1 F1800
G1 E10.8436
G1 F421.1
G1 X25.76 Y18.79 E10.8528
G1 X25.28 Y18.79 E10.8687
G1 X25.21 Y18.67 E10.8733
G1 X25.21 Y13.33 E11.0506
G1 X25.28 Y13.21 E11.0552
G1 X25.76 Y13.21 E11.0712
G1 X25.78 Y13.38 E11.0768
G1 X25.78 Y18.62 E11.2509
G1 X25.76 Y18.79 E11.2565
G1 X25.53 Y18.64 E11.2657
; fan off
M107
;
; 'Wipe', 0.0 [RPM], 9.3 [mm/s]
G1 F1800
G1 E1.2657
G1 F559.7
G1 X25.76 Y18.79 E1.2657
G1 X25.78 Y18.62 E1.2657
G1 X25.78 Y16.96 E1.2657
; fan on
M106
;
; 'Perimeter', 14.0 [RPM], 7.0 [mm/s]
G1 F1199.4
G1 X18.61 Y6.52 E1.2657
G1 F1800
G1 E11.2657
G1 F421.1
G1 X18.79 Y6.72 E11.2746
G1 X18.66 Y6.79 E11.2792
G1 X13.34 Y6.79 E11.4564
G1 X13.21 Y6.72 E11.461
G1 X13.21 Y6.24 E11.477
G1 X13.38 Y6.22 E11.4826
G1 X18.62 Y6.22 E11.6568
G1 X18.79 Y6.24 E11.6624
G1 X18.79 Y6.72 E11.6783
G1 X18.53 Y6.67 E11.6871
; fan off
M107
;
; 'Wipe', 0.0 [RPM], 9.3 [mm/s]
G1 F1800
G1 E1.6871
G1 F559.7
G1 X18.79 Y6.72 E1.6871
G1 X18.79 Y6.24 E1.6871
G1 X18.62 Y6.22 E1.6871
G1 X17.53 Y6.22 E1.6871
G1 F210
G1 X17.53 Y6.22 Z4.25 E1.6871
; END_LAYER_OBJECT z=3.80
; Reset extruder pos
G92 E0
; BEGIN_LAYER_OBJECT z=4.00
; *** Cooling...speed multiplier is 0.222104 ***
; fan on
M106
;
; 'Perimeter', 14.0 [RPM], 7.0 [mm/s]
G1 F5400
G1 X6.67 Y18.53 E0
G1 F210
G1 X6.67 Y18.53 Z4 E0
G1 F1800
G1 E10
G1 F421.1
G1 X6.72 Y18.79 E10.0088
G1 X6.24 Y18.79 E10.0248
G1 X6.22 Y18.62 E10.0304
G1 X6.22 Y13.38 E10.2045
G1 X6.24 Y13.21 E10.2101
G1 X6.72 Y13.21 E10.2261
G1 X6.79 Y13.33 E10.2307
G1 X6.79 Y18.67 E10.408
G1 X6.72 Y18.79 E10.4126
G1 X6.52 Y18.61 E10.4214
; fan off
M107
;
; 'Wipe', 0.0 [RPM], 9.3 [mm/s]
G1 F1800
G1 E0.4214
G1 F559.7
G1 X6.72 Y18.79 E0.4214
G1 X6.79 Y18.67 E0.4214
G1 X6.79 Y16.97 E0.4214
; fan on
M106
;
; 'Perimeter', 14.0 [RPM], 7.0 [mm/s]
G1 F1199.4
G1 X18.64 Y25.53 E0.4214
G1 F1800
G1 E10.4214
G1 F421.1
G1 X18.79 Y25.76 E10.4306
G1 X18.62 Y25.78 E10.4362
G1 X13.38 Y25.78 E10.6103
G1 X13.21 Y25.76 E10.616
G1 X13.21 Y25.28 E10.6319
G1 X13.33 Y25.21 E10.6365
G1 X18.67 Y25.21 E10.8138
G1 X18.79 Y25.28 E10.8184
G1 X18.79 Y25.76 E10.8344
G1 X18.54 Y25.64 E10.8436
; fan off
M107
;
; 'Wipe', 0.0 [RPM], 9.3 [mm/s]
G1 F1800
G1 E0.8436
G1 F559.7
G1 X18.79 Y25.76 E0.8436
G1 X18.79 Y25.28 E0.8436
G1 X18.67 Y25.21 E0.8436
G1 X17.53 Y25.21 E0.8436
; fan on
M106
;
; 'Perimeter', 14.0 [RPM], 7.0 [mm/s]
G1 F1199.4
G1 X25.64 Y18.54 E0.8436
G1 F1800
G1 E10.8436
G1 F421.1
G1 X25.76 Y18.79 E10.8528
G1 X25.28 Y18.79 E10.8687
G1 X25.21 Y18.67 E10.8733
G1 X25.21 Y13.33 E11.0506
G1 X25.28 Y13.21 E11.0552
G1 X25.76 Y13.21 E11.0712
G1 X25.78 Y13.38 E11.0768
G1 X25.78 Y18.62 E11.2509
G1 X25.76 Y18.79 E11.2565
G1 X25.53 Y18.64 E11.2657
; fan off
M107
;
; 'Wipe', 0.0 [RPM], 9.3 [mm/s]
G1 F1800
G1 E1.2657
G1 F559.7
G1 X25.76 Y18.79 E1.2657
G1 X25.78 Y18.62 E1.2657
G1 X25.78 Y16.96 E1.2657
; fan on
M106
;
; 'Perimeter', 14.0 [RPM], 7.0 [mm/s]
G1 F1199.4
G1 X18.61 Y6.52 E1.2657
G1 F1800
G1 E11.2657
G1 F421.1
G1 X18.79 Y6.72 E11.2746
G1 X18.66 Y6.79 E11.2792
G1 X13.34 Y6.79 E11.4564
G1 X13.21 Y6.72 E11.461
G1 X13.21 Y6.24 E11.477
G1 X13.38 Y6.22 E11.4826
G1 X18.62 Y6.22 E11.6568
G1 X18.79 Y6.24 E11.6624
G1 X18.79 Y6.72 E11.6783
G1 X18.53 Y6.67 E11.6871
; fan off
M107
;
; 'Wipe', 0.0 [RPM], 9.3 [mm/s]
G1 F1800
G1 E1.6871
G1 F559.7
G1 X18.79 Y6.72 E1.6871
G1 X18.79 Y6.24 E1.6871
G1 X18.62 Y6.22 E1.6871
G1 X17.53 Y6.22 E1.6871
G1 F210
G1 X17.53 Y6.22 Z4.45 E1.6871
; END_LAYER_OBJECT z=4.00
; Reset extruder pos
G92 E0
; BEGIN_LAYER_OBJECT z=4.20
; *** Cooling...speed multiplier is 0.222104 ***
; fan on
M106
;
; 'Perimeter', 14.0 [RPM], 7.0 [mm/s]
G1 F5400
G1 X6.67 Y18.53 E0
G1 F210
G1 X6.67 Y18.53 Z4.2 E0
G1 F1800
G1 E10
G1 F421.1
G1 X6.72 Y18.79 E10.0088
G1 X6.24 Y18.79 E10.0248
G1 X6.22 Y18.62 E10.0304
G1 X6.22 Y13.38 E10.2045
G1 X6.24 Y13.21 E10.2101
G1 X6.72 Y13.21 E10.2261
G1 X6.79 Y13.33 E10.2307
G1 X6.79 Y18.67 E10.408
G1 X6.72 Y18.79 E10.4126
G1 X6.52 Y18.61 E10.4214
; fan off
M107
;
; 'Wipe', 0.0 [RPM], 9.3 [mm/s]
G1 F1800
G1 E0.4214
G1 F559.7
G1 X6.72 Y18.79 E0.4214
G1 X6.79 Y18.67 E0.4214
G1 X6.79 Y16.97 E0.4214
; fan on
M106
;
; 'Perimeter', 14.0 [RPM], 7.0 [mm/s]
G1 F1199.4
G1 X18.64 Y25.53 E0.4214
G1 F1800
G1 E10.4214
G1 F421.1
G1 X18.79 Y25.76 E10.4306
G1 X18.62 Y25.78 E10.4362
G1 X13.38 Y25.78 E10.6103
G1 X13.21 Y25.76 E10.616
G1 X13.21 Y25.28 E10.6319
G1 X13.33 Y25.21 E10.6365
G1 X18.67 Y25.21 E10.8138
G1 X18.79 Y25.28 E10.8184
G1 X18.79 Y25.76 E10.8344
G1 X18.54 Y25.64 E10.8436
; fan off
M107
;
; 'Wipe', 0.0 [RPM], 9.3 [mm/s]
G1 F1800
G1 E0.8436
G1 F559.7
G1 X18.79 Y25.76 E0.8436
G1 X18.79 Y25.28 E0.8436
G1 X18.67 Y25.21 E0.8436
G1 X17.53 Y25.21 E0.8436
; fan on
M106
;
; 'Perimeter', 14.0 [RPM], 7.0 [mm/s]
G1 F1199.4
G1 X25.64 Y18.54 E0.8436
G1 F1800
G1 E10.8436
G1 F421.1
G1 X25.76 Y18.79 E10.8528
G1 X25.28 Y18.79 E10.8687
G1 X25.21 Y18.67 E10.8733
G1 X25.21 Y13.33 E11.0506
G1 X25.28 Y13.21 E11.0552
G1 X25.76 Y13.21 E11.0712
G1 X25.78 Y13.38 E11.0768
G1 X25.78 Y18.62 E11.2509
G1 X25.76 Y18.79 E11.2565
G1 X25.53 Y18.64 E11.2657
; fan off
M107
;
; 'Wipe', 0.0 [RPM], 9.3 [mm/s]
G1 F1800
G1 E1.2657
G1 F559.7
G1 X25.76 Y18.79 E1.2657
G1 X25.78 Y18.62 E1.2657
G1 X25.78 Y16.96 E1.2657
; fan on
M106
;
; 'Perimeter', 14.0 [RPM], 7.0 [mm/s]
G1 F1199.4
G1 X18.61 Y6.52 E1.2657
G1 F1800
G1 E11.2657
G1 F421.1
G1 X18.79 Y6.72 E11.2746
G1 X18.66 Y6.79 E11.2792
G1 X13.34 Y6.79 E11.4564
G1 X13.21 Y6.72 E11.461
G1 X13.21 Y6.24 E11.477
G1 X13.38 Y6.22 E11.4826
G1 X18.62 Y6.22 E11.6568
G1 X18.79 Y6.24 E11.6624
G1 X18.79 Y6.72 E11.6783
G1 X18.53 Y6.67 E11.6871
; fan off
M107
;
; 'Wipe', 0.0 [RPM], 9.3 [mm/s]
G1 F1800
G1 E1.6871
G1 F559.7
G1 X18.79 Y6.72 E1.6871
G1 X18.79 Y6.24 E1.6871
G1 X18.62 Y6.22 E1.6871
G1 X17.53 Y6.22 E1.6871
G1 F210
G1 X17.53 Y6.22 Z4.65 E1.6871
; END_LAYER_OBJECT z=4.20
; Reset extruder pos
G92 E0
; BEGIN_LAYER_OBJECT z=4.40
; *** Cooling...speed multiplier is 0.222104 ***
; fan on
M106
;
; 'Perimeter', 14.0 [RPM], 7.0 [mm/s]
G1 F5400
G1 X6.67 Y18.53 E0
G1 F210
G1 X6.67 Y18.53 Z4.4 E0
G1 F1800
G1 E10
G1 F421.1
G1 X6.72 Y18.79 E10.0088
G1 X6.24 Y18.79 E10.0248
G1 X6.22 Y18.62 E10.0304
G1 X6.22 Y13.38 E10.2045
G1 X6.24 Y13.21 E10.2101
G1 X6.72 Y13.21 E10.2261
G1 X6.79 Y13.33 E10.2307
G1 X6.79 Y18.67 E10.408
G1 X6.72 Y18.79 E10.4126
G1 X6.52 Y18.61 E10.4214
; fan off
M107
;
; 'Wipe', 0.0 [RPM], 9.3 [mm/s]
G1 F1800
G1 E0.4214
G1 F559.7
G1 X6.72 Y18.79 E0.4214
G1 X6.79 Y18.67 E0.4214
G1 X6.79 Y16.97 E0.4214
; fan on
M106
;
; 'Perimeter', 14.0 [RPM], 7.0 [mm/s]
G1 F1199.4
G1 X18.64 Y25.53 E0.4214
G1 F1800
G1 E10.4214
G1 F421.1
G1 X18.79 Y25.76 E10.4306
G1 X18.62 Y25.78 E10.4362
G1 X13.38 Y25.78 E10.6103
G1 X13.21 Y25.76 E10.616
G1 X13.21 Y25.28 E10.6319
G1 X13.33 Y25.21 E10.6365
G1 X18.67 Y25.21 E10.8138
G1 X18.79 Y25.28 E10.8184
G1 X18.79 Y25.76 E10.8344
G1 X18.54 Y25.64 E10.8436
; fan off
M107
;
; 'Wipe', 0.0 [RPM], 9.3 [mm/s]
G1 F1800
G1 E0.8436
G1 F559.7
G1 X18.79 Y25.76 E0.8436
G1 X18.79 Y25.28 E0.8436
G1 X18.67 Y25.21 E0.8436
G1 X17.53 Y25.21 E0.8436
; fan on
M106
;
; 'Perimeter', 14.0 [RPM], 7.0 [mm/s]
G1 F1199.4
G1 X25.64 Y18.54 E0.8436
G1 F1800
G1 E10.8436
G1 F421.1
G1 X25.76 Y18.79 E10.8528
G1 X25.28 Y18.79 E10.8687
G1 X25.21 Y18.67 E10.8733
G1 X25.21 Y13.33 E11.0506
G1 X25.28 Y13.21 E11.0552
G1 X25.76 Y13.21 E11.0712
G1 X25.78 Y13.38 E11.0768
G1 X25.78 Y18.62 E11.2509
G1 X25.76 Y18.79 E11.2565
G1 X25.53 Y18.64 E11.2657
; fan off
M107
;
; 'Wipe', 0.0 [RPM], 9.3 [mm/s]
G1 F1800
G1 E1.2657
G1 F559.7
G1 X25.76 Y18.79 E1.2657
G1 X25.78 Y18.62 E1.2657
G1 X25.78 Y16.96 E1.2657
; fan on
M106
;
; 'Perimeter', 14.0 [RPM], 7.0 [mm/s]
G1 F1199.4
G1 X18.61 Y6.52 E1.2657
G1 F1800
G1 E11.2657
G1 F421.1
G1 X18.79 Y6.72 E11.2746
G1 X18.66 Y6.79 E11.2792
G1 X13.34 Y6.79 E11.4564
G1 X13.21 Y6.72 E11.461
G1 X13.21 Y6.24 E11.477
G1 X13.38 Y6.22 E11.4826
G1 X18.62 Y6.22 E11.6568
G1 X18.79 Y6.24 E11.6624
G1 X18.79 Y6.72 E11.6783
G1 X18.53 Y6.67 E11.6871
; fan off
M107
;
; 'Wipe', 0.0 [RPM], 9.3 [mm/s]
G1 F1800
G1 E1.6871
G1 F559.7
G1 X18.79 Y6.72 E1.6871
G1 X18.79 Y6.24 E1.6871
G1 X18.62 Y6.22 E1.6871
G1 X17.53 Y6.22 E1.6871
G1 F210
G1 X17.53 Y6.22 Z4.85 E1.6871
; END_LAYER_OBJECT z=4.40
; Reset extruder pos
G92 E0
; BEGIN_LAYER_OBJECT z=4.60
; *** Cooling...speed multiplier is 0.222104 ***
; fan on
M106
;
; 'Perimeter', 14.0 [RPM], 7.0 [mm/s]
G1 F5400
G1 X6.67 Y18.53 E0
G1 F210
G1 X6.67 Y18.53 Z4.6 E0
G1 F1800
G1 E10
G1 F421.1
G1 X6.72 Y18.79 E10.0088
G1 X6.24 Y18.79 E10.0248
G1 X6.22 Y18.62 E10.0304
G1 X6.22 Y13.38 E10.2045
G1 X6.24 Y13.21 E10.2101
G1 X6.72 Y13.21 E10.2261
G1 X6.79 Y13.33 E10.2307
G1 X6.79 Y18.67 E10.408
G1 X6.72 Y18.79 E10.4126
G1 X6.52 Y18.61 E10.4214
; fan off
M107
;
; 'Wipe', 0.0 [RPM], 9.3 [mm/s]
G1 F1800
G1 E0.4214
G1 F559.7
G1 X6.72 Y18.79 E0.4214
G1 X6.79 Y18.67 E0.4214
G1 X6.79 Y16.97 E0.4214
; fan on
M106
;
; 'Perimeter', 14.0 [RPM], 7.0 [mm/s]
G1 F1199.4
G1 X18.64 Y25.53 E0.4214
G1 F1800
G1 E10.4214
G1 F421.1
G1 X18.79 Y25.76 E10.4306
G1 X18.62 Y25.78 E10.4362
G1 X13.38 Y25.78 E10.6103
G1 X13.21 Y25.76 E10.616
G1 X13.21 Y25.28 E10.6319
G1 X13.33 Y25.21 E10.6365
G1 X18.67 Y25.21 E10.8138
G1 X18.79 Y25.28 E10.8184
G1 X18.79 Y25.76 E10.8344
G1 X18.54 Y25.64 E10.8436
; fan off
M107
;
; 'Wipe', 0.0 [RPM], 9.3 [mm/s]
G1 F1800
G1 E0.8436
G1 F559.7
G1 X18.79 Y25.76 E0.8436
G1 X18.79 Y25.28 E0.8436
G1 X18.67 Y25.21 E0.8436
G1 X17.53 Y25.21 E0.8436
; fan on
M106
;
; 'Perimeter', 14.0 [RPM], 7.0 [mm/s]
G1 F1199.4
G1 X25.64 Y18.54 E0.8436
G1 F1800
G1 E10.8436
G1 F421.1
G1 X25.76 Y18.79 E10.8528
G1 X25.28 Y18.79 E10.8687
G1 X25.21 Y18.67 E10.8733
G1 X25.21 Y13.33 E11.0506
G1 X25.28 Y13.21 E11.0552
G1 X25.76 Y13.21 E11.0712
G1 X25.78 Y13.38 E11.0768
G1 X25.78 Y18.62 E11.2509
G1 X25.76 Y18.79 E11.2565
G1 X25.53 Y18.64 E11.2657
; fan off
M107
;
; 'Wipe', 0.0 [RPM], 9.3 [mm/s]
G1 F1800
G1 E1.2657
G1 F559.7
G1 X25.76 Y18.79 E1.2657
G1 X25.78 Y18.62 E1.2657
G1 X25.78 Y16.96 E1.2657
; fan on
M106
;
; 'Perimeter', 14.0 [RPM], 7.0 [mm/s]
G1 F1199.4
G1 X18.61 Y6.52 E1.2657
G1 F1800
G1 E11.2657
G1 F421.1
G1 X18.79 Y6.72 E11.2746
G1 X18.66 Y6.79 E11.2792
G1 X13.34 Y6.79 E11.4564
G1 X13.21 Y6.72 E11.461
G1 X13.21 Y6.24 E11.477
G1 X13.38 Y6.22 E11.4826
G1 X18.62 Y6.22 E11.6568
G1 X18.79 Y6.24 E11.6624
G1 X18.79 Y6.72 E11.6783
G1 X18.53 Y6.67 E11.6871
; fan off
M107
;
; 'Wipe', 0.0 [RPM], 9.3 [mm/s]
G1 F1800
G1 E1.6871
G1 F559.7
G1 X18.79 Y6.72 E1.6871
G1 X18.79 Y6.24 E1.6871
G1 X18.62 Y6.22 E1.6871
G1 X17.53 Y6.22 E1.6871
G1 F210
G1 X17.53 Y6.22 Z5.05 E1.6871
; END_LAYER_OBJECT z=4.60
; Reset extruder pos
G92 E0
; BEGIN_LAYER_OBJECT z=4.80
; *** Cooling...speed multiplier is 0.222104 ***
; fan on
M106
;
; 'Perimeter', 14.0 [RPM], 7.0 [mm/s]
G1 F5400
G1 X6.67 Y18.53 E0
G1 F210
G1 X6.67 Y18.53 Z4.8 E0
G1 F1800
G1 E10
G1 F421.1
G1 X6.72 Y18.79 E10.0088
G1 X6.24 Y18.79 E10.0248
G1 X6.22 Y18.62 E10.0304
G1 X6.22 Y13.38 E10.2045
G1 X6.24 Y13.21 E10.2101
G1 X6.72 Y13.21 E10.2261
G1 X6.79 Y13.33 E10.2307
G1 X6.79 Y18.67 E10.408
G1 X6.72 Y18.79 E10.4126
G1 X6.52 Y18.61 E10.4214
; fan off
M107
;
; 'Wipe', 0.0 [RPM], 9.3 [mm/s]
G1 F1800
G1 E0.4214
G1 F559.7
G1 X6.72 Y18.79 E0.4214
G1 X6.79 Y18.67 E0.4214
G1 X6.79 Y16.97 E0.4214
; fan on
M106
;
; 'Perimeter', 14.0 [RPM], 7.0 [mm/s]
G1 F1199.4
G1 X18.64 Y25.53 E0.4214
G1 F1800
G1 E10.4214
G1 F421.1
G1 X18.79 Y25.76 E10.4306
G1 X18.62 Y25.78 E10.4362
G1 X13.38 Y25.78 E10.6103
G1 X13.21 Y25.76 E10.616
G1 X13.21 Y25.28 E10.6319
G1 X13.33 Y25.21 E10.6365
G1 X18.67 Y25.21 E10.8138
G1 X18.79 Y25.28 E10.8184
G1 X18.79 Y25.76 E10.8344
G1 X18.54 Y25.64 E10.8436
; fan off
M107
;
; 'Wipe', 0.0 [RPM], 9.3 [mm/s]
G1 F1800
G1 E0.8436
G1 F559.7
G1 X18.79 Y25.76 E0.8436
G1 X18.79 Y25.28 E0.8436
G1 X18.67 Y25.21 E0.8436
G1 X17.53 Y25.21 E0.8436
; fan on
M106
;
; 'Perimeter', 14.0 [RPM], 7.0 [mm/s]
G1 F1199.4
G1 X25.64 Y18.54 E0.8436
G1 F1800
G1 E10.8436
G1 F421.1
G1 X25.76 Y18.79 E10.8528
G1 X25.28 Y18.79 E10.8687
G1 X25.21 Y18.67 E10.8733
G1 X25.21 Y13.33 E11.0506
G1 X25.28 Y13.21 E11.0552
G1 X25.76 Y13.21 E11.0712
G1 X25.78 Y13.38 E11.0768
G1 X25.78 Y18.62 E11.2509
G1 X25.76 Y18.79 E11.2565
G1 X25.53 Y18.64 E11.2657
; fan off
M107
;
; 'Wipe', 0.0 [RPM], 9.3 [mm/s]
G1 F1800
G1 E1.2657
G1 F559.7
G1 X25.76 Y18.79 E1.2657
G1 X25.78 Y18.62 E1.2657
G1 X25.78 Y16.96 E1.2657
; fan on
M106
;
; 'Perimeter', 14.0 [RPM], 7.0 [mm/s]
G1 F1199.4
G1 X18.61 Y6.52 E1.2657
G1 F1800
G1 E11.2657
G1 F421.1
G1 X18.79 Y6.72 E11.2746
G1 X18.66 Y6.79 E11.2792
G1 X13.34 Y6.79 E11.4564
G1 X13.21 Y6.72 E11.461
G1 X13.21 Y6.24 E11.477
G1 X13.38 Y6.22 E11.4826
G1 X18.62 Y6.22 E11.6568
G1 X18.79 Y6.24 E11.6624
G1 X18.79 Y6.72 E11.6783
G1 X18.53 Y6.67 E11.6871
; fan off
M107
;
; 'Wipe', 0.0 [RPM], 9.3 [mm/s]
G1 F1800
G1 E1.6871
G1 F559.7
G1 X18.79 Y6.72 E1.6871
G1 X18.79 Y6.24 E1.6871
G1 X18.62 Y6.22 E1.6871
G1 X17.53 Y6.22 E1.6871
G1 F210
G1 X17.53 Y6.22 Z5.25 E1.6871
; END_LAYER_OBJECT z=4.80
; Reset extruder pos
G92 E0
; BEGIN_LAYER_OBJECT z=5.00
; *** Cooling...speed multiplier is 0.222104 ***
; fan on
M106
;
; 'Perimeter', 14.0 [RPM], 7.0 [mm/s]
G1 F5400
G1 X6.67 Y18.53 E0
G1 F210
G1 X6.67 Y18.53 Z5 E0
G1 F1800
G1 E10
G1 F421.1
G1 X6.72 Y18.79 E10.0088
G1 X6.24 Y18.79 E10.0248
G1 X6.22 Y18.62 E10.0304
G1 X6.22 Y13.38 E10.2045
G1 X6.24 Y13.21 E10.2101
G1 X6.72 Y13.21 E10.2261
G1 X6.79 Y13.33 E10.2307
G1 X6.79 Y18.67 E10.408
G1 X6.72 Y18.79 E10.4126
G1 X6.52 Y18.61 E10.4214
; fan off
M107
;
; 'Wipe', 0.0 [RPM], 9.3 [mm/s]
G1 F1800
G1 E0.4214
G1 F559.7
G1 X6.72 Y18.79 E0.4214
G1 X6.79 Y18.67 E0.4214
G1 X6.79 Y16.97 E0.4214
; fan on
M106
;
; 'Perimeter', 14.0 [RPM], 7.0 [mm/s]
G1 F1199.4
G1 X18.64 Y25.53 E0.4214
G1 F1800
G1 E10.4214
G1 F421.1
G1 X18.79 Y25.76 E10.4306
G1 X18.62 Y25.78 E10.4362
G1 X13.38 Y25.78 E10.6103
G1 X13.21 Y25.76 E10.616
G1 X13.21 Y25.28 E10.6319
G1 X13.33 Y25.21 E10.6365
G1 X18.67 Y25.21 E10.8138
G1 X18.79 Y25.28 E10.8184
G1 X18.79 Y25.76 E10.8344
G1 X18.54 Y25.64 E10.8436
; fan off
M107
;
; 'Wipe', 0.0 [RPM], 9.3 [mm/s]
G1 F1800
G1 E0.8436
G1 F559.7
G1 X18.79 Y25.76 E0.8436
G1 X18.79 Y25.28 E0.8436
G1 X18.67 Y25.21 E0.8436
G1 X17.53 Y25.21 E0.8436
; fan on
M106
;
; 'Perimeter', 14.0 [RPM], 7.0 [mm/s]
G1 F1199.4
G1 X25.64 Y18.54 E0.8436
G1 F1800
G1 E10.8436
G1 F421.1
G1 X25.76 Y18.79 E10.8528
G1 X25.28 Y18.79 E10.8687
G1 X25.21 Y18.67 E10.8733
G1 X25.21 Y13.33 E11.0506
G1 X25.28 Y13.21 E11.0552
G1 X25.76 Y13.21 E11.0712
G1 X25.78 Y13.38 E11.0768
G1 X25.78 Y18.62 E11.2509
G1 X25.76 Y18.79 E11.2565
G1 X25.53 Y18.64 E11.2657
; fan off
M107
;
; 'Wipe', 0.0 [RPM], 9.3 [mm/s]
G1 F1800
G1 E1.2657
G1 F559.7
G1 X25.76 Y18.79 E1.2657
G1 X25.78 Y18.62 E1.2657
G1 X25.78 Y16.96 E1.2657
; fan on
M106
;
; 'Perimeter', 14.0 [RPM], 7.0 [mm/s]
G1 F1199.4
G1 X18.61 Y6.52 E1.2657
G1 F1800
G1 E11.2657
G1 F421.1
G1 X18.79 Y6.72 E11.2746
G1 X18.66 Y6.79 E11.2792
G1 X13.34 Y6.79 E11.4564
G1 X13.21 Y6.72 E11.461
G1 X13.21 Y6.24 E11.477
G1 X13.38 Y6.22 E11.4826
G1 X18.62 Y6.22 E11.6568
G1 X18.79 Y6.24 E11.6624
G1 X18.79 Y6.72 E11.6783
G1 X18.53 Y6.67 E11.6871
; fan off
M107
;
; 'Wipe', 0.0 [RPM], 9.3 [mm/s]
G1 F1800
G1 E1.6871
G1 F559.7
G1 X18.79 Y6.72 E1.6871
G1 X18.79 Y6.24 E1.6871
G1 X18.62 Y6.22 E1.6871
G1 X17.53 Y6.22 E1.6871
G1 F210
G1 X17.53 Y6.22 Z5.45 E1.6871
; END_LAYER_OBJECT z=5.00
; Reset extruder pos
G92 E0
; BEGIN_LAYER_OBJECT z=5.20
; *** Cooling...speed multiplier is 0.222104 ***
; fan on
M106
;
; 'Perimeter', 14.0 [RPM], 7.0 [mm/s]
G1 F5400
G1 X6.67 Y18.53 E0
G1 F210
G1 X6.67 Y18.53 Z5.2 E0
G1 F1800
G1 E10
G1 F421.1
G1 X6.72 Y18.79 E10.0088
G1 X6.24 Y18.79 E10.0248
G1 X6.22 Y18.62 E10.0304
G1 X6.22 Y13.38 E10.2045
G1 X6.24 Y13.21 E10.2101
G1 X6.72 Y13.21 E10.2261
G1 X6.79 Y13.33 E10.2307
G1 X6.79 Y18.67 E10.408
G1 X6.72 Y18.79 E10.4126
G1 X6.52 Y18.61 E10.4214
; fan off
M107
;
; 'Wipe', 0.0 [RPM], 9.3 [mm/s]
G1 F1800
G1 E0.4214
G1 F559.7
G1 X6.72 Y18.79 E0.4214
G1 X6.79 Y18.67 E0.4214
G1 X6.79 Y16.97 E0.4214
; fan on
M106
;
; 'Perimeter', 14.0 [RPM], 7.0 [mm/s]
G1 F1199.4
G1 X18.64 Y25.53 E0.4214
G1 F1800
G1 E10.4214
G1 F421.1
G1 X18.79 Y25.76 E10.4306
G1 X18.62 Y25.78 E10.4362
G1 X13.38 Y25.78 E10.6103
G1 X13.21 Y25.76 E10.616
G1 X13.21 Y25.28 E10.6319
G1 X13.33 Y25.21 E10.6365
G1 X18.67 Y25.21 E10.8138
G1 X18.79 Y25.28 E10.8184
G1 X18.79 Y25.76 E10.8344
G1 X18.54 Y25.64 E10.8436
; fan off
M107
;
; 'Wipe', 0.0 [RPM], 9.3 [mm/s]
G1 F1800
G1 E0.8436
G1 F559.7
G1 X18.79 Y25.76 E0.8436
G1 X18.79 Y25.28 E0.8436
G1 X18.67 Y25.21 E0.8436
G1 X17.53 Y25.21 E0.8436
; fan on
M106
;
; 'Perimeter', 14.0 [RPM], 7.0 [mm/s]
G1 F1199.4
G1 X25.64 Y18.54 E0.8436
G1 F1800
G1 E10.8436
G1 F421.1
G1 X25.76 Y18.79 E10.8528
G1 X25.28 Y18.79 E10.8687
G1 X25.21 Y18.67 E10.8733
G1 X25.21 Y13.33 E11.0506
G1 X25.28 Y13.21 E11.0552
G1 X25.76 Y13.21 E11.0712
G1 X25.78 Y13.38 E11.0768
G1 X25.78 Y18.62 E11.2509
G1 X25.76 Y18.79 E11.2565
G1 X25.53 Y18.64 E11.2657
; fan off
M107
;
; 'Wipe', 0.0 [RPM], 9.3 [mm/s]
G1 F1800
G1 E1.2657
G1 F559.7
G1 X25.76 Y18.79 E1.2657
G1 X25.78 Y18.62 E1.2657
G1 X25.78 Y16.96 E1.2657
; fan on
M106
;
; 'Perimeter', 14.0 [RPM], 7.0 [mm/s]
G1 F1199.4
G1 X18.61 Y6.52 E1.2657
G1 F1800
G1 E11.2657
G1 F421.1
G1 X18.79 Y6.72 E11.2746
G1 X18.66 Y6.79 E11.2792
G1 X13.34 Y6.79 E11.4564
G1 X13.21 Y6.72 E11.461
G1 X13.21 Y6.24 E11.477
G1 X13.38 Y6.22 E11.4826
G1 X18.62 Y6.22 E11.6568
G1 X18.79 Y6.24 E11.6624
G1 X18.79 Y6.72 E11.6783
G1 X18.53 Y6.67 E11.6871
; fan off
M107
;
; 'Wipe', 0.0 [RPM], 9.3 [mm/s]
G1 F1800
G1 E1.6871
G1 F559.7
G1 X18.79 Y6.72 E1.6871
G1 X18.79 Y6.24 E1.6871
G1 X18.62 Y6.22 E1.6871
G1 X17.53 Y6.22 E1.6871
G1 F210
G1 X17.53 Y6.22 Z5.65 E1.6871
; END_LAYER_OBJECT z=5.20
; Reset extruder pos
G92 E0
; BEGIN_LAYER_OBJECT z=5.40
; *** Cooling...speed multiplier is 0.222104 ***
; fan on
M106
;
; 'Perimeter', 14.0 [RPM], 7.0 [mm/s]
G1 F5400
G1 X6.67 Y18.53 E0
G1 F210
G1 X6.67 Y18.53 Z5.4 E0
G1 F1800
G1 E10
G1 F421.1
G1 X6.72 Y18.79 E10.0088
G1 X6.24 Y18.79 E10.0248
G1 X6.22 Y18.62 E10.0304
G1 X6.22 Y13.38 E10.2045
G1 X6.24 Y13.21 E10.2101
G1 X6.72 Y13.21 E10.2261
G1 X6.79 Y13.33 E10.2307
G1 X6.79 Y18.67 E10.408
G1 X6.72 Y18.79 E10.4126
G1 X6.52 Y18.61 E10.4214
; fan off
M107
;
; 'Wipe', 0.0 [RPM], 9.3 [mm/s]
G1 F1800
G1 E0.4214
G1 F559.7
G1 X6.72 Y18.79 E0.4214
G1 X6.79 Y18.67 E0.4214
G1 X6.79 Y16.97 E0.4214
; fan on
M106
;
; 'Perimeter', 14.0 [RPM], 7.0 [mm/s]
G1 F1199.4
G1 X18.64 Y25.53 E0.4214
G1 F1800
G1 E10.4214
G1 F421.1
G1 X18.79 Y25.76 E10.4306
G1 X18.62 Y25.78 E10.4362
G1 X13.38 Y25.78 E10.6103
G1 X13.21 Y25.76 E10.616
G1 X13.21 Y25.28 E10.6319
G1 X13.33 Y25.21 E10.6365
G1 X18.67 Y25.21 E10.8138
G1 X18.79 Y25.28 E10.8184
G1 X18.79 Y25.76 E10.8344
G1 X18.54 Y25.64 E10.8436
; fan off
M107
;
; 'Wipe', 0.0 [RPM], 9.3 [mm/s]
G1 F1800
G1 E0.8436
G1 F559.7
G1 X18.79 Y25.76 E0.8436
G1 X18.79 Y25.28 E0.8436
G1 X18.67 Y25.21 E0.8436
G1 X17.53 Y25.21 E0.8436
; fan on
M106
;
; 'Perimeter', 14.0 [RPM], 7.0 [mm/s]
G1 F1199.4
G1 X25.64 Y18.54 E0.8436
G1 F1800
G1 E10.8436
G1 F421.1
G1 X25.76 Y18.79 E10.8528
G1 X25.28 Y18.79 E10.8687
G1 X25.21 Y18.67 E10.8733
G1 X25.21 Y13.33 E11.0506
G1 X25.28 Y13.21 E11.0552
G1 X25.76 Y13.21 E11.0712
G1 X25.78 Y13.38 E11.0768
G1 X25.78 Y18.62 E11.2509
G1 X25.76 Y18.79 E11.2565
G1 X25.53 Y18.64 E11.2657
; fan off
M107
;
; 'Wipe', 0.0 [RPM], 9.3 [mm/s]
G1 F1800
G1 E1.2657
G1 F559.7
G1 X25.76 Y18.79 E1.2657
G1 X25.78 Y18.62 E1.2657
G1 X25.78 Y16.96 E1.2657
; fan on
M106
;
; 'Perimeter', 14.0 [RPM], 7.0 [mm/s]
G1 F1199.4
G1 X18.61 Y6.52 E1.2657
G1 F1800
G1 E11.2657
G1 F421.1
G1 X18.79 Y6.72 E11.2746
G1 X18.66 Y6.79 E11.2792
G1 X13.34 Y6.79 E11.4564
G1 X13.21 Y6.72 E11.461
G1 X13.21 Y6.24 E11.477
G1 X13.38 Y6.22 E11.4826
G1 X18.62 Y6.22 E11.6568
G1 X18.79 Y6.24 E11.6624
G1 X18.79 Y6.72 E11.6783
G1 X18.53 Y6.67 E11.6871
; fan off
M107
;
; 'Wipe', 0.0 [RPM], 9.3 [mm/s]
G1 F1800
G1 E1.6871
G1 F559.7
G1 X18.79 Y6.72 E1.6871
G1 X18.79 Y6.24 E1.6871
G1 X18.62 Y6.22 E1.6871
G1 X17.53 Y6.22 E1.6871
G1 F210
G1 X17.53 Y6.22 Z5.85 E1.6871
; END_LAYER_OBJECT z=5.40
; Reset extruder pos
G92 E0
; BEGIN_LAYER_OBJECT z=5.60
; *** Cooling...speed multiplier is 0.222104 ***
; fan on
M106
;
; 'Perimeter', 14.0 [RPM], 7.0 [mm/s]
G1 F5400
G1 X6.67 Y18.53 E0
G1 F210
G1 X6.67 Y18.53 Z5.6 E0
G1 F1800
G1 E10
G1 F421.1
G1 X6.72 Y18.79 E10.0088
G1 X6.24 Y18.79 E10.0248
G1 X6.22 Y18.62 E10.0304
G1 X6.22 Y13.38 E10.2045
G1 X6.24 Y13.21 E10.2101
G1 X6.72 Y13.21 E10.2261
G1 X6.79 Y13.33 E10.2307
G1 X6.79 Y18.67 E10.408
G1 X6.72 Y18.79 E10.4126
G1 X6.52 Y18.61 E10.4214
; fan off
M107
;
; 'Wipe', 0.0 [RPM], 9.3 [mm/s]
G1 F1800
G1 E0.4214
G1 F559.7
G1 X6.72 Y18.79 E0.4214
G1 X6.79 Y18.67 E0.4214
G1 X6.79 Y16.97 E0.4214
; fan on
M106
;
; 'Perimeter', 14.0 [RPM], 7.0 [mm/s]
G1 F1199.4
G1 X18.64 Y25.53 E0.4214
G1 F1800
G1 E10.4214
G1 F421.1
G1 X18.79 Y25.76 E10.4306
G1 X18.62 Y25.78 E10.4362
G1 X13.38 Y25.78 E10.6103
G1 X13.21 Y25.76 E10.616
G1 X13.21 Y25.28 E10.6319
G1 X13.33 Y25.21 E10.6365
G1 X18.67 Y25.21 E10.8138
G1 X18.79 Y25.28 E10.8184
G1 X18.79 Y25.76 E10.8344
G1 X18.54 Y25.64 E10.8436
; fan off
M107
;
; 'Wipe', 0.0 [RPM], 9.3 [mm/s]
G1 F1800
G1 E0.8436
G1 F559.7
G1 X18.79 Y25.76 E0.8436
G1 X18.79 Y25.28 E0.8436
G1 X18.67 Y25.21 E0.8436
G1 X17.53 Y25.21 E0.8436
; fan on
M106
;
; 'Perimeter', 14.0 [RPM], 7.0 [mm/s]
G1 F1199.4
G1 X25.64 Y18.54 E0.8436
G1 F1800
G1 E10.8436
G1 F421.1
G1 X25.76 Y18.79 E10.8528
G1 X25.28 Y18.79 E10.8687
G1 X25.21 Y18.67 E10.8733
G1 X25.21 Y13.33 E11.0506
G1 X25.28 Y13.21 E11.0552
G1 X25.76 Y13.21 E11.0712
G1 X25.78 Y13.38 E11.0768
G1 X25.78 Y18.62 E11.2509
G1 X25.76 Y18.79 E11.2565
G1 X25.53 Y18.64 E11.2657
; fan off
M107
;
; 'Wipe', 0.0 [RPM], 9.3 [mm/s]
G1 F1800
G1 E1.2657
G1 F559.7
G1 X25.76 Y18.79 E1.2657
G1 X25.78 Y18.62 E1.2657
G1 X25.78 Y16.96 E1.2657
; fan on
M106
;
; 'Perimeter', 14.0 [RPM], 7.0 [mm/s]
G1 F1199.4
G1 X18.61 Y6.52 E1.2657
G1 F1800
G1 E11.2657
G1 F421.1
G1 X18.79 Y6.72 E11.2746
G1 X18.66 Y6.79 E11.2792
G1 X13.34 Y6.79 E11.4564
G1 X13.21 Y6.72 E11.461
G1 X13.21 Y6.24 E11.477
G1 X13.38 Y6.22 E11.4826
G1 X18.62 Y6.22 E11.6568
G1 X18.79 Y6.24 E11.6624
G1 X18.79 Y6.72 E11.6783
G1 X18.53 Y6.67 E11.6871
; fan off
M107
;
; 'Wipe', 0.0 [RPM], 9.3 [mm/s]
G1 F1800
G1 E1.6871
G1 F559.7
G1 X18.79 Y6.72 E1.6871
G1 X18.79 Y6.24 E1.6871
G1 X18.62 Y6.22 E1.6871
G1 X17.53 Y6.22 E1.6871
G1 F210
G1 X17.53 Y6.22 Z6.05 E1.6871
; END_LAYER_OBJECT z=5.60
; Reset extruder pos
G92 E0
; BEGIN_LAYER_OBJECT z=5.80
; *** Cooling...speed multiplier is 0.222104 ***
; fan on
M106
;
; 'Perimeter', 14.0 [RPM], 7.0 [mm/s]
G1 F5400
G1 X6.67 Y18.53 E0
G1 F210
G1 X6.67 Y18.53 Z5.8 E0
G1 F1800
G1 E10
G1 F421.1
G1 X6.72 Y18.79 E10.0088
G1 X6.24 Y18.79 E10.0248
G1 X6.22 Y18.62 E10.0304
G1 X6.22 Y13.38 E10.2045
G1 X6.24 Y13.21 E10.2101
G1 X6.72 Y13.21 E10.2261
G1 X6.79 Y13.33 E10.2307
G1 X6.79 Y18.67 E10.408
G1 X6.72 Y18.79 E10.4126
G1 X6.52 Y18.61 E10.4214
; fan off
M107
;
; 'Wipe', 0.0 [RPM], 9.3 [mm/s]
G1 F1800
G1 E0.4214
G1 F559.7
G1 X6.72 Y18.79 E0.4214
G1 X6.79 Y18.67 E0.4214
G1 X6.79 Y16.97 E0.4214
; fan on
M106
;
; 'Perimeter', 14.0 [RPM], 7.0 [mm/s]
G1 F1199.4
G1 X18.64 Y25.53 E0.4214
G1 F1800
G1 E10.4214
G1 F421.1
G1 X18.79 Y25.76 E10.4306
G1 X18.62 Y25.78 E10.4362
G1 X13.38 Y25.78 E10.6103
G1 X13.21 Y25.76 E10.616
G1 X13.21 Y25.28 E10.6319
G1 X13.33 Y25.21 E10.6365
G1 X18.67 Y25.21 E10.8138
G1 X18.79 Y25.28 E10.8184
G1 X18.79 Y25.76 E10.8344
G1 X18.54 Y25.64 E10.8436
; fan off
M107
;
; 'Wipe', 0.0 [RPM], 9.3 [mm/s]
G1 F1800
G1 E0.8436
G1 F559.7
G1 X18.79 Y25.76 E0.8436
G1 X18.79 Y25.28 E0.8436
G1 X18.67 Y25.21 E0.8436
G1 X17.53 Y25.21 E0.8436
; fan on
M106
;
; 'Perimeter', 14.0 [RPM], 7.0 [mm/s]
G1 F1199.4
G1 X25.64 Y18.54 E0.8436
G1 F1800
G1 E10.8436
G1 F421.1
G1 X25.76 Y18.79 E10.8528
G1 X25.28 Y18.79 E10.8687
G1 X25.21 Y18.67 E10.8733
G1 X25.21 Y13.33 E11.0506
G1 X25.28 Y13.21 E11.0552
G1 X25.76 Y13.21 E11.0712
G1 X25.78 Y13.38 E11.0768
G1 X25.78 Y18.62 E11.2509
G1 X25.76 Y18.79 E11.2565
G1 X25.53 Y18.64 E11.2657
; fan off
M107
;
; 'Wipe', 0.0 [RPM], 9.3 [mm/s]
G1 F1800
G1 E1.2657
G1 F559.7
G1 X25.76 Y18.79 E1.2657
G1 X25.78 Y18.62 E1.2657
G1 X25.78 Y16.96 E1.2657
; fan on
M106
;
; 'Perimeter', 14.0 [RPM], 7.0 [mm/s]
G1 F1199.4
G1 X18.61 Y6.52 E1.2657
G1 F1800
G1 E11.2657
G1 F421.1
G1 X18.79 Y6.72 E11.2746
G1 X18.66 Y6.79 E11.2792
G1 X13.34 Y6.79 E11.4564
G1 X13.21 Y6.72 E11.461
G1 X13.21 Y6.24 E11.477
G1 X13.38 Y6.22 E11.4826
G1 X18.62 Y6.22 E11.6568
G1 X18.79 Y6.24 E11.6624
G1 X18.79 Y6.72 E11.6783
G1 X18.53 Y6.67 E11.6871
; fan off
M107
;
; 'Wipe', 0.0 [RPM], 9.3 [mm/s]
G1 F1800
G1 E1.6871
G1 F559.7
G1 X18.79 Y6.72 E1.6871
G1 X18.79 Y6.24 E1.6871
G1 X18.62 Y6.22 E1.6871
G1 X17.53 Y6.22 E1.6871
G1 F210
G1 X17.53 Y6.22 Z6.25 E1.6871
; END_LAYER_OBJECT z=5.80
; Reset extruder pos
G92 E0
; BEGIN_LAYER_OBJECT z=6.00
; *** Cooling...speed multiplier is 0.222104 ***
; fan on
M106
;
; 'Perimeter', 14.0 [RPM], 7.0 [mm/s]
G1 F5400
G1 X6.67 Y18.53 E0
G1 F210
G1 X6.67 Y18.53 Z6 E0
G1 F1800
G1 E10
G1 F421.1
G1 X6.72 Y18.79 E10.0088
G1 X6.24 Y18.79 E10.0248
G1 X6.22 Y18.62 E10.0304
G1 X6.22 Y13.38 E10.2045
G1 X6.24 Y13.21 E10.2101
G1 X6.72 Y13.21 E10.2261
G1 X6.79 Y13.33 E10.2307
G1 X6.79 Y18.67 E10.408
G1 X6.72 Y18.79 E10.4126
G1 X6.52 Y18.61 E10.4214
; fan off
M107
;
; 'Wipe', 0.0 [RPM], 9.3 [mm/s]
G1 F1800
G1 E0.4214
G1 F559.7
G1 X6.72 Y18.79 E0.4214
G1 X6.79 Y18.67 E0.4214
G1 X6.79 Y16.97 E0.4214
; fan on
M106
;
; 'Perimeter', 14.0 [RPM], 7.0 [mm/s]
G1 F1199.4
G1 X18.64 Y25.53 E0.4214
G1 F1800
G1 E10.4214
G1 F421.1
G1 X18.79 Y25.76 E10.4306
G1 X18.62 Y25.78 E10.4362
G1 X13.38 Y25.78 E10.6103
G1 X13.21 Y25.76 E10.616
G1 X13.21 Y25.28 E10.6319
G1 X13.33 Y25.21 E10.6365
G1 X18.67 Y25.21 E10.8138
G1 X18.79 Y25.28 E10.8184
G1 X18.79 Y25.76 E10.8344
G1 X18.54 Y25.64 E10.8436
; fan off
M107
;
; 'Wipe', 0.0 [RPM], 9.3 [mm/s]
G1 F1800
G1 E0.8436
G1 F559.7
G1 X18.79 Y25.76 E0.8436
G1 X18.79 Y25.28 E0.8436
G1 X18.67 Y25.21 E0.8436
G1 X17.53 Y25.21 E0.8436
; fan on
M106
;
; 'Perimeter', 14.0 [RPM], 7.0 [mm/s]
G1 F1199.4
G1 X25.64 Y18.54 E0.8436
G1 F1800
G1 E10.8436
G1 F421.1
G1 X25.76 Y18.79 E10.8528
G1 X25.28 Y18.79 E10.8687
G1 X25.21 Y18.67 E10.8733
G1 X25.21 Y13.33 E11.0506
G1 X25.28 Y13.21 E11.0552
G1 X25.76 Y13.21 E11.0712
G1 X25.78 Y13.38 E11.0768
G1 X25.78 Y18.62 E11.2509
G1 X25.76 Y18.79 E11.2565
G1 X25.53 Y18.64 E11.2657
; fan off
M107
;
; 'Wipe', 0.0 [RPM], 9.3 [mm/s]
G1 F1800
G1 E1.2657
G1 F559.7
G1 X25.76 Y18.79 E1.2657
G1 X25.78 Y18.62 E1.2657
G1 X25.78 Y16.96 E1.2657
; fan on
M106
;
; 'Perimeter', 14.0 [RPM], 7.0 [mm/s]
G1 F1199.4
G1 X18.61 Y6.52 E1.2657
G1 F1800
G1 E11.2657
G1 F421.1
G1 X18.79 Y6.72 E11.2746
G1 X18.66 Y6.79 E11.2792
G1 X13.34 Y6.79 E11.4564
G1 X13.21 Y6.72 E11.461
G1 X13.21 Y6.24 E11.477
G1 X13.38 Y6.22 E11.4826
G1 X18.62 Y6.22 E11.6568
G1 X18.79 Y6.24 E11.6624
G1 X18.79 Y6.72 E11.6783
G1 X18.53 Y6.67 E11.6871
; fan off
M107
;
; 'Wipe', 0.0 [RPM], 9.3 [mm/s]
G1 F1800
G1 E1.6871
G1 F559.7
G1 X18.79 Y6.72 E1.6871
G1 X18.79 Y6.24 E1.6871
G1 X18.62 Y6.22 E1.6871
G1 X17.53 Y6.22 E1.6871
G1 F210
G1 X17.53 Y6.22 Z6.45 E1.6871
; END_LAYER_OBJECT z=6.00
; Reset extruder pos
G92 E0
; BEGIN_LAYER_OBJECT z=6.20
; *** Cooling...speed multiplier is 0.222104 ***
; fan on
M106
;
; 'Perimeter', 14.0 [RPM], 7.0 [mm/s]
G1 F5400
G1 X6.67 Y18.53 E0
G1 F210
G1 X6.67 Y18.53 Z6.2 E0
G1 F1800
G1 E10
G1 F421.1
G1 X6.72 Y18.79 E10.0088
G1 X6.24 Y18.79 E10.0248
G1 X6.22 Y18.62 E10.0304
G1 X6.22 Y13.38 E10.2045
G1 X6.24 Y13.21 E10.2101
G1 X6.72 Y13.21 E10.2261
G1 X6.79 Y13.33 E10.2307
G1 X6.79 Y18.67 E10.408
G1 X6.72 Y18.79 E10.4126
G1 X6.52 Y18.61 E10.4214
; fan off
M107
;
; 'Wipe', 0.0 [RPM], 9.3 [mm/s]
G1 F1800
G1 E0.4214
G1 F559.7
G1 X6.72 Y18.79 E0.4214
G1 X6.79 Y18.67 E0.4214
G1 X6.79 Y16.97 E0.4214
; fan on
M106
;
; 'Perimeter', 14.0 [RPM], 7.0 [mm/s]
G1 F1199.4
G1 X18.64 Y25.53 E0.4214
G1 F1800
G1 E10.4214
G1 F421.1
G1 X18.79 Y25.76 E10.4306
G1 X18.62 Y25.78 E10.4362
G1 X13.38 Y25.78 E10.6103
G1 X13.21 Y25.76 E10.616
G1 X13.21 Y25.28 E10.6319
G1 X13.33 Y25.21 E10.6365
G1 X18.67 Y25.21 E10.8138
G1 X18.79 Y25.28 E10.8184
G1 X18.79 Y25.76 E10.8344
G1 X18.54 Y25.64 E10.8436
; fan off
M107
;
; 'Wipe', 0.0 [RPM], 9.3 [mm/s]
G1 F1800
G1 E0.8436
G1 F559.7
G1 X18.79 Y25.76 E0.8436
G1 X18.79 Y25.28 E0.8436
G1 X18.67 Y25.21 E0.8436
G1 X17.53 Y25.21 E0.8436
; fan on
M106
;
; 'Perimeter', 14.0 [RPM], 7.0 [mm/s]
G1 F1199.4
G1 X25.64 Y18.54 E0.8436
G1 F1800
G1 E10.8436
G1 F421.1
G1 X25.76 Y18.79 E10.8528
G1 X25.28 Y18.79 E10.8687
G1 X25.21 Y18.67 E10.8733
G1 X25.21 Y13.33 E11.0506
G1 X25.28 Y13.21 E11.0552
G1 X25.76 Y13.21 E11.0712
G1 X25.78 Y13.38 E11.0768
G1 X25.78 Y18.62 E11.2509
G1 X25.76 Y18.79 E11.2565
G1 X25.53 Y18.64 E11.2657
; fan off
M107
;
; 'Wipe', 0.0 [RPM], 9.3 [mm/s]
G1 F1800
G1 E1.2657
G1 F559.7
G1 X25.76 Y18.79 E1.2657
G1 X25.78 Y18.62 E1.2657
G1 X25.78 Y16.96 E1.2657
; fan on
M106
;
; 'Perimeter', 14.0 [RPM], 7.0 [mm/s]
G1 F1199.4
G1 X18.61 Y6.52 E1.2657
G1 F1800
G1 E11.2657
G1 F421.1
G1 X18.79 Y6.72 E11.2746
G1 X18.66 Y6.79 E11.2792
G1 X13.34 Y6.79 E11.4564
G1 X13.21 Y6.72 E11.461
G1 X13.21 Y6.24 E11.477
G1 X13.38 Y6.22 E11.4826
G1 X18.62 Y6.22 E11.6568
G1 X18.79 Y6.24 E11.6624
G1 X18.79 Y6.72 E11.6783
G1 X18.53 Y6.67 E11.6871
; fan off
M107
;
; 'Wipe', 0.0 [RPM], 9.3 [mm/s]
G1 F1800
G1 E1.6871
G1 F559.7
G1 X18.79 Y6.72 E1.6871
G1 X18.79 Y6.24 E1.6871
G1 X18.62 Y6.22 E1.6871
G1 X17.53 Y6.22 E1.6871
G1 F210
G1 X17.53 Y6.22 Z6.65 E1.6871
; END_LAYER_OBJECT z=6.20
; Reset extruder pos
G92 E0
; BEGIN_LAYER_OBJECT z=6.40
; *** Cooling...speed multiplier is 0.222104 ***
; fan on
M106
;
; 'Perimeter', 14.0 [RPM], 7.0 [mm/s]
G1 F5400
G1 X6.67 Y18.53 E0
G1 F210
G1 X6.67 Y18.53 Z6.4 E0
G1 F1800
G1 E10
G1 F421.1
G1 X6.72 Y18.79 E10.0088
G1 X6.24 Y18.79 E10.0248
G1 X6.22 Y18.62 E10.0304
G1 X6.22 Y13.38 E10.2045
G1 X6.24 Y13.21 E10.2101
G1 X6.72 Y13.21 E10.2261
G1 X6.79 Y13.33 E10.2307
G1 X6.79 Y18.67 E10.408
G1 X6.72 Y18.79 E10.4126
G1 X6.52 Y18.61 E10.4214
; fan off
M107
;
; 'Wipe', 0.0 [RPM], 9.3 [mm/s]
G1 F1800
G1 E0.4214
G1 F559.7
G1 X6.72 Y18.79 E0.4214
G1 X6.79 Y18.67 E0.4214
G1 X6.79 Y16.97 E0.4214
; fan on
M106
;
; 'Perimeter', 14.0 [RPM], 7.0 [mm/s]
G1 F1199.4
G1 X18.64 Y25.53 E0.4214
G1 F1800
G1 E10.4214
G1 F421.1
G1 X18.79 Y25.76 E10.4306
G1 X18.62 Y25.78 E10.4362
G1 X13.38 Y25.78 E10.6103
G1 X13.21 Y25.76 E10.616
G1 X13.21 Y25.28 E10.6319
G1 X13.33 Y25.21 E10.6365
G1 X18.67 Y25.21 E10.8138
G1 X18.79 Y25.28 E10.8184
G1 X18.79 Y25.76 E10.8344
G1 X18.54 Y25.64 E10.8436
; fan off
M107
;
; 'Wipe', 0.0 [RPM], 9.3 [mm/s]
G1 F1800
G1 E0.8436
G1 F559.7
G1 X18.79 Y25.76 E0.8436
G1 X18.79 Y25.28 E0.8436
G1 X18.67 Y25.21 E0.8436
G1 X17.53 Y25.21 E0.8436
; fan on
M106
;
; 'Perimeter', 14.0 [RPM], 7.0 [mm/s]
G1 F1199.4
G1 X25.64 Y18.54 E0.8436
G1 F1800
G1 E10.8436
G1 F421.1
G1 X25.76 Y18.79 E10.8528
G1 X25.28 Y18.79 E10.8687
G1 X25.21 Y18.67 E10.8733
G1 X25.21 Y13.33 E11.0506
G1 X25.28 Y13.21 E11.0552
G1 X25.76 Y13.21 E11.0712
G1 X25.78 Y13.38 E11.0768
G1 X25.78 Y18.62 E11.2509
G1 X25.76 Y18.79 E11.2565
G1 X25.53 Y18.64 E11.2657
; fan off
M107
;
; 'Wipe', 0.0 [RPM], 9.3 [mm/s]
G1 F1800
G1 E1.2657
G1 F559.7
G1 X25.76 Y18.79 E1.2657
G1 X25.78 Y18.62 E1.2657
G1 X25.78 Y16.96 E1.2657
; fan on
M106
;
; 'Perimeter', 14.0 [RPM], 7.0 [mm/s]
G1 F1199.4
G1 X18.61 Y6.52 E1.2657
G1 F1800
G1 E11.2657
G1 F421.1
G1 X18.79 Y6.72 E11.2746
G1 X18.66 Y6.79 E11.2792
G1 X13.34 Y6.79 E11.4564
G1 X13.21 Y6.72 E11.461
G1 X13.21 Y6.24 E11.477
G1 X13.38 Y6.22 E11.4826
G1 X18.62 Y6.22 E11.6568
G1 X18.79 Y6.24 E11.6624
G1 X18.79 Y6.72 E11.6783
G1 X18.53 Y6.67 E11.6871
; fan off
M107
;
; 'Wipe', 0.0 [RPM], 9.3 [mm/s]
G1 F1800
G1 E1.6871
G1 F559.7
G1 X18.79 Y6.72 E1.6871
G1 X18.79 Y6.24 E1.6871
G1 X18.62 Y6.22 E1.6871
G1 X17.53 Y6.22 E1.6871
G1 F210
G1 X17.53 Y6.22 Z6.85 E1.6871
; END_LAYER_OBJECT z=6.40
; Reset extruder pos
G92 E0
; BEGIN_LAYER_OBJECT z=6.60
; *** Cooling...speed multiplier is 0.222104 ***
; fan on
M106
;
; 'Perimeter', 14.0 [RPM], 7.0 [mm/s]
G1 F5400
G1 X6.67 Y18.53 E0
G1 F210
G1 X6.67 Y18.53 Z6.6 E0
G1 F1800
G1 E10
G1 F421.1
G1 X6.72 Y18.79 E10.0088
G1 X6.24 Y18.79 E10.0248
G1 X6.22 Y18.62 E10.0304
G1 X6.22 Y13.38 E10.2045
G1 X6.24 Y13.21 E10.2101
G1 X6.72 Y13.21 E10.2261
G1 X6.79 Y13.33 E10.2307
G1 X6.79 Y18.67 E10.408
G1 X6.72 Y18.79 E10.4126
G1 X6.52 Y18.61 E10.4214
; fan off
M107
;
; 'Wipe', 0.0 [RPM], 9.3 [mm/s]
G1 F1800
G1 E0.4214
G1 F559.7
G1 X6.72 Y18.79 E0.4214
G1 X6.79 Y18.67 E0.4214
G1 X6.79 Y16.97 E0.4214
; fan on
M106
;
; 'Perimeter', 14.0 [RPM], 7.0 [mm/s]
G1 F1199.4
G1 X18.64 Y25.53 E0.4214
G1 F1800
G1 E10.4214
G1 F421.1
