; KISSlicer
; Windows
; version 1.0.9.7
; Built: Jun 13 2012, 22:16:39
;
; Saved: Mon Jul 16 00:26:41 2012
; 'ColorBase.gcode'
;
; *** Printer Settings ***
;
; printer_name = Prusa
; extension = gcode
; cost_per_hour = 0
; g_code_prefix = 4732383B0909486F6D6520616C6C20617865730A
; g_code_postfix = 4D3130342054302053303B095475726E206F6666206E6F7A7A6C6520312074656D70657261747572652E0A4D3130342054312053303B095475726E206F6666206E6F7A7A6C6520322074656D70657261747572652E0A4D3139302053303B095475726E206F66662068656174206265642074656D70657261747572652E0A4739313B0909496E6372656D656E74616C20506F736974696F6E696E672E0A473031205A31303B0953746570205A20617869732075702031306D6D2E0A4739303B09094162736F6C75746520506F736974696F6E696E672E0A4731204631323030303B09323030205B6D6D2F735D0A4732382058303B0909486F6D65205820617869732E0A47303120593230303B09536C69646520746865206275696C6420706C6174666F726D206F757420746F206578706F736520746865207072696E742E0A4D38343B090944697361626C65206D6F746F72730A
; g_code_ext_change = NULL
; post_process = NULL
; num_extruders = 1
; firmware_type = 2
; M104_M109 = 1
; add_comments = 1
; z_speed_mm_per_s = 3.5
; z_settle_mm = 0.25
; bed_size_x_mm = 180
; bed_size_y_mm = 190
; bed_size_z_mm = 150
; bed_offset_x_mm = 90
; bed_offset_y_mm = 95
; bed_offset_z_mm = 0
; bed_roughness_mm = 0
; travel_speed_mm_per_s = 90
; first_layer_speed_mm_per_s = 10
; lo_speed_perim_mm_per_s = 4
; lo_speed_solid_mm_per_s = 15
; lo_speed_sparse_mm_per_s = 15
; hi_speed_perim_mm_per_s = 50
; hi_speed_solid_mm_per_s = 60
; hi_speed_sparse_mm_per_s = 60
; ext_mm_per_rev_1 = 1
; ext_material_1 = 2
; ext_axis_1 = 0
; ext_mm_per_rev_2 = 1
; ext_material_2 = 4
; ext_axis_2 = 0
; ext_mm_per_rev_3 = 1.25
; ext_material_3 = 0
; ext_axis_3 = 0
; model_ext = 0
; support_ext = 0
; support_body_ext = 0
; raft_ext = 0
; solid_loop_overlap_fraction = 1
;
; *** Material Settings for Extruder 1 ***
;
; material_name = ABS
; fan_off_ISOs_all = 1
; temperature_C = 220
; keep_warm_C = 220
; first_layer_C = 220
; bed_C = 110
; sec_per_C_per_C = 0.0015
; RPM_min = 10
; RPM_max = 300
; destring_suck = 10
; destring_prime = 10
; destring_min_mm = 1
; destring_speed_mm_per_s = 30
; min_layer_time_s = 10
; wipe_mm = 2
; cost_per_cm3 = 0.0712331
; flowrate_tweak = 1
; fiber_dia_mm = 1.75
; color = -16774400
;
; *** Style Settings ***
;
; style_name = Normal
; layer_thickness_mm = 0.2
; extrusion_width_mm = 0.4
; num_loops = 2
; skin_thickness_mm = 1.2
; infill_extrusion_width = 0.4
; infill_density_denominator = 2
; stacked_layers = 1
; use_destring = 1
; loops_insideout = 1
; round_infill = 1
;
; *** Actual Slicing Settings As Used ***
;
; layer_thickness_mm = 0.2
; extrusion_width = 0.4
; num_ISOs = 2
; wall_thickness = 1.2
; infill_style = 3
; support_style = 0
; support_angle = 90
; destring_min_mm = 1
; stacked_infill_layers = 1
; ISO_wipe_mm = 2
; raft_style = 1
; extra_raft_depth = 0
; oversample_res_mm = 0.125
; crowning_threshold_mm = -1
; loops_insideout = 1
; sheathed_support = 0
; solid_loop_overlap_fraction = 1
; inflate_raft_mm = 2
; inflate_support_mm = 1
; model_support_gap_mm = 0.5
; round_infill = 1
; Speed vs Quality = 0.40
;
; *** Header ***
;
; fan off
M107
; [mm] mode
G21
; absolute mode
G90
; *** User-Supplied G-code Prefix ***
;
G28;		Home all axes

;
; *** Main G-code ***
;
; Reset extruder pos
G92 E0
; BEGIN_LAYER_OBJECT z=0.20
;
; *** Warming Extruder 1 to 220 C ***
M109 S220
G92 E0
;
;
; 'Skirt', 39.9 [RPM], 10.0 [mm/s]
G1 F5400
G1 X30.02 Y30.02 Z0.45 E0
G1 F210
G1 X30.02 Y30.02 Z0.2 E0
G1 F600
G1 X29.72 Y30.28 E0.0267
G1 X29.16 Y30.6 E0.0696
G1 X28.53 Y30.8 E0.113
G1 X28.01 Y30.84 E0.148
G1 X21 Y30.84 E0.6141
G1 X20.48 Y30.8 E0.6491
G1 X19.85 Y30.6 E0.6925
G1 X19.29 Y30.28 E0.7355
G1 X18.99 Y30.02 E0.7621
G1 X18.73 Y29.72 E0.7888
G1 X18.41 Y29.16 E0.8318
G1 X18.22 Y28.53 E0.8752
G1 X17.78 Y28.53 E0.9038
G1 X17.59 Y29.16 E0.9472
G1 X17.27 Y29.72 E0.9901
G1 X17.01 Y30.02 E1.0168
G1 X16.71 Y30.28 E1.0435
G1 X16.15 Y30.6 E1.0864
G1 X15.52 Y30.8 E1.1299
G1 X15 Y30.84 E1.1648
G1 X7.99 Y30.84 E1.6309
G1 X7.47 Y30.8 E1.6659
G1 X6.84 Y30.6 E1.7093
G1 X6.28 Y30.28 E1.7523
G1 X5.98 Y30.02 E1.779
G1 X5.72 Y29.72 E1.8056
G1 X5.4 Y29.16 E1.8486
G1 X5.2 Y28.53 E1.892
G1 X5.16 Y28.01 E1.927
G1 X5.16 Y21 E2.3931
G1 X5.2 Y20.48 E2.428
G1 X5.4 Y19.85 E2.4715
G1 X5.72 Y19.29 E2.5144
G1 X5.98 Y18.99 E2.5411
G1 X6.28 Y18.73 E2.5678
G1 X6.84 Y18.41 E2.6107
G1 X7.47 Y18.22 E2.6541
G1 X7.47 Y17.78 E2.6827
G1 X6.84 Y17.59 E2.7262
G1 X6.28 Y17.27 E2.7691
G1 X5.98 Y17.01 E2.7958
G1 X5.72 Y16.71 E2.8225
G1 X5.4 Y16.15 E2.8654
G1 X5.2 Y15.52 E2.9088
G1 X5.16 Y15 E2.9438
G1 X5.16 Y7.99 E3.4099
G1 X5.2 Y7.47 E3.4449
G1 X5.4 Y6.84 E3.4883
G1 X5.72 Y6.28 E3.5312
G1 X5.98 Y5.98 E3.5579
G1 X6.28 Y5.72 E3.5846
G1 X6.84 Y5.4 E3.6275
G1 X7.47 Y5.2 E3.6709
G1 X7.99 Y5.16 E3.7059
G1 X15 Y5.16 E4.172
G1 X15.52 Y5.2 E4.207
G1 X16.15 Y5.4 E4.2504
G1 X16.71 Y5.72 E4.2934
G1 X17.01 Y5.98 E4.32
G1 X17.27 Y6.28 E4.3467
G1 X17.59 Y6.84 E4.3897
G1 X17.78 Y7.47 E4.4331
G1 X18.22 Y7.47 E4.4617
G1 X18.41 Y6.84 E4.5051
G1 X18.73 Y6.28 E4.5481
G1 X18.99 Y5.98 E4.5747
G1 X19.29 Y5.72 E4.6014
G1 X19.85 Y5.4 E4.6444
G1 X20.48 Y5.2 E4.6878
G1 X21 Y5.16 E4.7227
G1 X28.01 Y5.16 E5.1889
G1 X28.53 Y5.2 E5.2238
G1 X29.16 Y5.4 E5.2672
G1 X29.72 Y5.72 E5.3102
G1 X30.02 Y5.98 E5.3369
G1 X30.28 Y6.28 E5.3635
G1 X30.6 Y6.84 E5.4065
G1 X30.8 Y7.47 E5.4499
G1 X30.84 Y7.99 E5.4849
G1 X30.84 Y15 E5.951
G1 X30.8 Y15.52 E5.986
G1 X30.6 Y16.15 E6.0294
G1 X30.28 Y16.71 E6.0723
G1 X30.02 Y17.01 E6.099
G1 X29.72 Y17.27 E6.1257
G1 X29.16 Y17.59 E6.1686
G1 X28.53 Y17.78 E6.212
G1 X28.53 Y18.22 E6.2406
G1 X29.16 Y18.41 E6.2841
G1 X29.72 Y18.73 E6.327
G1 X30.02 Y18.99 E6.3537
G1 X30.28 Y19.29 E6.3804
G1 X30.6 Y19.85 E6.4233
G1 X30.8 Y20.48 E6.4667
G1 X30.84 Y21 E6.5017
G1 X30.84 Y28.01 E6.9678
G1 X30.8 Y28.53 E7.0028
G1 X30.6 Y29.16 E7.0462
G1 X30.28 Y29.72 E7.0891
G1 X30.02 Y30.02 E7.1158
;
; 'Wipe', 0.0 [RPM], 10.0 [mm/s]
G1 F1800
G1 E-2.8842
;
; 'Skirt', 39.9 [RPM], 10.0 [mm/s]
G1 F5400
G1 X28.38 Y18.19 E-2.8842
G1 F1800
G1 E7.1158
G1 F600
G1 X28.01 Y18.17 E7.1403
G1 X21 Y18.17 E7.6064
G1 X20.48 Y18.22 E7.6414
G1 X19.85 Y18.41 E7.6848
G1 X19.29 Y18.73 E7.7277
G1 X18.99 Y18.99 E7.7544
G1 X18.73 Y19.29 E7.7811
G1 X18.41 Y19.85 E7.824
G1 X18.22 Y20.48 E7.8674
G1 X18.17 Y21 E7.9024
G1 X18.17 Y28.01 E8.3685
G1 X18.19 Y28.38 E8.393
G1 X17.81 Y28.38 E8.4187
G1 X17.83 Y28.01 E8.4432
G1 X17.83 Y21 E8.9093
G1 X17.78 Y20.48 E8.9443
G1 X17.59 Y19.85 E8.9877
G1 X17.27 Y19.29 E9.0306
G1 X17.01 Y18.99 E9.0573
G1 X16.71 Y18.73 E9.084
G1 X16.15 Y18.41 E9.127
G1 X15.52 Y18.22 E9.1704
G1 X15 Y18.17 E9.2053
G1 X7.99 Y18.17 E9.6714
G1 X7.62 Y18.19 E9.6959
G1 X7.62 Y17.81 E9.7217
G1 X7.99 Y17.83 E9.7461
G1 X15 Y17.83 E10.2122
G1 X15.52 Y17.78 E10.2472
G1 X16.15 Y17.59 E10.2906
G1 X16.71 Y17.27 E10.3336
G1 X17.01 Y17.01 E10.3603
G1 X17.27 Y16.71 E10.3869
G1 X17.59 Y16.15 E10.4299
G1 X17.78 Y15.52 E10.4733
G1 X17.83 Y15 E10.5083
G1 X17.83 Y7.99 E10.9744
G1 X17.81 Y7.62 E10.9988
G1 X18.19 Y7.62 E11.0246
G1 X18.17 Y7.99 E11.0491
G1 X18.17 Y15 E11.5152
G1 X18.22 Y15.52 E11.5501
G1 X18.41 Y16.15 E11.5936
G1 X18.73 Y16.71 E11.6365
G1 X18.99 Y17.01 E11.6632
G1 X19.29 Y17.27 E11.6899
G1 X19.85 Y17.59 E11.7328
G1 X20.48 Y17.78 E11.7762
G1 X21 Y17.83 E11.8112
G1 X28.01 Y17.83 E12.2773
G1 X28.38 Y17.81 E12.3018
G1 X28.38 Y18.19 E12.3275
;
; 'Wipe', 0.0 [RPM], 10.0 [mm/s]
G1 F1800
G1 E2.3275
;
; 'Loop', 20.0 [RPM], 10.0 [mm/s]
G1 F5400
G1 X14.38 Y14.38 E2.3275
G1 F1800
G1 E12.3275
G1 F600
G1 X8.8 Y14.38 E12.5133
G1 X8.62 Y14.37 E12.5193
G1 X8.62 Y8.62 E12.7107
G1 X14.37 Y8.62 E12.9021
G1 X14.38 Y8.8 E12.9081
G1 X14.38 Y14.38 E13.0938
;
; 'Perimeter', 20.0 [RPM], 10.0 [mm/s]
G1 F5400
G1 X14.64 Y14.54 E13.0938
G1 F600
G1 X14.78 Y14.78 E13.1031
G1 X8.4 Y14.78 E13.3155
G1 X8.22 Y14.77 E13.3215
G1 X8.22 Y8.22 E13.5395
G1 X14.77 Y8.22 E13.7576
G1 X14.78 Y8.4 E13.7635
G1 X14.78 Y14.78 E13.9759
G1 X14.54 Y14.64 E13.9852
;
; 'Solid', 20.0 [RPM], 10.0 [mm/s]
G1 F5400
G1 X14.18 Y13.9 E13.9852
G1 F600
G1 X13.96 Y14.12 E13.9958
G1 X13.39 Y14.12 E14.0146
G1 X14.12 Y13.39 E14.0489
G1 X14.12 Y12.83 E14.0677
G1 X12.83 Y14.12 E14.1287
G1 X12.26 Y14.12 E14.1475
G1 X14.12 Y12.26 E14.235
G1 X14.12 Y11.7 E14.2538
G1 X11.7 Y14.12 E14.368
G1 X11.13 Y14.12 E14.3868
G1 X14.12 Y11.13 E14.5276
G1 X14.12 Y10.56 E14.5464
G1 X10.56 Y14.12 E14.7138
G1 X10 Y14.12 E14.7326
G1 X14.12 Y10 E14.9265
G1 X14.12 Y9.43 E14.9454
G1 X9.43 Y14.12 E15.166
G1 X8.88 Y14.11 E15.1845
G1 X14.11 Y8.88 E15.4307
G1 X13.55 Y8.88 E15.4496
G1 X8.88 Y13.55 E15.6692
G1 X8.88 Y12.98 E15.688
G1 X12.98 Y8.88 E15.881
G1 X12.41 Y8.88 E15.8998
G1 X8.88 Y12.41 E16.0662
G1 X8.88 Y11.85 E16.085
G1 X11.85 Y8.88 E16.2248
G1 X11.28 Y8.88 E16.2436
G1 X8.88 Y11.28 E16.3568
G1 X8.88 Y10.72 E16.3756
G1 X10.72 Y8.88 E16.4622
G1 X10.15 Y8.88 E16.481
G1 X8.88 Y10.15 E16.541
G1 X8.88 Y9.59 E16.5598
G1 X9.59 Y8.88 E16.5932
G1 X9.02 Y8.88 E16.612
G1 X8.86 Y9.04 E16.6196
;
; 'Wipe', 0.0 [RPM], 10.0 [mm/s]
G1 F1800
G1 E6.6196
G1 F600
G1 X9.02 Y8.88 E6.6196
G1 X9.59 Y8.88 E6.6196
G1 X8.88 Y9.59 E6.6196
G1 X8.88 Y10.15 E6.6196
;
; 'Loop', 20.0 [RPM], 10.0 [mm/s]
G1 F5400
G1 X27.38 Y14.37 E6.6196
G1 F1800
G1 E16.6196
G1 F600
G1 X27.2 Y14.38 E16.6255
G1 X21.62 Y14.38 E16.8113
G1 X21.62 Y8.8 E16.9971
G1 X21.63 Y8.62 E17.003
G1 X27.38 Y8.62 E17.1945
G1 X27.38 Y14.37 E17.3859
;
; 'Perimeter', 20.0 [RPM], 10.0 [mm/s]
G1 F5400
G1 X27.64 Y14.53 E17.3859
G1 F600
G1 X27.78 Y14.77 E17.3951
G1 X27.6 Y14.78 E17.4011
G1 X21.22 Y14.78 E17.6135
G1 X21.22 Y8.4 E17.8259
G1 X21.23 Y8.22 E17.8318
G1 X27.78 Y8.22 E18.0499
G1 X27.78 Y14.77 E18.2679
G1 X27.54 Y14.64 E18.2772
;
; 'Solid', 20.0 [RPM], 10.0 [mm/s]
G1 F5400
G1 X26.91 Y14.18 E18.2772
G1 F600
G1 X27.12 Y13.97 E18.287
G1 X27.12 Y13.4 E18.3058
G1 X26.4 Y14.12 E18.3396
G1 X25.84 Y14.12 E18.3584
G1 X27.12 Y12.84 E18.4189
G1 X27.12 Y12.27 E18.4377
G1 X25.27 Y14.12 E18.5248
G1 X24.71 Y14.12 E18.5436
G1 X27.12 Y11.71 E18.6572
G1 X27.12 Y11.14 E18.676
G1 X24.14 Y14.12 E18.8163
G1 X23.57 Y14.12 E18.8351
G1 X27.12 Y10.57 E19.002
G1 X27.12 Y10.01 E19.0208
G1 X23.01 Y14.12 E19.2143
G1 X22.44 Y14.12 E19.2331
G1 X27.12 Y9.44 E19.4532
G1 X27.12 Y8.88 E19.472
G1 X21.88 Y14.12 E19.7188
G1 X21.88 Y13.56 E19.7376
G1 X26.56 Y8.88 E19.9577
G1 X25.99 Y8.88 E19.9765
G1 X21.88 Y12.99 E20.17
G1 X21.88 Y12.43 E20.1888
G1 X25.43 Y8.88 E20.3557
G1 X24.86 Y8.88 E20.3745
G1 X21.88 Y11.86 E20.5148
G1 X21.88 Y11.29 E20.5336
G1 X24.29 Y8.88 E20.6473
G1 X23.73 Y8.88 E20.6661
G1 X21.88 Y10.73 E20.7531
G1 X21.88 Y10.16 E20.772
G1 X23.16 Y8.88 E20.8324
G1 X22.6 Y8.88 E20.8512
G1 X21.88 Y9.6 E20.885
G1 X21.88 Y9.02 E20.904
G1 X22.05 Y8.86 E20.9118
;
; 'Wipe', 0.0 [RPM], 10.0 [mm/s]
G1 F1800
G1 E10.9118
G1 F600
G1 X21.88 Y9.02 E10.9118
G1 X21.88 Y9.6 E10.9118
G1 X22.6 Y8.88 E10.9118
G1 X23.16 Y8.88 E10.9118
;
; 'Loop', 20.0 [RPM], 10.0 [mm/s]
G1 F5400
G1 X27.38 Y27.38 E10.9118
G1 F1800
G1 E20.9118
G1 F600
G1 X21.63 Y27.38 E21.1032
G1 X21.62 Y27.2 E21.1092
G1 X21.62 Y21.62 E21.295
G1 X27.2 Y21.62 E21.4807
G1 X27.38 Y21.63 E21.4867
G1 X27.38 Y27.38 E21.6781
;
; 'Perimeter', 20.0 [RPM], 10.0 [mm/s]
G1 F5400
G1 X27.64 Y27.54 E21.6781
G1 F600
G1 X27.78 Y27.78 E21.6874
G1 X21.23 Y27.78 E21.9054
G1 X21.22 Y27.6 E21.9114
G1 X21.22 Y21.22 E22.1238
G1 X27.6 Y21.22 E22.3362
G1 X27.78 Y21.23 E22.3422
G1 X27.78 Y27.78 E22.5602
G1 X27.54 Y27.64 E22.5695
;
; 'Solid', 20.0 [RPM], 10.0 [mm/s]
G1 F5400
G1 X27.18 Y26.92 E22.5695
G1 F600
G1 X26.98 Y27.12 E22.5791
G1 X26.41 Y27.12 E22.5979
G1 X27.12 Y26.41 E22.6312
G1 X27.12 Y25.85 E22.6501
G1 X25.85 Y27.12 E22.71
G1 X25.28 Y27.12 E22.7288
G1 X27.12 Y25.28 E22.8154
G1 X27.12 Y24.72 E22.8342
G1 X24.72 Y27.12 E22.9474
G1 X24.15 Y27.12 E22.9662
G1 X27.12 Y24.15 E23.106
G1 X27.12 Y23.59 E23.1248
G1 X23.59 Y27.12 E23.2912
G1 X23.02 Y27.12 E23.31
G1 X27.12 Y23.02 E23.503
G1 X27.12 Y22.45 E23.5218
G1 X22.45 Y27.12 E23.7414
G1 X21.89 Y27.12 E23.7603
G1 X27.12 Y21.89 E24.0065
G1 X26.57 Y21.88 E24.025
G1 X21.88 Y26.57 E24.2456
G1 X21.88 Y26 E24.2645
G1 X26 Y21.88 E24.4584
G1 X25.44 Y21.88 E24.4773
G1 X21.88 Y25.44 E24.6446
G1 X21.88 Y24.87 E24.6634
G1 X24.87 Y21.88 E24.8042
G1 X24.3 Y21.88 E24.823
G1 X21.88 Y24.3 E24.9372
G1 X21.88 Y23.74 E24.956
G1 X23.74 Y21.88 E25.0435
G1 X23.17 Y21.88 E25.0624
G1 X21.88 Y23.17 E25.1233
G1 X21.88 Y22.61 E25.1421
G1 X22.61 Y21.88 E25.1765
G1 X22.04 Y21.88 E25.1953
G1 X21.86 Y22.06 E25.2038
;
; 'Wipe', 0.0 [RPM], 10.0 [mm/s]
G1 F1800
G1 E15.2038
G1 F600
G1 X22.04 Y21.88 E15.2038
G1 X22.61 Y21.88 E15.2038
G1 X21.88 Y22.61 E15.2038
G1 X21.88 Y23.17 E15.2038
;
; 'Loop', 20.0 [RPM], 10.0 [mm/s]
G1 F5400
G1 X14.37 Y27.38 E15.2038
G1 F1800
G1 E25.2038
G1 F600
G1 X8.62 Y27.38 E25.3952
G1 X8.62 Y21.63 E25.5866
G1 X8.8 Y21.62 E25.5926
G1 X14.38 Y21.62 E25.7784
G1 X14.38 Y27.2 E25.9642
G1 X14.37 Y27.38 E25.9701
;
; 'Perimeter', 20.0 [RPM], 10.0 [mm/s]
G1 F5400
G1 X14.64 Y27.54 E25.9701
G1 F600
G1 X14.77 Y27.78 E25.9794
G1 X8.22 Y27.78 E26.1974
G1 X8.22 Y21.23 E26.4154
G1 X8.4 Y21.22 E26.4214
G1 X14.78 Y21.22 E26.6338
G1 X14.78 Y27.6 E26.8462
G1 X14.77 Y27.78 E26.8522
G1 X14.53 Y27.64 E26.8614
;
; 'Solid', 20.0 [RPM], 10.0 [mm/s]
G1 F5400
G1 X13.91 Y27.18 E26.8614
G1 F600
G1 X14.12 Y26.98 E26.8712
G1 X14.12 Y26.4 E26.8902
G1 X13.4 Y27.12 E26.924
G1 X12.84 Y27.12 E26.9428
G1 X14.12 Y25.84 E27.0033
G1 X14.12 Y25.27 E27.0221
G1 X12.27 Y27.12 E27.1091
G1 X11.71 Y27.12 E27.1279
G1 X14.12 Y24.71 E27.2416
G1 X14.12 Y24.14 E27.2604
G1 X11.14 Y27.12 E27.4007
G1 X10.57 Y27.12 E27.4195
G1 X14.12 Y23.57 E27.5864
G1 X14.12 Y23.01 E27.6052
G1 X10.01 Y27.12 E27.7987
G1 X9.44 Y27.12 E27.8175
G1 X14.12 Y22.44 E28.0376
G1 X14.12 Y21.88 E28.0564
G1 X8.88 Y27.12 E28.3031
G1 X8.88 Y26.56 E28.3219
G1 X13.56 Y21.88 E28.542
G1 X12.99 Y21.88 E28.5609
G1 X8.88 Y25.99 E28.7544
G1 X8.88 Y25.43 E28.7732
G1 X12.43 Y21.88 E28.9401
G1 X11.86 Y21.88 E28.9589
G1 X8.88 Y24.86 E29.0991
G1 X8.88 Y24.29 E29.118
G1 X11.29 Y21.88 E29.2316
G1 X10.73 Y21.88 E29.2504
G1 X8.88 Y23.73 E29.3375
G1 X8.88 Y23.16 E29.3563
G1 X10.16 Y21.88 E29.4168
G1 X9.6 Y21.88 E29.4356
G1 X8.88 Y22.6 E29.4694
G1 X8.88 Y22.03 E29.4883
G1 X9.04 Y21.87 E29.496
;
; 'Wipe', 0.0 [RPM], 10.0 [mm/s]
G1 F1800
G1 E19.496
G1 F600
G1 X8.88 Y22.03 E19.496
G1 X8.88 Y22.6 E19.496
G1 X9.6 Y21.88 E19.496
G1 X10.16 Y21.88 E19.496
G1 F210
G1 X10.16 Y21.88 Z0.65 E19.496
; END_LAYER_OBJECT z=0.20
; Reset extruder pos
G92 E0
; BEGIN_LAYER_OBJECT z=0.40
; fan on
M106
;
; 'Loop', 77.7 [RPM], 39.0 [mm/s]
G1 F5400
G1 X14.38 Y14.38 E0
G1 F210
G1 X14.38 Y14.38 Z0.4 E0
G1 F1800
G1 E10
G1 F2337.2
G1 X8.8 Y14.38 E10.1858
G1 X8.62 Y14.37 E10.1917
G1 X8.62 Y8.62 E10.3831
G1 X14.37 Y8.62 E10.5746
G1 X14.38 Y8.8 E10.5805
G1 X14.38 Y14.38 E10.7663
;
; 'Perimeter', 63.1 [RPM], 31.6 [mm/s]
G1 F5400
G1 X14.64 Y14.54 E10.7663
G1 F1896
G1 X14.78 Y14.78 E10.7756
G1 X8.4 Y14.78 E10.988
G1 X8.22 Y14.77 E10.994
G1 X8.22 Y8.22 E11.212
G1 X14.77 Y8.22 E11.43
G1 X14.78 Y8.4 E11.436
G1 X14.78 Y14.78 E11.6484
G1 X14.54 Y14.64 E11.6577
; fan off
M107
;
; 'Solid', 83.8 [RPM], 42.0 [mm/s]
G1 F5400
G1 X13.91 Y8.82 E11.6577
G1 F2520
G1 X14.12 Y9.02 E11.6675
G1 X14.12 Y9.6 E11.6865
G1 X13.4 Y8.88 E11.7203
G1 X12.84 Y8.88 E11.7391
G1 X14.12 Y10.16 E11.7996
G1 X14.12 Y10.73 E11.8184
G1 X12.27 Y8.88 E11.9054
G1 X11.71 Y8.88 E11.9243
G1 X14.12 Y11.29 E12.0379
G1 X14.12 Y11.86 E12.0567
G1 X11.14 Y8.88 E12.197
G1 X10.57 Y8.88 E12.2158
G1 X14.12 Y12.43 E12.3827
G1 X14.12 Y12.99 E12.4015
G1 X10.01 Y8.88 E12.595
G1 X9.44 Y8.88 E12.6138
G1 X14.12 Y13.56 E12.8339
G1 X14.12 Y14.12 E12.8528
G1 X8.88 Y8.88 E13.0995
G1 X8.88 Y9.44 E13.1183
G1 X13.56 Y14.12 E13.3384
G1 X12.99 Y14.12 E13.3572
G1 X8.88 Y10.01 E13.5507
G1 X8.88 Y10.57 E13.5695
G1 X12.43 Y14.12 E13.7364
G1 X11.86 Y14.12 E13.7552
G1 X8.88 Y11.14 E13.8955
G1 X8.88 Y11.71 E13.9143
G1 X11.29 Y14.12 E14.0279
G1 X10.73 Y14.12 E14.0468
G1 X8.88 Y12.27 E14.1338
G1 X8.88 Y12.84 E14.1526
G1 X10.16 Y14.12 E14.2131
G1 X9.6 Y14.12 E14.2319
G1 X8.88 Y13.4 E14.2657
G1 X8.88 Y13.97 E14.2846
G1 X9.04 Y14.13 E14.2923
;
; 'Wipe', 0.0 [RPM], 42.0 [mm/s]
G1 F1800
G1 E4.2923
G1 F2520
G1 X8.88 Y13.97 E4.2923
G1 X8.88 Y13.4 E4.2923
G1 X9.6 Y14.12 E4.2923
G1 X10.16 Y14.12 E4.2923
; fan on
M106
;
; 'Loop', 77.7 [RPM], 39.0 [mm/s]
G1 F5400
G1 X14.37 Y27.38 E4.2923
G1 F1800
G1 E14.2923
G1 F2337.2
G1 X8.62 Y27.38 E14.4837
G1 X8.62 Y21.63 E14.6752
G1 X8.8 Y21.62 E14.6811
G1 X14.38 Y21.62 E14.8669
G1 X14.38 Y27.2 E15.0527
G1 X14.37 Y27.38 E15.0586
;
; 'Perimeter', 63.1 [RPM], 31.6 [mm/s]
G1 F5400
G1 X14.64 Y27.54 E15.0586
G1 F1896
G1 X14.77 Y27.78 E15.0679
G1 X8.22 Y27.78 E15.2859
G1 X8.22 Y21.23 E15.504
G1 X8.4 Y21.22 E15.5099
G1 X14.78 Y21.22 E15.7223
G1 X14.78 Y27.6 E15.9347
G1 X14.77 Y27.78 E15.9407
G1 X14.53 Y27.64 E15.9499
; fan off
M107
;
; 'Solid', 83.8 [RPM], 42.0 [mm/s]
G1 F5400
G1 X14.18 Y22.1 E15.9499
G1 F2520
G1 X13.96 Y21.88 E15.9605
G1 X13.39 Y21.88 E15.9793
G1 X14.12 Y22.61 E16.0136
G1 X14.12 Y23.17 E16.0324
G1 X12.83 Y21.88 E16.0934
G1 X12.26 Y21.88 E16.1122
G1 X14.12 Y23.74 E16.1998
G1 X14.12 Y24.3 E16.2186
G1 X11.7 Y21.88 E16.3327
G1 X11.13 Y21.88 E16.3515
G1 X14.12 Y24.87 E16.4923
G1 X14.12 Y25.44 E16.5111
G1 X10.56 Y21.88 E16.6785
G1 X10 Y21.88 E16.6973
G1 X14.12 Y26 E16.8913
G1 X14.12 Y26.57 E16.9101
G1 X9.43 Y21.88 E17.1307
G1 X8.88 Y21.89 E17.1492
G1 X14.11 Y27.12 E17.3955
G1 X13.55 Y27.12 E17.4143
G1 X8.88 Y22.45 E17.6339
G1 X8.88 Y23.02 E17.6527
G1 X12.98 Y27.12 E17.8457
G1 X12.41 Y27.12 E17.8645
G1 X8.88 Y23.59 E18.0309
G1 X8.88 Y24.15 E18.0498
G1 X11.85 Y27.12 E18.1895
G1 X11.28 Y27.12 E18.2084
G1 X8.88 Y24.72 E18.3215
G1 X8.88 Y25.28 E18.3404
G1 X10.72 Y27.12 E18.4269
G1 X10.15 Y27.12 E18.4457
G1 X8.88 Y25.85 E18.5057
G1 X8.88 Y26.41 E18.5245
G1 X9.59 Y27.12 E18.5579
G1 X9.02 Y27.12 E18.5767
G1 X8.86 Y26.96 E18.5843
;
; 'Wipe', 0.0 [RPM], 42.0 [mm/s]
G1 F1800
G1 E8.5843
G1 F2520
G1 X9.02 Y27.12 E8.5843
G1 X9.59 Y27.12 E8.5843
G1 X8.88 Y26.41 E8.5843
G1 X8.88 Y25.85 E8.5843
; fan on
M106
;
; 'Loop', 77.7 [RPM], 39.0 [mm/s]
G1 F5400
G1 X27.38 Y27.38 E8.5843
G1 F1800
G1 E18.5843
G1 F2337.2
G1 X21.63 Y27.38 E18.7757
G1 X21.62 Y27.2 E18.7816
G1 X21.62 Y21.62 E18.9674
G1 X27.2 Y21.62 E19.1532
G1 X27.38 Y21.63 E19.1591
G1 X27.38 Y27.38 E19.3505
;
; 'Perimeter', 63.1 [RPM], 31.6 [mm/s]
G1 F5400
G1 X27.64 Y27.54 E19.3505
G1 F1896
G1 X27.78 Y27.78 E19.3598
G1 X21.23 Y27.78 E19.5779
G1 X21.22 Y27.6 E19.5838
G1 X21.22 Y21.22 E19.7962
G1 X27.6 Y21.22 E20.0086
G1 X27.78 Y21.23 E20.0146
G1 X27.78 Y27.78 E20.2326
G1 X27.54 Y27.64 E20.2419
; fan off
M107
;
; 'Solid', 83.8 [RPM], 42.0 [mm/s]
G1 F5400
G1 X26.91 Y21.82 E20.2419
G1 F2520
G1 X27.12 Y22.03 E20.2517
G1 X27.12 Y22.6 E20.2705
G1 X26.4 Y21.88 E20.3044
G1 X25.84 Y21.88 E20.3232
G1 X27.12 Y23.16 E20.3837
G1 X27.12 Y23.73 E20.4025
G1 X25.27 Y21.88 E20.4895
G1 X24.71 Y21.88 E20.5084
G1 X27.12 Y24.29 E20.622
G1 X27.12 Y24.86 E20.6408
G1 X24.14 Y21.88 E20.7811
G1 X23.57 Y21.88 E20.7999
G1 X27.12 Y25.43 E20.9668
G1 X27.12 Y25.99 E20.9856
G1 X23.01 Y21.88 E21.1791
G1 X22.44 Y21.88 E21.198
G1 X27.12 Y26.56 E21.4181
G1 X27.12 Y27.12 E21.4369
G1 X21.88 Y21.88 E21.6836
G1 X21.88 Y22.44 E21.7024
G1 X26.56 Y27.12 E21.9225
G1 X25.99 Y27.12 E21.9413
G1 X21.88 Y23.01 E22.1348
G1 X21.88 Y23.57 E22.1536
G1 X25.43 Y27.12 E22.3205
G1 X24.86 Y27.12 E22.3393
G1 X21.88 Y24.14 E22.4796
G1 X21.88 Y24.71 E22.4984
G1 X24.29 Y27.12 E22.612
G1 X23.73 Y27.12 E22.6309
G1 X21.88 Y25.27 E22.7179
G1 X21.88 Y25.84 E22.7367
G1 X23.16 Y27.12 E22.7972
G1 X22.6 Y27.12 E22.816
G1 X21.88 Y26.4 E22.8498
G1 X21.88 Y26.98 E22.8688
G1 X22.05 Y27.14 E22.8766
;
; 'Wipe', 0.0 [RPM], 42.0 [mm/s]
G1 F1800
G1 E12.8766
G1 F2520
G1 X21.88 Y26.98 E12.8766
G1 X21.88 Y26.4 E12.8766
G1 X22.6 Y27.12 E12.8766
G1 X23.16 Y27.12 E12.8766
; fan on
M106
;
; 'Loop', 77.7 [RPM], 39.0 [mm/s]
G1 F5400
G1 X27.38 Y14.37 E12.8766
G1 F1800
G1 E22.8766
G1 F2337.2
G1 X27.2 Y14.38 E22.8825
G1 X21.62 Y14.38 E23.0683
G1 X21.62 Y8.8 E23.2541
G1 X21.63 Y8.62 E23.2601
G1 X27.38 Y8.62 E23.4515
G1 X27.38 Y14.37 E23.6429
;
; 'Perimeter', 63.1 [RPM], 31.6 [mm/s]
G1 F5400
G1 X27.64 Y14.53 E23.6429
G1 F1896
G1 X27.78 Y14.77 E23.6521
G1 X27.6 Y14.78 E23.6581
G1 X21.22 Y14.78 E23.8705
G1 X21.22 Y8.4 E24.0829
G1 X21.23 Y8.22 E24.0888
G1 X27.78 Y8.22 E24.3069
G1 X27.78 Y14.77 E24.5249
G1 X27.54 Y14.64 E24.5342
; fan off
M107
;
; 'Solid', 83.8 [RPM], 42.0 [mm/s]
G1 F5400
G1 X27.18 Y9.08 E24.5342
G1 F2520
G1 X26.98 Y8.88 E24.5438
G1 X26.41 Y8.88 E24.5626
G1 X27.12 Y9.59 E24.5959
G1 X27.12 Y10.15 E24.6147
G1 X25.85 Y8.88 E24.6747
G1 X25.28 Y8.88 E24.6935
G1 X27.12 Y10.72 E24.7801
G1 X27.12 Y11.28 E24.7989
G1 X24.72 Y8.88 E24.9121
G1 X24.15 Y8.88 E24.9309
G1 X27.12 Y11.85 E25.0707
G1 X27.12 Y12.41 E25.0895
G1 X23.59 Y8.88 E25.2559
G1 X23.02 Y8.88 E25.2747
G1 X27.12 Y12.98 E25.4678
G1 X27.12 Y13.55 E25.4866
G1 X22.45 Y8.88 E25.7062
G1 X21.89 Y8.88 E25.725
G1 X27.12 Y14.11 E25.9713
G1 X26.57 Y14.12 E25.9898
G1 X21.88 Y9.43 E26.2104
G1 X21.88 Y10 E26.2292
G1 X26 Y14.12 E26.4232
G1 X25.44 Y14.12 E26.442
G1 X21.88 Y10.56 E26.6094
G1 X21.88 Y11.13 E26.6282
G1 X24.87 Y14.12 E26.7689
G1 X24.3 Y14.12 E26.7877
G1 X21.88 Y11.7 E26.9019
G1 X21.88 Y12.26 E26.9207
G1 X23.74 Y14.12 E27.0083
G1 X23.17 Y14.12 E27.0271
G1 X21.88 Y12.83 E27.088
G1 X21.88 Y13.39 E27.1068
G1 X22.61 Y14.12 E27.1411
G1 X22.04 Y14.12 E27.16
G1 X21.86 Y13.94 E27.1685
;
; 'Wipe', 0.0 [RPM], 42.0 [mm/s]
G1 F1800
G1 E17.1685
G1 F2520
G1 X22.04 Y14.12 E17.1685
G1 X22.61 Y14.12 E17.1685
G1 X21.88 Y13.39 E17.1685
G1 X21.88 Y12.83 E17.1685
G1 F210
G1 X21.88 Y12.83 Z0.85 E17.1685
; END_LAYER_OBJECT z=0.40
; Reset extruder pos
G92 E0
; BEGIN_LAYER_OBJECT z=0.60
; fan on
M106
;
; 'Loop', 77.7 [RPM], 39.0 [mm/s]
G1 F5400
G1 X14.38 Y14.38 E0
G1 F210
G1 X14.38 Y14.38 Z0.6 E0
G1 F1800
G1 E10
G1 F2337.2
G1 X8.8 Y14.38 E10.1858
G1 X8.62 Y14.37 E10.1917
G1 X8.62 Y8.62 E10.3831
G1 X14.37 Y8.62 E10.5746
G1 X14.38 Y8.8 E10.5805
G1 X14.38 Y14.38 E10.7663
;
; 'Perimeter', 63.1 [RPM], 31.6 [mm/s]
G1 F5400
G1 X14.64 Y14.54 E10.7663
G1 F1896
G1 X14.78 Y14.78 E10.7756
G1 X8.4 Y14.78 E10.988
G1 X8.22 Y14.77 E10.994
G1 X8.22 Y8.22 E11.212
G1 X14.77 Y8.22 E11.43
G1 X14.78 Y8.4 E11.436
G1 X14.78 Y14.78 E11.6484
G1 X14.54 Y14.64 E11.6577
; fan off
M107
;
; 'Solid', 83.8 [RPM], 42.0 [mm/s]
G1 F5400
G1 X14.18 Y13.9 E11.6577
G1 F2520
G1 X13.96 Y14.12 E11.6682
G1 X13.39 Y14.12 E11.6871
G1 X14.12 Y13.39 E11.7214
G1 X14.12 Y12.83 E11.7402
G1 X12.83 Y14.12 E11.8011
G1 X12.26 Y14.12 E11.82
G1 X14.12 Y12.26 E11.9075
G1 X14.12 Y11.7 E11.9263
G1 X11.7 Y14.12 E12.0405
G1 X11.13 Y14.12 E12.0593
G1 X14.12 Y11.13 E12.2
G1 X14.12 Y10.56 E12.2188
G1 X10.56 Y14.12 E12.3862
G1 X10 Y14.12 E12.405
G1 X14.12 Y10 E12.599
G1 X14.12 Y9.43 E12.6178
G1 X9.43 Y14.12 E12.8385
G1 X8.88 Y14.11 E12.8569
G1 X14.11 Y8.88 E13.1032
G1 X13.55 Y8.88 E13.122
G1 X8.88 Y13.55 E13.3416
G1 X8.88 Y12.98 E13.3605
G1 X12.98 Y8.88 E13.5535
G1 X12.41 Y8.88 E13.5723
G1 X8.88 Y12.41 E13.7387
G1 X8.88 Y11.85 E13.7575
G1 X11.85 Y8.88 E13.8973
G1 X11.28 Y8.88 E13.9161
G1 X8.88 Y11.28 E14.0293
G1 X8.88 Y10.72 E14.0481
G1 X10.72 Y8.88 E14.1347
G1 X10.15 Y8.88 E14.1535
G1 X8.88 Y10.15 E14.2135
G1 X8.88 Y9.59 E14.2323
G1 X9.59 Y8.88 E14.2656
G1 X9.02 Y8.88 E14.2845
G1 X8.86 Y9.04 E14.292
;
; 'Wipe', 0.0 [RPM], 42.0 [mm/s]
G1 F1800
G1 E4.292
G1 F2520
G1 X9.02 Y8.88 E4.292
G1 X9.59 Y8.88 E4.292
G1 X8.88 Y9.59 E4.292
G1 X8.88 Y10.15 E4.292
; fan on
M106
;
; 'Loop', 77.7 [RPM], 39.0 [mm/s]
G1 F5400
G1 X27.38 Y14.37 E4.292
G1 F1800
G1 E14.292
G1 F2337.2
G1 X27.2 Y14.38 E14.298
G1 X21.62 Y14.38 E14.4838
G1 X21.62 Y8.8 E14.6695
G1 X21.63 Y8.62 E14.6755
G1 X27.38 Y8.62 E14.8669
G1 X27.38 Y14.37 E15.0583
;
; 'Perimeter', 63.1 [RPM], 31.6 [mm/s]
G1 F5400
G1 X27.64 Y14.53 E15.0583
G1 F1896
G1 X27.78 Y14.77 E15.0676
G1 X27.6 Y14.78 E15.0735
G1 X21.22 Y14.78 E15.2859
G1 X21.22 Y8.4 E15.4983
G1 X21.23 Y8.22 E15.5043
G1 X27.78 Y8.22 E15.7223
G1 X27.78 Y14.77 E15.9404
G1 X27.54 Y14.64 E15.9496
; fan off
M107
;
; 'Solid', 83.8 [RPM], 42.0 [mm/s]
G1 F5400
G1 X26.91 Y14.18 E15.9496
G1 F2520
G1 X27.12 Y13.97 E15.9594
G1 X27.12 Y13.4 E15.9782
G1 X26.4 Y14.12 E16.0121
G1 X25.84 Y14.12 E16.0309
G1 X27.12 Y12.84 E16.0913
G1 X27.12 Y12.27 E16.1102
G1 X25.27 Y14.12 E16.1972
G1 X24.71 Y14.12 E16.216
G1 X27.12 Y11.71 E16.3297
G1 X27.12 Y11.14 E16.3485
G1 X24.14 Y14.12 E16.4888
G1 X23.57 Y14.12 E16.5076
G1 X27.12 Y10.57 E16.6745
G1 X27.12 Y10.01 E16.6933
G1 X23.01 Y14.12 E16.8868
G1 X22.44 Y14.12 E16.9056
G1 X27.12 Y9.44 E17.1257
G1 X27.12 Y8.88 E17.1445
G1 X21.88 Y14.12 E17.3912
G1 X21.88 Y13.56 E17.41
G1 X26.56 Y8.88 E17.6301
G1 X25.99 Y8.88 E17.6489
G1 X21.88 Y12.99 E17.8424
G1 X21.88 Y12.43 E17.8613
G1 X25.43 Y8.88 E18.0281
G1 X24.86 Y8.88 E18.047
G1 X21.88 Y11.86 E18.1872
G1 X21.88 Y11.29 E18.206
G1 X24.29 Y8.88 E18.3197
G1 X23.73 Y8.88 E18.3385
G1 X21.88 Y10.73 E18.4256
G1 X21.88 Y10.16 E18.4444
G1 X23.16 Y8.88 E18.5049
G1 X22.6 Y8.88 E18.5237
G1 X21.88 Y9.6 E18.5575
G1 X21.88 Y9.02 E18.5765
G1 X22.05 Y8.86 E18.5843
;
; 'Wipe', 0.0 [RPM], 42.0 [mm/s]
G1 F1800
G1 E8.5843
G1 F2520
G1 X21.88 Y9.02 E8.5843
G1 X21.88 Y9.6 E8.5843
G1 X22.6 Y8.88 E8.5843
G1 X23.16 Y8.88 E8.5843
; fan on
M106
;
; 'Loop', 77.7 [RPM], 39.0 [mm/s]
G1 F5400
G1 X27.38 Y27.38 E8.5843
G1 F1800
G1 E18.5843
G1 F2337.2
G1 X21.63 Y27.38 E18.7757
G1 X21.62 Y27.2 E18.7816
G1 X21.62 Y21.62 E18.9674
G1 X27.2 Y21.62 E19.1532
G1 X27.38 Y21.63 E19.1592
G1 X27.38 Y27.38 E19.3506
;
; 'Perimeter', 63.1 [RPM], 31.6 [mm/s]
G1 F5400
G1 X27.64 Y27.54 E19.3506
G1 F1896
G1 X27.78 Y27.78 E19.3599
G1 X21.23 Y27.78 E19.5779
G1 X21.22 Y27.6 E19.5839
G1 X21.22 Y21.22 E19.7963
G1 X27.6 Y21.22 E20.0087
G1 X27.78 Y21.23 E20.0146
G1 X27.78 Y27.78 E20.2327
G1 X27.54 Y27.64 E20.242
; fan off
M107
;
; 'Solid', 83.8 [RPM], 42.0 [mm/s]
G1 F5400
G1 X27.18 Y26.92 E20.242
G1 F2520
G1 X26.98 Y27.12 E20.2515
G1 X26.41 Y27.12 E20.2703
G1 X27.12 Y26.41 E20.3037
G1 X27.12 Y25.85 E20.3225
G1 X25.85 Y27.12 E20.3825
G1 X25.28 Y27.12 E20.4013
G1 X27.12 Y25.28 E20.4879
G1 X27.12 Y24.72 E20.5067
G1 X24.72 Y27.12 E20.6199
G1 X24.15 Y27.12 E20.6387
G1 X27.12 Y24.15 E20.7785
G1 X27.12 Y23.59 E20.7973
G1 X23.59 Y27.12 E20.9637
G1 X23.02 Y27.12 E20.9825
G1 X27.12 Y23.02 E21.1755
G1 X27.12 Y22.45 E21.1943
G1 X22.45 Y27.12 E21.4139
G1 X21.89 Y27.12 E21.4327
G1 X27.12 Y21.89 E21.679
G1 X26.57 Y21.88 E21.6975
G1 X21.88 Y26.57 E21.9181
G1 X21.88 Y26 E21.9369
G1 X26 Y21.88 E22.1309
G1 X25.44 Y21.88 E22.1497
G1 X21.88 Y25.44 E22.3171
G1 X21.88 Y24.87 E22.3359
G1 X24.87 Y21.88 E22.4767
G1 X24.3 Y21.88 E22.4955
G1 X21.88 Y24.3 E22.6096
G1 X21.88 Y23.74 E22.6285
G1 X23.74 Y21.88 E22.716
G1 X23.17 Y21.88 E22.7348
G1 X21.88 Y23.17 E22.7958
G1 X21.88 Y22.61 E22.8146
G1 X22.61 Y21.88 E22.8489
G1 X22.04 Y21.88 E22.8677
G1 X21.86 Y22.06 E22.8763
;
; 'Wipe', 0.0 [RPM], 42.0 [mm/s]
G1 F1800
G1 E12.8763
G1 F2520
G1 X22.04 Y21.88 E12.8763
G1 X22.61 Y21.88 E12.8763
G1 X21.88 Y22.61 E12.8763
G1 X21.88 Y23.17 E12.8763
; fan on
M106
;
; 'Loop', 77.7 [RPM], 39.0 [mm/s]
G1 F5400
G1 X14.37 Y27.38 E12.8763
G1 F1800
G1 E22.8763
G1 F2337.2
G1 X8.62 Y27.38 E23.0677
G1 X8.62 Y21.63 E23.2591
G1 X8.8 Y21.62 E23.265
G1 X14.38 Y21.62 E23.4508
G1 X14.38 Y27.2 E23.6366
G1 X14.37 Y27.38 E23.6426
;
; 'Perimeter', 63.1 [RPM], 31.6 [mm/s]
G1 F5400
G1 X14.64 Y27.54 E23.6426
G1 F1896
G1 X14.77 Y27.78 E23.6518
G1 X8.22 Y27.78 E23.8699
G1 X8.22 Y21.23 E24.0879
G1 X8.4 Y21.22 E24.0939
G1 X14.78 Y21.22 E24.3063
G1 X14.78 Y27.6 E24.5187
G1 X14.77 Y27.78 E24.5246
G1 X14.53 Y27.64 E24.5339
; fan off
M107
;
; 'Solid', 83.8 [RPM], 42.0 [mm/s]
G1 F5400
G1 X13.91 Y27.18 E24.5339
G1 F2520
G1 X14.12 Y26.98 E24.5436
G1 X14.12 Y26.4 E24.5626
G1 X13.4 Y27.12 E24.5964
G1 X12.84 Y27.12 E24.6153
G1 X14.12 Y25.84 E24.6757
G1 X14.12 Y25.27 E24.6945
G1 X12.27 Y27.12 E24.7816
G1 X11.71 Y27.12 E24.8004
G1 X14.12 Y24.71 E24.9141
G1 X14.12 Y24.14 E24.9329
G1 X11.14 Y27.12 E25.0731
G1 X10.57 Y27.12 E25.092
G1 X14.12 Y23.57 E25.2588
G1 X14.12 Y23.01 E25.2777
G1 X10.01 Y27.12 E25.4711
G1 X9.44 Y27.12 E25.49
G1 X14.12 Y22.44 E25.7101
G1 X14.12 Y21.88 E25.7289
G1 X8.88 Y27.12 E25.9756
G1 X8.88 Y26.56 E25.9944
G1 X13.56 Y21.88 E26.2145
G1 X12.99 Y21.88 E26.2333
G1 X8.88 Y25.99 E26.4268
G1 X8.88 Y25.43 E26.4456
G1 X12.43 Y21.88 E26.6125
G1 X11.86 Y21.88 E26.6313
G1 X8.88 Y24.86 E26.7716
G1 X8.88 Y24.29 E26.7904
G1 X11.29 Y21.88 E26.9041
G1 X10.73 Y21.88 E26.9229
G1 X8.88 Y23.73 E27.01
G1 X8.88 Y23.16 E27.0288
G1 X10.16 Y21.88 E27.0892
G1 X9.6 Y21.88 E27.108
G1 X8.88 Y22.6 E27.1419
G1 X8.88 Y22.03 E27.1607
G1 X9.04 Y21.87 E27.1685
;
; 'Wipe', 0.0 [RPM], 42.0 [mm/s]
G1 F1800
G1 E17.1685
G1 F2520
G1 X8.88 Y22.03 E17.1685
G1 X8.88 Y22.6 E17.1685
G1 X9.6 Y21.88 E17.1685
G1 X10.16 Y21.88 E17.1685
G1 F210
G1 X10.16 Y21.88 Z1.05 E17.1685
; END_LAYER_OBJECT z=0.60
; Reset extruder pos
G92 E0
; BEGIN_LAYER_OBJECT z=0.80
; fan on
M106
;
; 'Loop', 77.7 [RPM], 39.0 [mm/s]
G1 F5400
G1 X14.38 Y14.38 E0
G1 F210
G1 X14.38 Y14.38 Z0.8 E0
G1 F1800
G1 E10
G1 F2337.2
G1 X8.8 Y14.38 E10.1858
G1 X8.62 Y14.37 E10.1917
G1 X8.62 Y8.62 E10.3831
G1 X14.37 Y8.62 E10.5746
G1 X14.38 Y8.8 E10.5805
G1 X14.38 Y14.38 E10.7663
;
; 'Perimeter', 63.1 [RPM], 31.6 [mm/s]
G1 F5400
G1 X14.64 Y14.54 E10.7663
G1 F1896
G1 X14.78 Y14.78 E10.7756
G1 X8.4 Y14.78 E10.988
G1 X8.22 Y14.77 E10.994
G1 X8.22 Y8.22 E11.212
G1 X14.77 Y8.22 E11.43
G1 X14.78 Y8.4 E11.436
G1 X14.78 Y14.78 E11.6484
G1 X14.54 Y14.64 E11.6577
; fan off
M107
;
; 'Solid', 83.8 [RPM], 42.0 [mm/s]
G1 F5400
G1 X13.91 Y8.82 E11.6577
G1 F2520
G1 X14.12 Y9.02 E11.6675
G1 X14.12 Y9.6 E11.6865
G1 X13.4 Y8.88 E11.7203
G1 X12.84 Y8.88 E11.7391
G1 X14.12 Y10.16 E11.7996
G1 X14.12 Y10.73 E11.8184
G1 X12.27 Y8.88 E11.9054
G1 X11.71 Y8.88 E11.9243
G1 X14.12 Y11.29 E12.0379
G1 X14.12 Y11.86 E12.0567
G1 X11.14 Y8.88 E12.197
G1 X10.57 Y8.88 E12.2158
G1 X14.12 Y12.43 E12.3827
G1 X14.12 Y12.99 E12.4015
G1 X10.01 Y8.88 E12.595
G1 X9.44 Y8.88 E12.6138
G1 X14.12 Y13.56 E12.8339
G1 X14.12 Y14.12 E12.8528
G1 X8.88 Y8.88 E13.0995
G1 X8.88 Y9.44 E13.1183
G1 X13.56 Y14.12 E13.3384
G1 X12.99 Y14.12 E13.3572
G1 X8.88 Y10.01 E13.5507
G1 X8.88 Y10.57 E13.5695
G1 X12.43 Y14.12 E13.7364
G1 X11.86 Y14.12 E13.7552
G1 X8.88 Y11.14 E13.8955
G1 X8.88 Y11.71 E13.9143
G1 X11.29 Y14.12 E14.0279
G1 X10.73 Y14.12 E14.0468
G1 X8.88 Y12.27 E14.1338
G1 X8.88 Y12.84 E14.1526
G1 X10.16 Y14.12 E14.2131
G1 X9.6 Y14.12 E14.2319
G1 X8.88 Y13.4 E14.2657
G1 X8.88 Y13.97 E14.2846
G1 X9.04 Y14.13 E14.2923
;
; 'Wipe', 0.0 [RPM], 42.0 [mm/s]
G1 F1800
G1 E4.2923
G1 F2520
G1 X8.88 Y13.97 E4.2923
G1 X8.88 Y13.4 E4.2923
G1 X9.6 Y14.12 E4.2923
G1 X10.16 Y14.12 E4.2923
; fan on
M106
;
; 'Loop', 77.7 [RPM], 39.0 [mm/s]
G1 F5400
G1 X14.37 Y27.38 E4.2923
G1 F1800
G1 E14.2923
G1 F2337.2
G1 X8.62 Y27.38 E14.4837
G1 X8.62 Y21.63 E14.6752
G1 X8.8 Y21.62 E14.6811
G1 X14.38 Y21.62 E14.8669
G1 X14.38 Y27.2 E15.0527
G1 X14.37 Y27.38 E15.0586
;
; 'Perimeter', 63.1 [RPM], 31.6 [mm/s]
G1 F5400
G1 X14.64 Y27.54 E15.0586
G1 F1896
G1 X14.77 Y27.78 E15.0679
G1 X8.22 Y27.78 E15.2859
G1 X8.22 Y21.23 E15.504
G1 X8.4 Y21.22 E15.5099
G1 X14.78 Y21.22 E15.7223
G1 X14.78 Y27.6 E15.9347
G1 X14.77 Y27.78 E15.9407
G1 X14.53 Y27.64 E15.9499
; fan off
M107
;
; 'Solid', 83.8 [RPM], 42.0 [mm/s]
G1 F5400
G1 X14.18 Y22.1 E15.9499
G1 F2520
G1 X13.96 Y21.88 E15.9605
G1 X13.39 Y21.88 E15.9793
G1 X14.12 Y22.61 E16.0136
G1 X14.12 Y23.17 E16.0324
G1 X12.83 Y21.88 E16.0934
G1 X12.26 Y21.88 E16.1122
G1 X14.12 Y23.74 E16.1998
G1 X14.12 Y24.3 E16.2186
G1 X11.7 Y21.88 E16.3327
G1 X11.13 Y21.88 E16.3515
G1 X14.12 Y24.87 E16.4923
G1 X14.12 Y25.44 E16.5111
G1 X10.56 Y21.88 E16.6785
G1 X10 Y21.88 E16.6973
G1 X14.12 Y26 E16.8913
G1 X14.12 Y26.57 E16.9101
G1 X9.43 Y21.88 E17.1307
G1 X8.88 Y21.89 E17.1492
G1 X14.11 Y27.12 E17.3955
G1 X13.55 Y27.12 E17.4143
G1 X8.88 Y22.45 E17.6339
G1 X8.88 Y23.02 E17.6527
G1 X12.98 Y27.12 E17.8457
G1 X12.41 Y27.12 E17.8645
G1 X8.88 Y23.59 E18.0309
G1 X8.88 Y24.15 E18.0498
G1 X11.85 Y27.12 E18.1895
G1 X11.28 Y27.12 E18.2084
G1 X8.88 Y24.72 E18.3215
G1 X8.88 Y25.28 E18.3404
G1 X10.72 Y27.12 E18.4269
G1 X10.15 Y27.12 E18.4457
G1 X8.88 Y25.85 E18.5057
G1 X8.88 Y26.41 E18.5245
G1 X9.59 Y27.12 E18.5579
G1 X9.02 Y27.12 E18.5767
G1 X8.86 Y26.96 E18.5843
;
; 'Wipe', 0.0 [RPM], 42.0 [mm/s]
G1 F1800
G1 E8.5843
G1 F2520
G1 X9.02 Y27.12 E8.5843
G1 X9.59 Y27.12 E8.5843
G1 X8.88 Y26.41 E8.5843
G1 X8.88 Y25.85 E8.5843
; fan on
M106
;
; 'Loop', 77.7 [RPM], 39.0 [mm/s]
G1 F5400
G1 X27.38 Y27.38 E8.5843
G1 F1800
G1 E18.5843
G1 F2337.2
G1 X21.63 Y27.38 E18.7757
G1 X21.62 Y27.2 E18.7816
G1 X21.62 Y21.62 E18.9674
G1 X27.2 Y21.62 E19.1532
G1 X27.38 Y21.63 E19.1591
G1 X27.38 Y27.38 E19.3505
;
; 'Perimeter', 63.1 [RPM], 31.6 [mm/s]
G1 F5400
G1 X27.64 Y27.54 E19.3505
G1 F1896
G1 X27.78 Y27.78 E19.3598
G1 X21.23 Y27.78 E19.5779
G1 X21.22 Y27.6 E19.5838
G1 X21.22 Y21.22 E19.7962
G1 X27.6 Y21.22 E20.0086
G1 X27.78 Y21.23 E20.0146
G1 X27.78 Y27.78 E20.2326
G1 X27.54 Y27.64 E20.2419
; fan off
M107
;
; 'Solid', 83.8 [RPM], 42.0 [mm/s]
G1 F5400
G1 X26.91 Y21.82 E20.2419
G1 F2520
G1 X27.12 Y22.03 E20.2517
G1 X27.12 Y22.6 E20.2705
G1 X26.4 Y21.88 E20.3044
G1 X25.84 Y21.88 E20.3232
G1 X27.12 Y23.16 E20.3837
G1 X27.12 Y23.73 E20.4025
G1 X25.27 Y21.88 E20.4895
G1 X24.71 Y21.88 E20.5084
G1 X27.12 Y24.29 E20.622
G1 X27.12 Y24.86 E20.6408
G1 X24.14 Y21.88 E20.7811
G1 X23.57 Y21.88 E20.7999
G1 X27.12 Y25.43 E20.9668
G1 X27.12 Y25.99 E20.9856
G1 X23.01 Y21.88 E21.1791
G1 X22.44 Y21.88 E21.198
G1 X27.12 Y26.56 E21.4181
G1 X27.12 Y27.12 E21.4369
G1 X21.88 Y21.88 E21.6836
G1 X21.88 Y22.44 E21.7024
G1 X26.56 Y27.12 E21.9225
G1 X25.99 Y27.12 E21.9413
G1 X21.88 Y23.01 E22.1348
G1 X21.88 Y23.57 E22.1536
G1 X25.43 Y27.12 E22.3205
G1 X24.86 Y27.12 E22.3393
G1 X21.88 Y24.14 E22.4796
G1 X21.88 Y24.71 E22.4984
G1 X24.29 Y27.12 E22.612
G1 X23.73 Y27.12 E22.6309
G1 X21.88 Y25.27 E22.7179
G1 X21.88 Y25.84 E22.7367
G1 X23.16 Y27.12 E22.7972
G1 X22.6 Y27.12 E22.816
G1 X21.88 Y26.4 E22.8498
G1 X21.88 Y26.98 E22.8688
G1 X22.05 Y27.14 E22.8766
;
; 'Wipe', 0.0 [RPM], 42.0 [mm/s]
G1 F1800
G1 E12.8766
G1 F2520
G1 X21.88 Y26.98 E12.8766
G1 X21.88 Y26.4 E12.8766
G1 X22.6 Y27.12 E12.8766
G1 X23.16 Y27.12 E12.8766
; fan on
M106
;
; 'Loop', 77.7 [RPM], 39.0 [mm/s]
G1 F5400
G1 X27.38 Y14.37 E12.8766
G1 F1800
G1 E22.8766
G1 F2337.2
G1 X27.2 Y14.38 E22.8825
G1 X21.62 Y14.38 E23.0683
G1 X21.62 Y8.8 E23.2541
G1 X21.63 Y8.62 E23.2601
G1 X27.38 Y8.62 E23.4515
G1 X27.38 Y14.37 E23.6429
;
; 'Perimeter', 63.1 [RPM], 31.6 [mm/s]
G1 F5400
G1 X27.64 Y14.53 E23.6429
G1 F1896
G1 X27.78 Y14.77 E23.6521
G1 X27.6 Y14.78 E23.6581
G1 X21.22 Y14.78 E23.8705
G1 X21.22 Y8.4 E24.0829
G1 X21.23 Y8.22 E24.0888
G1 X27.78 Y8.22 E24.3069
G1 X27.78 Y14.77 E24.5249
G1 X27.54 Y14.64 E24.5342
; fan off
M107
;
; 'Solid', 83.8 [RPM], 42.0 [mm/s]
G1 F5400
G1 X27.18 Y9.08 E24.5342
G1 F2520
G1 X26.98 Y8.88 E24.5438
G1 X26.41 Y8.88 E24.5626
G1 X27.12 Y9.59 E24.5959
G1 X27.12 Y10.15 E24.6147
G1 X25.85 Y8.88 E24.6747
G1 X25.28 Y8.88 E24.6935
G1 X27.12 Y10.72 E24.7801
G1 X27.12 Y11.28 E24.7989
G1 X24.72 Y8.88 E24.9121
G1 X24.15 Y8.88 E24.9309
G1 X27.12 Y11.85 E25.0707
G1 X27.12 Y12.41 E25.0895
G1 X23.59 Y8.88 E25.2559
G1 X23.02 Y8.88 E25.2747
G1 X27.12 Y12.98 E25.4678
G1 X27.12 Y13.55 E25.4866
G1 X22.45 Y8.88 E25.7062
G1 X21.89 Y8.88 E25.725
G1 X27.12 Y14.11 E25.9713
G1 X26.57 Y14.12 E25.9898
G1 X21.88 Y9.43 E26.2104
G1 X21.88 Y10 E26.2292
G1 X26 Y14.12 E26.4232
G1 X25.44 Y14.12 E26.442
G1 X21.88 Y10.56 E26.6094
G1 X21.88 Y11.13 E26.6282
G1 X24.87 Y14.12 E26.7689
G1 X24.3 Y14.12 E26.7877
G1 X21.88 Y11.7 E26.9019
G1 X21.88 Y12.26 E26.9207
G1 X23.74 Y14.12 E27.0083
G1 X23.17 Y14.12 E27.0271
G1 X21.88 Y12.83 E27.088
G1 X21.88 Y13.39 E27.1068
G1 X22.61 Y14.12 E27.1411
G1 X22.04 Y14.12 E27.16
G1 X21.86 Y13.94 E27.1685
;
; 'Wipe', 0.0 [RPM], 42.0 [mm/s]
G1 F1800
G1 E17.1685
G1 F2520
G1 X22.04 Y14.12 E17.1685
G1 X22.61 Y14.12 E17.1685
G1 X21.88 Y13.39 E17.1685
G1 X21.88 Y12.83 E17.1685
G1 F210
G1 X21.88 Y12.83 Z1.25 E17.1685
; END_LAYER_OBJECT z=0.80
; Reset extruder pos
G92 E0
; BEGIN_LAYER_OBJECT z=1.00
; fan on
M106
;
; 'Loop', 77.7 [RPM], 39.0 [mm/s]
G1 F5400
G1 X14.38 Y14.38 E0
G1 F210
G1 X14.38 Y14.38 Z1 E0
G1 F1800
G1 E10
G1 F2337.2
G1 X8.8 Y14.38 E10.1858
G1 X8.62 Y14.37 E10.1917
G1 X8.62 Y8.62 E10.3831
G1 X14.37 Y8.62 E10.5746
G1 X14.38 Y8.8 E10.5805
G1 X14.38 Y14.38 E10.7663
;
; 'Perimeter', 63.1 [RPM], 31.6 [mm/s]
G1 F5400
G1 X14.64 Y14.54 E10.7663
G1 F1896
G1 X14.78 Y14.78 E10.7756
G1 X8.4 Y14.78 E10.988
G1 X8.22 Y14.77 E10.994
G1 X8.22 Y8.22 E11.212
G1 X14.77 Y8.22 E11.43
G1 X14.78 Y8.4 E11.436
G1 X14.78 Y14.78 E11.6484
G1 X14.54 Y14.64 E11.6577
; fan off
M107
;
; 'Solid', 83.8 [RPM], 42.0 [mm/s]
G1 F5400
G1 X14.18 Y13.9 E11.6577
G1 F2520
G1 X13.96 Y14.12 E11.6682
G1 X13.39 Y14.12 E11.6871
G1 X14.12 Y13.39 E11.7214
G1 X14.12 Y12.83 E11.7402
G1 X12.83 Y14.12 E11.8011
G1 X12.26 Y14.12 E11.82
G1 X14.12 Y12.26 E11.9075
G1 X14.12 Y11.7 E11.9263
G1 X11.7 Y14.12 E12.0405
G1 X11.13 Y14.12 E12.0593
G1 X14.12 Y11.13 E12.2
G1 X14.12 Y10.56 E12.2188
G1 X10.56 Y14.12 E12.3862
G1 X10 Y14.12 E12.405
G1 X14.12 Y10 E12.599
G1 X14.12 Y9.43 E12.6178
G1 X9.43 Y14.12 E12.8385
G1 X8.88 Y14.11 E12.8569
G1 X14.11 Y8.88 E13.1032
G1 X13.55 Y8.88 E13.122
G1 X8.88 Y13.55 E13.3416
G1 X8.88 Y12.98 E13.3605
G1 X12.98 Y8.88 E13.5535
G1 X12.41 Y8.88 E13.5723
G1 X8.88 Y12.41 E13.7387
G1 X8.88 Y11.85 E13.7575
G1 X11.85 Y8.88 E13.8973
G1 X11.28 Y8.88 E13.9161
G1 X8.88 Y11.28 E14.0293
G1 X8.88 Y10.72 E14.0481
G1 X10.72 Y8.88 E14.1347
G1 X10.15 Y8.88 E14.1535
G1 X8.88 Y10.15 E14.2135
G1 X8.88 Y9.59 E14.2323
G1 X9.59 Y8.88 E14.2656
G1 X9.02 Y8.88 E14.2845
G1 X8.86 Y9.04 E14.292
;
; 'Wipe', 0.0 [RPM], 42.0 [mm/s]
G1 F1800
G1 E4.292
G1 F2520
G1 X9.02 Y8.88 E4.292
G1 X9.59 Y8.88 E4.292
G1 X8.88 Y9.59 E4.292
G1 X8.88 Y10.15 E4.292
; fan on
M106
;
; 'Loop', 77.7 [RPM], 39.0 [mm/s]
G1 F5400
G1 X27.38 Y14.37 E4.292
G1 F1800
G1 E14.292
G1 F2337.2
G1 X27.2 Y14.38 E14.298
G1 X21.62 Y14.38 E14.4838
G1 X21.62 Y8.8 E14.6695
G1 X21.63 Y8.62 E14.6755
G1 X27.38 Y8.62 E14.8669
G1 X27.38 Y14.37 E15.0583
;
; 'Perimeter', 63.1 [RPM], 31.6 [mm/s]
G1 F5400
G1 X27.64 Y14.53 E15.0583
G1 F1896
G1 X27.78 Y14.77 E15.0676
G1 X27.6 Y14.78 E15.0735
G1 X21.22 Y14.78 E15.2859
G1 X21.22 Y8.4 E15.4983
G1 X21.23 Y8.22 E15.5043
G1 X27.78 Y8.22 E15.7223
G1 X27.78 Y14.77 E15.9404
G1 X27.54 Y14.64 E15.9496
; fan off
M107
;
; 'Solid', 83.8 [RPM], 42.0 [mm/s]
G1 F5400
G1 X26.91 Y14.18 E15.9496
G1 F2520
G1 X27.12 Y13.97 E15.9594
G1 X27.12 Y13.4 E15.9782
G1 X26.4 Y14.12 E16.0121
G1 X25.84 Y14.12 E16.0309
G1 X27.12 Y12.84 E16.0913
G1 X27.12 Y12.27 E16.1102
G1 X25.27 Y14.12 E16.1972
G1 X24.71 Y14.12 E16.216
G1 X27.12 Y11.71 E16.3297
G1 X27.12 Y11.14 E16.3485
G1 X24.14 Y14.12 E16.4888
G1 X23.57 Y14.12 E16.5076
G1 X27.12 Y10.57 E16.6745
G1 X27.12 Y10.01 E16.6933
G1 X23.01 Y14.12 E16.8868
G1 X22.44 Y14.12 E16.9056
G1 X27.12 Y9.44 E17.1257
G1 X27.12 Y8.88 E17.1445
G1 X21.88 Y14.12 E17.3912
G1 X21.88 Y13.56 E17.41
G1 X26.56 Y8.88 E17.6301
G1 X25.99 Y8.88 E17.6489
G1 X21.88 Y12.99 E17.8424
G1 X21.88 Y12.43 E17.8613
G1 X25.43 Y8.88 E18.0281
G1 X24.86 Y8.88 E18.047
G1 X21.88 Y11.86 E18.1872
G1 X21.88 Y11.29 E18.206
G1 X24.29 Y8.88 E18.3197
G1 X23.73 Y8.88 E18.3385
G1 X21.88 Y10.73 E18.4256
G1 X21.88 Y10.16 E18.4444
G1 X23.16 Y8.88 E18.5049
G1 X22.6 Y8.88 E18.5237
G1 X21.88 Y9.6 E18.5575
G1 X21.88 Y9.02 E18.5765
G1 X22.05 Y8.86 E18.5843
;
; 'Wipe', 0.0 [RPM], 42.0 [mm/s]
G1 F1800
G1 E8.5843
G1 F2520
G1 X21.88 Y9.02 E8.5843
G1 X21.88 Y9.6 E8.5843
G1 X22.6 Y8.88 E8.5843
G1 X23.16 Y8.88 E8.5843
; fan on
M106
;
; 'Loop', 77.7 [RPM], 39.0 [mm/s]
G1 F5400
G1 X27.38 Y27.38 E8.5843
G1 F1800
G1 E18.5843
G1 F2337.2
G1 X21.63 Y27.38 E18.7757
G1 X21.62 Y27.2 E18.7816
G1 X21.62 Y21.62 E18.9674
G1 X27.2 Y21.62 E19.1532
G1 X27.38 Y21.63 E19.1592
G1 X27.38 Y27.38 E19.3506
;
; 'Perimeter', 63.1 [RPM], 31.6 [mm/s]
G1 F5400
G1 X27.64 Y27.54 E19.3506
G1 F1896
G1 X27.78 Y27.78 E19.3599
G1 X21.23 Y27.78 E19.5779
G1 X21.22 Y27.6 E19.5839
G1 X21.22 Y21.22 E19.7963
G1 X27.6 Y21.22 E20.0087
G1 X27.78 Y21.23 E20.0146
G1 X27.78 Y27.78 E20.2327
G1 X27.54 Y27.64 E20.242
; fan off
M107
;
; 'Solid', 83.8 [RPM], 42.0 [mm/s]
G1 F5400
G1 X27.18 Y26.92 E20.242
G1 F2520
G1 X26.98 Y27.12 E20.2515
G1 X26.41 Y27.12 E20.2703
G1 X27.12 Y26.41 E20.3037
G1 X27.12 Y25.85 E20.3225
G1 X25.85 Y27.12 E20.3825
G1 X25.28 Y27.12 E20.4013
G1 X27.12 Y25.28 E20.4879
G1 X27.12 Y24.72 E20.5067
G1 X24.72 Y27.12 E20.6199
G1 X24.15 Y27.12 E20.6387
G1 X27.12 Y24.15 E20.7785
G1 X27.12 Y23.59 E20.7973
G1 X23.59 Y27.12 E20.9637
G1 X23.02 Y27.12 E20.9825
G1 X27.12 Y23.02 E21.1755
G1 X27.12 Y22.45 E21.1943
G1 X22.45 Y27.12 E21.4139
G1 X21.89 Y27.12 E21.4327
G1 X27.12 Y21.89 E21.679
G1 X26.57 Y21.88 E21.6975
G1 X21.88 Y26.57 E21.9181
G1 X21.88 Y26 E21.9369
G1 X26 Y21.88 E22.1309
G1 X25.44 Y21.88 E22.1497
G1 X21.88 Y25.44 E22.3171
G1 X21.88 Y24.87 E22.3359
G1 X24.87 Y21.88 E22.4767
G1 X24.3 Y21.88 E22.4955
G1 X21.88 Y24.3 E22.6096
G1 X21.88 Y23.74 E22.6285
G1 X23.74 Y21.88 E22.716
G1 X23.17 Y21.88 E22.7348
G1 X21.88 Y23.17 E22.7958
G1 X21.88 Y22.61 E22.8146
G1 X22.61 Y21.88 E22.8489
G1 X22.04 Y21.88 E22.8677
G1 X21.86 Y22.06 E22.8763
;
; 'Wipe', 0.0 [RPM], 42.0 [mm/s]
G1 F1800
G1 E12.8763
G1 F2520
G1 X22.04 Y21.88 E12.8763
G1 X22.61 Y21.88 E12.8763
G1 X21.88 Y22.61 E12.8763
G1 X21.88 Y23.17 E12.8763
; fan on
M106
;
; 'Loop', 77.7 [RPM], 39.0 [mm/s]
G1 F5400
G1 X14.37 Y27.38 E12.8763
G1 F1800
G1 E22.8763
G1 F2337.2
G1 X8.62 Y27.38 E23.0677
G1 X8.62 Y21.63 E23.2591
G1 X8.8 Y21.62 E23.265
G1 X14.38 Y21.62 E23.4508
G1 X14.38 Y27.2 E23.6366
G1 X14.37 Y27.38 E23.6426
;
; 'Perimeter', 63.1 [RPM], 31.6 [mm/s]
G1 F5400
G1 X14.64 Y27.54 E23.6426
G1 F1896
G1 X14.77 Y27.78 E23.6518
G1 X8.22 Y27.78 E23.8699
G1 X8.22 Y21.23 E24.0879
G1 X8.4 Y21.22 E24.0939
G1 X14.78 Y21.22 E24.3063
G1 X14.78 Y27.6 E24.5187
G1 X14.77 Y27.78 E24.5246
G1 X14.53 Y27.64 E24.5339
; fan off
M107
;
; 'Solid', 83.8 [RPM], 42.0 [mm/s]
G1 F5400
G1 X13.91 Y27.18 E24.5339
G1 F2520
G1 X14.12 Y26.98 E24.5436
G1 X14.12 Y26.4 E24.5626
G1 X13.4 Y27.12 E24.5964
G1 X12.84 Y27.12 E24.6153
G1 X14.12 Y25.84 E24.6757
G1 X14.12 Y25.27 E24.6945
G1 X12.27 Y27.12 E24.7816
G1 X11.71 Y27.12 E24.8004
G1 X14.12 Y24.71 E24.9141
G1 X14.12 Y24.14 E24.9329
G1 X11.14 Y27.12 E25.0731
G1 X10.57 Y27.12 E25.092
G1 X14.12 Y23.57 E25.2588
G1 X14.12 Y23.01 E25.2777
G1 X10.01 Y27.12 E25.4711
G1 X9.44 Y27.12 E25.49
G1 X14.12 Y22.44 E25.7101
G1 X14.12 Y21.88 E25.7289
G1 X8.88 Y27.12 E25.9756
G1 X8.88 Y26.56 E25.9944
G1 X13.56 Y21.88 E26.2145
G1 X12.99 Y21.88 E26.2333
G1 X8.88 Y25.99 E26.4268
G1 X8.88 Y25.43 E26.4456
G1 X12.43 Y21.88 E26.6125
G1 X11.86 Y21.88 E26.6313
G1 X8.88 Y24.86 E26.7716
G1 X8.88 Y24.29 E26.7904
G1 X11.29 Y21.88 E26.9041
G1 X10.73 Y21.88 E26.9229
G1 X8.88 Y23.73 E27.01
G1 X8.88 Y23.16 E27.0288
G1 X10.16 Y21.88 E27.0892
G1 X9.6 Y21.88 E27.108
G1 X8.88 Y22.6 E27.1419
G1 X8.88 Y22.03 E27.1607
G1 X9.04 Y21.87 E27.1685
;
; 'Wipe', 0.0 [RPM], 42.0 [mm/s]
G1 F1800
G1 E17.1685
G1 F2520
G1 X8.88 Y22.03 E17.1685
G1 X8.88 Y22.6 E17.1685
G1 X9.6 Y21.88 E17.1685
G1 X10.16 Y21.88 E17.1685
G1 F210
G1 X10.16 Y21.88 Z1.45 E17.1685
; END_LAYER_OBJECT z=1.00
; Reset extruder pos
G92 E0
; BEGIN_LAYER_OBJECT z=1.20
; fan on
M106
;
; 'Perimeter', 63.1 [RPM], 31.6 [mm/s]
G1 F5400
G1 X8.22 Y8.22 E0
G1 F210
G1 X8.22 Y8.22 Z1.2 E0
G1 F1800
G1 E10
G1 F1896
G1 X14.77 Y8.22 E10.218
G1 X14.78 Y8.96 E10.2428
G1 X14.84 Y9.09 E10.2475
G1 X15.09 Y9.21 E10.2568
G1 X20.91 Y9.21 E10.4501
G1 X21.16 Y9.09 E10.4594
G1 X21.22 Y8.96 E10.4641
G1 X21.23 Y8.22 E10.4889
G1 X27.78 Y8.22 E10.7069
G1 X27.78 Y14.77 E10.9249
G1 X27.04 Y14.78 E10.9497
G1 X26.91 Y14.84 E10.9544
G1 X26.78 Y15.09 E10.9637
G1 X26.78 Y20.75 E11.1518
G1 X21.13 Y20.75 E11.3398
G1 X21 Y20.81 E11.3445
G1 X20.94 Y20.94 E11.3492
G1 X20.95 Y21.08 E11.3539
G1 X21.01 Y21.21 E11.3586
G1 X21.22 Y21.38 E11.3675
G1 X21.24 Y21.55 E11.3734
G1 X21.24 Y22.11 E11.3919
G1 X21.34 Y22.2 E11.3964
G1 X21.34 Y22.66 E11.4115
;
; 'Loop', 77.7 [RPM], 39.0 [mm/s]
G1 F5400
G1 X8.62 Y8.72 E11.4115
G1 F2337.2
G1 X8.62 Y14.37 E11.5997
G1 X8.98 Y14.38 E11.6119
G1 X9.14 Y14.42 E11.6172
G1 X9.37 Y14.56 E11.6263
G1 X9.54 Y14.82 E11.6365
G1 X9.62 Y15.09 E11.6458
G1 X9.62 Y20.91 E11.8396
G1 X9.58 Y21.09 E11.8454
G1 X9.37 Y21.44 E11.8591
G1 X9.14 Y21.58 E11.8682
G1 X8.98 Y21.62 E11.8735
G1 X8.62 Y21.63 E11.8857
G1 X8.62 Y27.38 E12.0771
G1 X14.37 Y27.38 E12.2685
G1 X14.38 Y27.02 E12.2807
G1 X14.42 Y26.86 E12.286
G1 X14.56 Y26.63 E12.2951
G1 X14.82 Y26.46 E12.3053
G1 X15.09 Y26.38 E12.3146
G1 X20.91 Y26.38 E12.5084
G1 X21.09 Y26.42 E12.5143
G1 X21.44 Y26.63 E12.528
G1 X21.58 Y26.86 E12.537
G1 X21.62 Y27.02 E12.5424
G1 X21.63 Y27.38 E12.5545
G1 X27.38 Y27.38 E12.7459
G1 X27.38 Y21.63 E12.9373
G1 X27.2 Y21.63 E12.9436
G1 X26.96 Y21.68 E12.9516
G1 X26.95 Y21.85 E12.9575
G1 X26.85 Y21.94 E12.962
G1 X26.84 Y22.32 E12.9743
G1 X26.65 Y22.5 E12.9832
G1 X26.46 Y22.5 E12.9896
G1 X26.27 Y22.68 E12.9985
; fan off
M107
;
; 'Wipe', 0.0 [RPM], 42.0 [mm/s]
G1 F1800
G1 E2.9985
G1 F2520
G1 X26.46 Y22.5 E2.9985
G1 X26.65 Y22.5 E2.9985
G1 X26.84 Y22.32 E2.9985
G1 X26.85 Y21.94 E2.9985
G1 X26.95 Y21.85 E2.9985
G1 X26.96 Y21.68 E2.9985
G1 X27.2 Y21.63 E2.9985
G1 X27.38 Y21.63 E2.9985
G1 X27.38 Y21.82 E2.9985
; fan on
M106
;
; 'Loop', 77.7 [RPM], 39.0 [mm/s]
G1 F5400
G1 X8.62 Y8.62 E2.9985
G1 F1800
G1 E12.9985
G1 F2337.2
G1 X14.37 Y8.62 E13.1899
G1 X14.38 Y8.98 E13.202
G1 X14.42 Y9.14 E13.2073
G1 X14.56 Y9.37 E13.2164
G1 X14.82 Y9.54 E13.2266
G1 X15.09 Y9.62 E13.236
G1 X20.91 Y9.62 E13.4298
G1 X21.09 Y9.58 E13.4356
G1 X21.44 Y9.37 E13.4493
G1 X21.58 Y9.14 E13.4584
G1 X21.62 Y8.98 E13.4637
G1 X21.63 Y8.62 E13.4759
G1 X27.38 Y8.62 E13.6673
G1 X27.38 Y14.37 E13.8587
G1 X27.02 Y14.38 E13.8709
G1 X26.86 Y14.42 E13.8762
G1 X26.63 Y14.56 E13.8853
G1 X26.46 Y14.82 E13.8955
G1 X26.38 Y15.09 E13.9048
G1 X26.38 Y20.35 E14.0798
G1 X21.12 Y20.35 E14.2549
G1 X20.95 Y20.39 E14.2605
G1 X20.72 Y20.53 E14.2696
G1 X20.57 Y20.76 E14.2787
G1 X20.54 Y20.93 E14.2843
G1 X20.58 Y21.26 E14.2955
G1 X20.73 Y21.49 E14.3046
G1 X20.96 Y21.64 E14.3137
G1 X21.12 Y21.67 E14.319
G1 X21.21 Y21.76 E14.3234
G1 X21.23 Y22.13 E14.3355
G1 X21.32 Y22.22 E14.3399
G1 X21.33 Y22.65 E14.3542
; fan off
M107
;
; 'Wipe', 0.0 [RPM], 42.0 [mm/s]
G1 F1800
G1 E4.3542
G1 F2520
G1 X21.32 Y22.22 E4.3542
G1 X21.23 Y22.13 E4.3542
G1 X21.21 Y21.76 E4.3542
G1 X21.12 Y21.67 E4.3542
G1 X20.83 Y21.58 E4.3542
G1 X20.65 Y21.39 E4.3542
G1 X20.58 Y21.26 E4.3542
G1 X20.54 Y20.93 E4.3542
; fan on
M106
;
; 'Perimeter', 63.1 [RPM], 31.6 [mm/s]
G1 F5400
G1 X8.22 Y8.36 E4.3542
G1 F1800
G1 E14.3542
G1 F1896
G1 X8.22 Y14.77 E14.5674
G1 X8.96 Y14.78 E14.5921
G1 X9.09 Y14.84 E14.5968
G1 X9.22 Y15.09 E14.6062
G1 X9.22 Y20.91 E14.7995
G1 X9.09 Y21.16 E14.8088
G1 X8.96 Y21.22 E14.8135
G1 X8.22 Y21.23 E14.8382
G1 X8.22 Y27.78 E15.0562
G1 X14.77 Y27.78 E15.2743
G1 X14.78 Y27.04 E15.299
G1 X14.84 Y26.91 E15.3037
G1 X15.09 Y26.78 E15.313
G1 X20.91 Y26.78 E15.5063
G1 X21.16 Y26.91 E15.5157
G1 X21.22 Y27.04 E15.5204
G1 X21.23 Y27.78 E15.5451
G1 X27.78 Y27.78 E15.7631
G1 X27.78 Y21.23 E15.9812
G1 X27.06 Y21.22 E16.0051
G1 X26.95 Y21.29 E16.0096
G1 X26.93 Y21.46 E16.0152
G1 X26.92 Y21.83 E16.0274
G1 X26.83 Y21.92 E16.0319
G1 X26.83 Y22.3 E16.0444
G1 X26.64 Y22.49 E16.0533
G1 X26.44 Y22.48 E16.0597
G1 X26.26 Y22.67 E16.0685
; fan off
M107
;
; 'Wipe', 0.0 [RPM], 42.0 [mm/s]
G1 F1800
G1 E6.0685
G1 F2520
G1 X26.44 Y22.48 E6.0685
G1 X26.64 Y22.49 E6.0685
G1 X26.83 Y22.3 E6.0685
G1 X26.83 Y21.92 E6.0685
G1 X26.92 Y21.83 E6.0685
G1 X26.93 Y21.46 E6.0685
G1 X26.95 Y21.29 E6.0685
G1 X27.06 Y21.22 E6.0685
G1 X27.23 Y21.22 E6.0685
;
; 'Solid', 83.8 [RPM], 42.0 [mm/s]
G1 F5400
G1 X27.03 Y21.94 E6.0685
G1 F1800
G1 E16.0685
G1 F2520
G1 X27.12 Y22.03 E16.0724
G1 X27.18 Y22.66 E16.0935
G1 X27.1 Y22.57 E16.0974
G1 X26.48 Y22.52 E16.1181
G1 X27.12 Y23.16 E16.1483
G1 X27.12 Y23.73 E16.1671
G1 X26.18 Y22.79 E16.2112
G1 X25.62 Y22.79 E16.23
G1 X27.12 Y24.29 E16.3008
G1 X27.12 Y24.86 E16.3196
G1 X25.05 Y22.79 E16.4169
G1 X24.49 Y22.79 E16.4357
G1 X27.12 Y25.43 E16.5597
G1 X27.12 Y25.99 E16.5785
G1 X23.92 Y22.79 E16.729
G1 X23.36 Y22.79 E16.7479
G1 X27.12 Y26.56 E16.925
G1 X27.12 Y27.12 E16.9438
G1 X22.79 Y22.79 E17.1476
G1 X22.22 Y22.79 E17.1664
G1 X26.56 Y27.12 E17.3702
G1 X25.99 Y27.12 E17.389
G1 X21.6 Y22.73 E17.5956
;
; 'Solid', 83.8 [RPM], 42.0 [mm/s]
G1 F5400
G1 X21.15 Y22.28 E17.5956
G1 F2520
G1 X8.88 Y10.01 E18.1729
G1 X8.88 Y10.57 E18.1917
G1 X25.43 Y27.12 E18.9701
G1 X24.86 Y27.12 E18.9889
G1 X8.88 Y11.14 E19.7407
G1 X8.88 Y11.71 E19.7595
G1 X24.29 Y27.12 E20.4847
G1 X23.73 Y27.12 E20.5035
G1 X8.88 Y12.27 E21.2021
G1 X8.88 Y12.84 E21.2209
G1 X23.16 Y27.12 E21.8928
G1 X22.6 Y27.12 E21.9116
G1 X8.82 Y13.34 E22.5598
G1 X8.82 Y13.91 E22.5786
G1 X21.07 Y26.16 E23.1549
G1 X20.46 Y26.12 E23.1753
G1 X9.88 Y15.54 E23.673
G1 X9.88 Y16.1 E23.6918
G1 X19.9 Y26.12 E24.1631
G1 X19.33 Y26.12 E24.1819
G1 X9.88 Y16.67 E24.6266
G1 X9.88 Y17.23 E24.6454
G1 X18.77 Y26.12 E25.0635
G1 X18.2 Y26.12 E25.0823
G1 X9.88 Y17.8 E25.4738
G1 X9.88 Y18.36 E25.4926
G1 X17.64 Y26.12 E25.8575
G1 X17.07 Y26.12 E25.8763
G1 X9.88 Y18.93 E26.2145
G1 X9.88 Y19.5 E26.2333
G1 X16.5 Y26.12 E26.545
G1 X15.94 Y26.12 E26.5638
G1 X9.88 Y20.06 E26.8488
G1 X9.88 Y20.63 E26.8677
G1 X15.38 Y26.12 E27.1262
G1 X14.84 Y26.16 E27.1441
G1 X9.83 Y21.15 E27.3797
G1 X9.64 Y21.52 E27.3937
G1 X14.48 Y26.36 E27.6212
G1 X14.22 Y26.67 E27.6345
G1 X9.34 Y21.79 E27.8641
G1 X8.87 Y21.88 E27.8801
G1 X14.11 Y27.12 E28.1267
G1 X13.55 Y27.12 E28.1456
G1 X8.88 Y22.45 E28.3652
G1 X8.88 Y23.02 E28.384
G1 X12.98 Y27.12 E28.577
G1 X12.41 Y27.12 E28.5958
G1 X8.88 Y23.59 E28.7622
G1 X8.88 Y24.15 E28.781
G1 X11.85 Y27.12 E28.9208
G1 X11.28 Y27.12 E28.9396
G1 X8.88 Y24.72 E29.0528
G1 X8.88 Y25.28 E29.0716
G1 X10.72 Y27.12 E29.1582
G1 X10.15 Y27.12 E29.177
G1 X8.88 Y25.85 E29.2369
G1 X8.88 Y26.41 E29.2558
G1 X9.59 Y27.12 E29.2891
G1 X9.02 Y27.12 E29.3079
G1 X8.86 Y26.96 E29.3155
;
; 'Solid', 83.8 [RPM], 42.0 [mm/s]
G1 F5400
G1 X20.35 Y20.92 E29.3155
G1 F2520
G1 X8.88 Y9.44 E29.8551
G1 X8.88 Y8.88 E29.8739
G1 X20.45 Y20.45 E30.4182
G1 X20.76 Y20.19 E30.4316
G1 X9.44 Y8.88 E30.9637
G1 X10.01 Y8.88 E30.9826
G1 X21.22 Y20.09 E31.51
G1 X21.79 Y20.09 E31.5288
G1 X10.57 Y8.88 E32.0563
G1 X11.14 Y8.88 E32.0751
G1 X22.35 Y20.09 E32.6026
G1 X22.92 Y20.09 E32.6214
G1 X11.71 Y8.88 E33.1488
G1 X12.27 Y8.88 E33.1676
G1 X23.49 Y20.09 E33.6951
G1 X24.05 Y20.09 E33.7139
G1 X12.84 Y8.88 E34.2414
G1 X13.4 Y8.88 E34.2602
G1 X24.62 Y20.09 E34.7876
G1 X25.18 Y20.09 E34.8065
G1 X14.93 Y9.84 E35.2887
G1 X15.54 Y9.88 E35.3091
G1 X25.76 Y20.11 E35.7899
G1 X26.14 Y19.91 E35.8039
G1 X16.1 Y9.88 E36.2759
G1 X16.67 Y9.88 E36.2947
G1 X26.12 Y19.33 E36.7394
G1 X26.12 Y18.77 E36.7582
G1 X17.23 Y9.88 E37.1763
G1 X17.8 Y9.88 E37.1951
G1 X26.12 Y18.2 E37.5866
G1 X26.12 Y17.64 E37.6054
G1 X18.36 Y9.88 E37.9703
G1 X18.93 Y9.88 E37.9891
G1 X26.12 Y17.07 E38.3274
G1 X26.12 Y16.5 E38.3462
G1 X19.5 Y9.88 E38.6578
G1 X20.06 Y9.88 E38.6767
G1 X26.12 Y15.94 E38.9617
G1 X26.12 Y15.37 E38.9805
G1 X20.62 Y9.88 E39.2391
G1 X21.16 Y9.84 E39.2569
G1 X26.17 Y14.85 E39.4925
G1 X26.36 Y14.48 E39.5065
G1 X21.52 Y9.64 E39.7341
G1 X21.78 Y9.33 E39.7474
G1 X26.66 Y14.21 E39.9769
G1 X27.13 Y14.12 E39.993
G1 X21.89 Y8.88 E40.2396
G1 X22.45 Y8.88 E40.2584
G1 X27.12 Y13.55 E40.478
G1 X27.12 Y12.98 E40.4969
G1 X23.02 Y8.88 E40.6899
G1 X23.59 Y8.88 E40.7087
G1 X27.12 Y12.41 E40.8751
G1 X27.12 Y11.85 E40.8939
G1 X24.15 Y8.88 E41.0337
G1 X24.72 Y8.88 E41.0525
G1 X27.12 Y11.28 E41.1657
G1 X27.12 Y10.72 E41.1845
G1 X25.28 Y8.88 E41.2711
G1 X25.85 Y8.88 E41.2899
G1 X27.12 Y10.15 E41.3499
G1 X27.12 Y9.59 E41.3687
G1 X26.41 Y8.88 E41.402
G1 X26.98 Y8.88 E41.4209
G1 X27.18 Y9.08 E41.4304
;
; 'Wipe', 0.0 [RPM], 42.0 [mm/s]
G1 F1800
G1 E31.4304
G1 F2520
G1 X26.98 Y8.88 E31.4304
G1 X26.41 Y8.88 E31.4304
G1 X27.12 Y9.59 E31.4304
G1 X27.12 Y10.15 E31.4304
G1 F210
G1 X27.12 Y10.15 Z1.65 E31.4304
; END_LAYER_OBJECT z=1.20
; Reset extruder pos
G92 E0
; BEGIN_LAYER_OBJECT z=1.40
; fan on
M106
;
; 'Loop', 77.7 [RPM], 39.0 [mm/s]
G1 F5400
G1 X27.38 Y27.38 E0
G1 F210
G1 X27.38 Y27.38 Z1.4 E0
G1 F1800
G1 E10
G1 F2337.2
G1 X21.63 Y27.38 E10.1914
G1 X21.62 Y27.02 E10.2036
G1 X21.58 Y26.86 E10.2089
G1 X21.44 Y26.63 E10.218
G1 X21.18 Y26.46 E10.2282
G1 X20.91 Y26.38 E10.2375
G1 X15.09 Y26.38 E10.4313
G1 X14.91 Y26.42 E10.4372
G1 X14.56 Y26.63 E10.4509
G1 X14.42 Y26.86 E10.4599
G1 X14.38 Y27.02 E10.4653
G1 X14.37 Y27.38 E10.4774
G1 X8.62 Y27.38 E10.6688
G1 X8.62 Y21.63 E10.8602
G1 X8.98 Y21.62 E10.8724
G1 X9.14 Y21.58 E10.8777
G1 X9.37 Y21.44 E10.8868
G1 X9.54 Y21.18 E10.897
G1 X9.62 Y20.91 E10.9063
G1 X9.62 Y15.09 E11.1001
G1 X9.58 Y14.91 E11.106
G1 X9.37 Y14.56 E11.1197
G1 X9.14 Y14.42 E11.1288
G1 X8.98 Y14.38 E11.1341
G1 X8.62 Y14.37 E11.1462
G1 X8.62 Y8.62 E11.3377
G1 X14.37 Y8.62 E11.5291
G1 X14.38 Y8.98 E11.5412
G1 X14.42 Y9.14 E11.5465
G1 X14.56 Y9.37 E11.5556
G1 X14.82 Y9.54 E11.5658
G1 X15.09 Y9.62 E11.5752
G1 X20.91 Y9.62 E11.7689
G1 X21.09 Y9.58 E11.7748
G1 X21.44 Y9.37 E11.7885
G1 X21.58 Y9.14 E11.7976
G1 X21.62 Y8.98 E11.8029
G1 X21.63 Y8.62 E11.8151
G1 X27.38 Y8.62 E12.0065
G1 X27.38 Y14.37 E12.1979
G1 X27.02 Y14.38 E12.2101
G1 X26.86 Y14.42 E12.2154
G1 X26.63 Y14.56 E12.2245
G1 X26.46 Y14.82 E12.2347
G1 X26.38 Y15.09 E12.244
G1 X26.38 Y20.91 E12.4378
G1 X26.42 Y21.09 E12.4436
G1 X26.63 Y21.44 E12.4573
G1 X26.86 Y21.58 E12.4664
G1 X27.02 Y21.62 E12.4717
G1 X27.38 Y21.63 E12.4839
G1 X27.38 Y27.38 E12.6753
;
; 'Perimeter', 63.1 [RPM], 31.6 [mm/s]
G1 F5400
G1 X27.64 Y27.54 E12.6753
G1 F1896
G1 X27.78 Y27.78 E12.6846
G1 X21.23 Y27.78 E12.9027
G1 X21.22 Y27.04 E12.9274
G1 X21.16 Y26.91 E12.9321
G1 X20.91 Y26.78 E12.9414
G1 X15.09 Y26.78 E13.1347
G1 X14.84 Y26.91 E13.144
G1 X14.78 Y27.04 E13.1487
G1 X14.77 Y27.78 E13.1735
G1 X8.22 Y27.78 E13.3915
G1 X8.22 Y21.23 E13.6095
G1 X8.96 Y21.22 E13.6343
G1 X9.09 Y21.16 E13.639
G1 X9.22 Y20.91 E13.6483
G1 X9.22 Y15.09 E13.8416
G1 X9.09 Y14.84 E13.8509
G1 X8.96 Y14.78 E13.8556
G1 X8.22 Y14.77 E13.8803
G1 X8.22 Y8.22 E14.0984
G1 X14.77 Y8.22 E14.3164
G1 X14.78 Y8.96 E14.3412
G1 X14.84 Y9.09 E14.3459
G1 X15.09 Y9.21 E14.3552
G1 X20.91 Y9.21 E14.5485
G1 X21.16 Y9.09 E14.5578
G1 X21.22 Y8.96 E14.5625
G1 X21.23 Y8.22 E14.5872
G1 X27.78 Y8.22 E14.8053
G1 X27.78 Y14.77 E15.0233
G1 X27.04 Y14.78 E15.048
G1 X26.91 Y14.84 E15.0527
G1 X26.78 Y15.09 E15.0621
G1 X26.78 Y20.91 E15.2554
G1 X26.91 Y21.16 E15.2647
G1 X27.04 Y21.22 E15.2694
G1 X27.78 Y21.23 E15.2941
G1 X27.78 Y27.78 E15.5122
G1 X27.54 Y27.64 E15.5215
; fan off
M107
;
; 'Wipe', 0.0 [RPM], 42.0 [mm/s]
G1 F1800
G1 E5.5215
G1 F2520
G1 X27.78 Y27.78 E5.5215
G1 X27.78 Y25.94 E5.5215
;
; 'Solid', 83.8 [RPM], 42.0 [mm/s]
G1 F5400
G1 X26.71 Y21.74 E5.5215
G1 F1800
G1 E15.5215
G1 F2520
G1 X25.98 Y22.47 E15.5559
G1 X25.92 Y21.96 E15.573
G1 X26.36 Y21.52 E15.5935
G1 X26.17 Y21.15 E15.6075
G1 X25.63 Y21.68 E15.6326
G1 X25.65 Y21.1 E15.6519
G1 X26.12 Y20.63 E15.6742
G1 X26.12 Y20.06 E15.693
G1 X25.34 Y20.84 E15.7295
G1 X24.77 Y20.84 E15.7485
G1 X26.12 Y19.5 E15.8118
G1 X26.12 Y18.93 E15.8306
G1 X24.21 Y20.84 E15.9206
G1 X23.64 Y20.84 E15.9394
G1 X26.12 Y18.36 E16.056
G1 X26.12 Y17.8 E16.0748
G1 X23.08 Y20.84 E16.218
G1 X22.51 Y20.84 E16.2368
G1 X26.12 Y17.23 E16.4066
G1 X26.12 Y16.67 E16.4254
G1 X21.89 Y20.9 E16.6246
;
; 'Wipe', 0.0 [RPM], 42.0 [mm/s]
G1 F1800
G1 E6.6246
G1 F2520
G1 X26.12 Y16.67 E6.6246
;
; 'Solid', 83.8 [RPM], 42.0 [mm/s]
G1 F5400
G1 X22.24 Y26.21 E6.6246
G1 F1800
G1 E16.6246
G1 F2520
G1 X21.78 Y26.67 E16.6463
G1 X21.52 Y26.36 E16.6596
G1 X22.18 Y25.7 E16.6906
G1 X22.18 Y25.13 E16.7095
G1 X21.16 Y26.16 E16.7575
G1 X20.62 Y26.12 E16.7753
G1 X22.18 Y24.57 E16.8485
G1 X22.18 Y24 E16.8673
G1 X20.06 Y26.12 E16.967
G1 X19.5 Y26.12 E16.9858
G1 X22.18 Y23.44 E17.112
G1 X22.18 Y22.87 E17.1309
G1 X18.93 Y26.12 E17.2837
G1 X18.36 Y26.12 E17.3025
G1 X22.2 Y22.29 E17.4828
G1 X21.96 Y21.96 E17.4963
G1 X17.8 Y26.12 E17.6918
G1 X17.23 Y26.12 E17.7106
G1 X21.7 Y21.65 E17.9208
G1 X21.43 Y21.36 E17.9341
G1 X16.67 Y26.12 E18.1579
G1 X16.1 Y26.12 E18.1768
G1 X26.12 Y16.1 E18.6481
G1 X26.12 Y15.54 E18.6669
G1 X15.54 Y26.12 E19.1645
G1 X14.93 Y26.16 E19.1849
G1 X26.1 Y15 E19.7101
G1 X26.63 Y13.89 E19.7509
G1 X13.82 Y26.7 E20.3536
G1 X13.82 Y26.14 E20.3724
G1 X26.14 Y13.82 E20.9519
G1 X25.57 Y13.82 E20.9707
G1 X13.82 Y25.57 E21.5236
G1 X13.82 Y25.01 E21.5424
G1 X25.01 Y13.82 E22.0686
G1 X24.44 Y13.82 E22.0875
G1 X13.82 Y24.44 E22.5871
G1 X13.82 Y23.88 E22.6059
G1 X23.88 Y13.82 E23.0789
G1 X23.31 Y13.82 E23.0978
G1 X13.82 Y23.31 E23.5442
G1 X13.82 Y22.75 E23.563
G1 X22.75 Y13.82 E23.9828
G1 X22.18 Y13.82 E24.0016
G1 X13.82 Y22.18 E24.3949
G1 X13.25 Y22.18 E24.4137
G1 X22.18 Y13.25 E24.8335
G1 X22.18 Y12.69 E24.8523
G1 X12.69 Y22.18 E25.2987
G1 X12.12 Y22.18 E25.3175
G1 X22.18 Y12.12 E25.7906
G1 X22.18 Y11.56 E25.8094
G1 X11.56 Y22.18 E26.309
G1 X10.99 Y22.18 E26.3279
G1 X22.18 Y10.99 E26.8541
G1 X22.18 Y10.43 E26.8729
G1 X10.43 Y22.18 E27.4258
G1 X9.86 Y22.18 E27.4446
G1 X22.18 Y9.86 E28.0241
G1 X22.18 Y9.3 E28.0428
G1 X9.37 Y22.11 E28.6455
G1 X9.9 Y21 E28.6864
G1 X21.07 Y9.84 E29.2116
G1 X20.46 Y9.88 E29.232
G1 X9.88 Y20.46 E29.7296
G1 X9.88 Y19.9 E29.7485
G1 X19.9 Y9.88 E30.2198
G1 X19.33 Y9.88 E30.2386
G1 X9.88 Y19.33 E30.6833
G1 X9.88 Y18.77 E30.7021
G1 X18.77 Y9.88 E31.1202
G1 X18.2 Y9.88 E31.139
G1 X9.88 Y18.2 E31.5305
G1 X9.88 Y17.64 E31.5493
G1 X13.69 Y13.82 E31.7288
G1 X13.13 Y13.82 E31.7476
G1 X9.88 Y17.07 E31.9005
G1 X9.88 Y16.5 E31.9193
G1 X12.56 Y13.82 E32.0455
G1 X12 Y13.82 E32.0644
G1 X9.88 Y15.94 E32.164
G1 X9.88 Y15.37 E32.1828
G1 X11.43 Y13.82 E32.2559
G1 X10.87 Y13.82 E32.2747
G1 X9.83 Y14.85 E32.3233
G1 X9.64 Y14.48 E32.3373
G1 X10.3 Y13.82 E32.3682
G1 X9.73 Y13.82 E32.3871
G1 X9.33 Y14.22 E32.4059
G1 X9.18 Y13.81 E32.4206
G1 X8.82 Y14.17 E32.4377
G1 X8.86 Y13.56 E32.4579
G1 X9.22 Y13.2 E32.475
;
; 'Solid', 83.8 [RPM], 42.0 [mm/s]
G1 F5400
G1 X8.82 Y9.65 E32.475
G1 F2520
G1 X9.6 Y8.86 E32.5121
G1 X9.08 Y8.82 E32.5295
G1 X8.86 Y9.04 E32.5399
;
; 'Solid', 83.8 [RPM], 42.0 [mm/s]
G1 F5400
G1 X14.26 Y9.29 E32.5399
G1 F2520
G1 X13.82 Y9.73 E32.5608
G1 X13.82 Y10.3 E32.5796
G1 X14.48 Y9.64 E32.6105
G1 X14.85 Y9.83 E32.6245
G1 X13.82 Y10.87 E32.6731
G1 X13.82 Y11.43 E32.692
G1 X15.37 Y9.88 E32.765
G1 X15.94 Y9.88 E32.7838
G1 X13.82 Y12 E32.8835
G1 X13.82 Y12.56 E32.9023
G1 X16.5 Y9.88 E33.0286
G1 X17.07 Y9.88 E33.0474
G1 X13.82 Y13.13 E33.2003
G1 X13.82 Y13.69 E33.2191
G1 X17.7 Y9.82 E33.4014
;
; 'Solid', 83.8 [RPM], 42.0 [mm/s]
G1 F5400
G1 X26.82 Y9.18 E33.4014
G1 F2520
G1 X27.18 Y8.82 E33.4185
G1 X27.14 Y9.43 E33.4388
G1 X26.78 Y9.79 E33.4559
;
; 'Wipe', 0.0 [RPM], 42.0 [mm/s]
G1 F1800
G1 E23.4559
G1 F2520
G1 X27.14 Y9.43 E23.4559
G1 X27.18 Y8.82 E23.4559
G1 X26.82 Y9.18 E23.4559
;
; 'Solid', 83.8 [RPM], 42.0 [mm/s]
G1 F5400
G1 X26.19 Y26.78 E23.4559
G1 F1800
G1 E33.4559
G1 F2520
G1 X25.83 Y27.14 E33.473
G1 X26.35 Y27.18 E33.4904
G1 X26.72 Y26.82 E33.5075
G1 X25.59 Y26.82 E33.5451
G1 X25.22 Y27.18 E33.5623
;
; 'Wipe', 0.0 [RPM], 42.0 [mm/s]
G1 F1800
G1 E23.5623
G1 F2520
G1 X25.59 Y26.82 E23.5623
G1 X26.72 Y26.82 E23.5623
G1 X26.35 Y27.18 E23.5623
;
; 'Solid', 83.8 [RPM], 42.0 [mm/s]
G1 F5400
G1 X9.22 Y26.78 E23.5623
G1 F1800
G1 E33.5623
G1 F2520
G1 X8.86 Y27.14 E33.5794
G1 X8.82 Y26.62 E33.5968
G1 X9.18 Y26.25 E33.6139
;
; 'Stacked Sparse Infill', 83.8 [RPM], 42.0 [mm/s]
G1 F5400
G1 X9.23 Y22.81 E33.6139
G1 F2520
G1 X9.4 Y22.64 E33.622
G1 X9.54 Y22.55 E33.6275
G1 X9.74 Y22.53 E33.6342
G1 X10.42 Y22.53 E33.6567
G1 X10.62 Y22.5 E33.6634
G1 X10.76 Y22.41 E33.6689
G1 X10.93 Y22.24 E33.677
G1 X11.31 Y22.36 E33.6902
G1 X11.69 Y22.36 E33.7027
G1 X12.06 Y22.24 E33.7159
G1 X12.44 Y22.36 E33.7291
G1 X12.82 Y22.36 E33.7416
G1 X13.19 Y22.24 E33.7548
G1 X13.02 Y22.41 E33.7629
G1 X12.88 Y22.5 E33.7684
G1 X12.68 Y22.53 E33.7751
G1 X12 Y22.53 E33.7976
G1 X11.81 Y22.55 E33.8043
G1 X11.66 Y22.64 E33.8098
G1 X11.32 Y22.98 E33.8257
G1 X11.24 Y23.12 E33.8312
G1 X11.21 Y23.32 E33.8379
G1 X11.21 Y24 E33.8605
G1 X11.18 Y24.19 E33.8671
G1 X11.1 Y24.34 E33.8726
G1 X10.76 Y24.68 E33.8886
G1 X10.62 Y24.76 E33.8941
G1 X10.42 Y24.79 E33.9007
G1 X9.74 Y24.79 E33.9233
G1 X9.54 Y24.82 E33.9299
G1 X9.4 Y24.9 E33.9354
G1 X9.23 Y25.07 E33.9435
G1 X10.93 Y26.77 E34.0234
G1 X11.1 Y26.6 E34.0315
G1 X11.18 Y26.46 E34.037
G1 X11.21 Y26.26 E34.0436
G1 X11.21 Y25.58 E34.0662
G1 X11.24 Y25.38 E34.0728
G1 X11.32 Y25.24 E34.0783
G1 X11.66 Y24.9 E34.0943
G1 X11.81 Y24.82 E34.0998
G1 X12 Y24.79 E34.1064
G1 X12.68 Y24.79 E34.129
G1 X12.88 Y24.76 E34.1357
G1 X13.02 Y24.68 E34.1411
G1 X13.36 Y24.34 E34.1571
G1 X13.45 Y24.19 E34.1626
G1 X13.47 Y24 E34.1692
G1 X13.47 Y23.32 E34.1918
G1 X13.5 Y23.12 E34.1985
G1 X13.59 Y22.98 E34.204
G1 X13.76 Y22.81 E34.2121
G1 X13.64 Y23.18 E34.2253
G1 X13.64 Y23.56 E34.2378
G1 X13.76 Y23.94 E34.251
G1 X13.64 Y24.31 E34.2642
G1 X13.64 Y24.69 E34.2767
G1 X13.76 Y25.07 E34.2899
G1 X13.59 Y25.24 E34.298
G1 X13.5 Y25.38 E34.3035
G1 X13.47 Y25.58 E34.3101
G1 X13.47 Y26.26 E34.3327
G1 X13.45 Y26.46 E34.3394
G1 X13.36 Y26.6 E34.3449
G1 X13.19 Y26.77 E34.353
;
; 'Wipe', 0.0 [RPM], 42.0 [mm/s]
G1 F1800
G1 E24.353
G1 F2520
G1 X13.36 Y26.6 E24.353
G1 X13.45 Y26.46 E24.353
G1 X13.47 Y26.26 E24.353
G1 X13.47 Y25.58 E24.353
G1 X13.5 Y25.38 E24.353
G1 X13.59 Y25.24 E24.353
G1 X13.76 Y25.07 E24.353
G1 X13.64 Y24.69 E24.353
;
; 'Stacked Sparse Infill', 83.8 [RPM], 42.0 [mm/s]
G1 F5400
G1 X22.24 Y26.77 E24.353
G1 F1800
G1 E34.353
G1 F2520
G1 X22.41 Y26.6 E34.3611
G1 X22.5 Y26.46 E34.3666
G1 X22.53 Y26.26 E34.3732
G1 X22.53 Y25.58 E34.3958
G1 X22.55 Y25.38 E34.4025
G1 X22.64 Y25.24 E34.4079
G1 X22.98 Y24.9 E34.4239
G1 X23.12 Y24.82 E34.4294
G1 X23.32 Y24.79 E34.436
G1 X24 Y24.79 E34.4586
G1 X24.19 Y24.76 E34.4653
G1 X24.34 Y24.68 E34.4708
G1 X24.68 Y24.34 E34.4867
G1 X24.76 Y24.19 E34.4922
G1 X24.79 Y24 E34.4989
G1 X24.79 Y23.32 E34.5214
G1 X24.82 Y23.12 E34.5281
G1 X24.9 Y22.98 E34.5336
G1 X25.24 Y22.64 E34.5495
G1 X25.38 Y22.55 E34.555
G1 X25.58 Y22.53 E34.5617
G1 X26.26 Y22.53 E34.5843
G1 X26.46 Y22.5 E34.5909
G1 X26.6 Y22.41 E34.5964
G1 X26.77 Y22.24 E34.6045
G1 X26.65 Y22.62 E34.6177
G1 X26.65 Y22.99 E34.6302
G1 X26.77 Y23.37 E34.6434
G1 X26.65 Y23.75 E34.6566
G1 X26.65 Y24.13 E34.6692
G1 X26.77 Y24.5 E34.6823
G1 X26.6 Y24.68 E34.6904
G1 X26.46 Y24.76 E34.6959
G1 X26.26 Y24.79 E34.7026
G1 X25.58 Y24.79 E34.7252
G1 X25.38 Y24.82 E34.7318
G1 X25.24 Y24.9 E34.7373
G1 X24.9 Y25.24 E34.7533
G1 X24.82 Y25.38 E34.7587
G1 X24.79 Y25.58 E34.7654
G1 X24.79 Y26.26 E34.788
G1 X24.76 Y26.46 E34.7946
G1 X24.68 Y26.6 E34.8001
G1 X24.5 Y26.77 E34.8082
G1 X24.88 Y26.65 E34.8214
G1 X25.26 Y26.65 E34.834
G1 X25.63 Y26.77 E34.8471
G1 X26.01 Y26.65 E34.8603
G1 X26.39 Y26.65 E34.8729
G1 X26.77 Y26.77 E34.886
G1 X26.77 Y26.77 E34.8863
;
; 'Wipe', 0.0 [RPM], 42.0 [mm/s]
G1 F1800
G1 E24.8863
G1 F2520
G1 X26.77 Y26.77 E24.8863
G1 X26.39 Y26.65 E24.8863
G1 X26.01 Y26.65 E24.8863
G1 X25.63 Y26.77 E24.8863
G1 X25.26 Y26.65 E24.8863
G1 X24.88 Y26.65 E24.8863
G1 X24.5 Y26.77 E24.8863
;
; 'Stacked Sparse Infill', 83.8 [RPM], 42.0 [mm/s]
G1 F5400
G1 X24.22 Y22.53 E24.8863
G1 F1800
G1 E34.8863
G1 F2520
G1 X23.32 Y22.53 E34.9164
G1 X23.12 Y22.55 E34.9231
G1 X22.98 Y22.64 E34.9286
G1 X22.64 Y22.98 E34.9445
G1 X22.55 Y23.12 E34.95
G1 X22.53 Y23.32 E34.9567
G1 X22.53 Y24 E34.9792
G1 X22.5 Y24.19 E34.9859
G1 X22.41 Y24.34 E34.9914
G1 X22.24 Y24.51 E34.9995
G1 X22.36 Y24.13 E35.0127
G1 X22.36 Y23.75 E35.0252
G1 X22.24 Y23.38 E35.0384
G1 X22.36 Y23 E35.0516
G1 X22.36 Y22.62 E35.0641
G1 X22.24 Y22.25 E35.0773
G1 X22.24 Y22.24 E35.0775
;
; 'Wipe', 0.0 [RPM], 42.0 [mm/s]
G1 F1800
G1 E25.0775
G1 F2520
G1 X22.24 Y22.25 E25.0775
G1 X22.36 Y22.62 E25.0775
G1 X22.36 Y23 E25.0775
G1 X22.24 Y23.38 E25.0775
G1 X22.36 Y23.75 E25.0775
G1 X22.36 Y24.13 E25.0775
G1 X22.24 Y24.51 E25.0775
;
; 'Stacked Sparse Infill', 83.8 [RPM], 42.0 [mm/s]
G1 F5400
G1 X22.81 Y13.76 E25.0775
G1 F1800
G1 E35.0775
G1 F2520
G1 X22.98 Y13.59 E35.0856
G1 X23.12 Y13.5 E35.0911
G1 X23.32 Y13.47 E35.0977
G1 X24 Y13.47 E35.1203
G1 X24.19 Y13.45 E35.1269
G1 X24.34 Y13.36 E35.1324
G1 X24.68 Y13.02 E35.1484
G1 X24.76 Y12.88 E35.1539
G1 X24.79 Y12.68 E35.1605
G1 X24.79 Y12 E35.1831
G1 X24.82 Y11.81 E35.1898
G1 X24.9 Y11.66 E35.1952
G1 X25.24 Y11.32 E35.2112
G1 X25.38 Y11.24 E35.2167
G1 X25.58 Y11.21 E35.2233
G1 X26.26 Y11.21 E35.2459
G1 X26.46 Y11.18 E35.2526
G1 X26.6 Y11.1 E35.2581
G1 X26.77 Y10.93 E35.2662
G1 X25.07 Y9.23 E35.346
G1 X24.9 Y9.4 E35.3541
G1 X24.82 Y9.54 E35.3596
G1 X24.79 Y9.74 E35.3663
G1 X24.79 Y10.42 E35.3888
G1 X24.76 Y10.62 E35.3955
G1 X24.68 Y10.76 E35.401
G1 X24.34 Y11.1 E35.4169
G1 X24.19 Y11.18 E35.4224
G1 X24 Y11.21 E35.4291
G1 X23.32 Y11.21 E35.4516
G1 X23.12 Y11.24 E35.4583
G1 X22.98 Y11.32 E35.4638
G1 X22.64 Y11.66 E35.4798
G1 X22.55 Y11.81 E35.4852
G1 X22.53 Y12 E35.4919
G1 X22.53 Y12.68 E35.5145
G1 X22.5 Y12.88 E35.5211
G1 X22.41 Y13.02 E35.5266
G1 X22.24 Y13.19 E35.5347
G1 X22.36 Y12.82 E35.5479
G1 X22.36 Y12.44 E35.5605
G1 X22.24 Y12.06 E35.5736
G1 X22.36 Y11.69 E35.5868
G1 X22.36 Y11.31 E35.5994
G1 X22.24 Y10.93 E35.6125
G1 X22.41 Y10.76 E35.6207
G1 X22.5 Y10.62 E35.6261
G1 X22.53 Y10.42 E35.6328
G1 X22.53 Y9.74 E35.6554
G1 X22.55 Y9.54 E35.662
G1 X22.64 Y9.4 E35.6675
G1 X22.81 Y9.23 E35.6756
;
; 'Stacked Sparse Infill', 83.8 [RPM], 42.0 [mm/s]
G1 F5400
G1 X25.07 Y13.76 E35.6756
G1 F2520
G1 X25.24 Y13.59 E35.6837
G1 X25.38 Y13.5 E35.6892
G1 X25.58 Y13.47 E35.6959
G1 X26.26 Y13.47 E35.7184
G1 X26.46 Y13.45 E35.7251
G1 X26.6 Y13.36 E35.7306
G1 X26.77 Y13.19 E35.7387
;
; 'Stacked Sparse Infill', 83.8 [RPM], 42.0 [mm/s]
G1 F5400
G1 X13.76 Y13.75 E35.7387
G1 F2520
G1 X13.75 Y13.76 E35.739
G1 X13.38 Y13.64 E35.7521
G1 X13 Y13.64 E35.7647
G1 X12.62 Y13.76 E35.7779
G1 X12.25 Y13.64 E35.791
G1 X11.87 Y13.64 E35.8036
G1 X11.49 Y13.76 E35.8168
G1 X11.66 Y13.59 E35.8249
G1 X11.81 Y13.5 E35.8304
G1 X12 Y13.47 E35.837
G1 X12.68 Y13.47 E35.8596
G1 X12.88 Y13.45 E35.8663
G1 X13.02 Y13.36 E35.8717
G1 X13.36 Y13.02 E35.8877
G1 X13.45 Y12.88 E35.8932
G1 X13.47 Y12.68 E35.8998
G1 X13.47 Y12 E35.9224
G1 X13.5 Y11.81 E35.9291
G1 X13.59 Y11.66 E35.9346
G1 X13.76 Y11.49 E35.9427
G1 X13.64 Y11.11 E35.9558
G1 X13.64 Y10.74 E35.9684
G1 X13.76 Y10.36 E35.9816
G1 X13.64 Y9.98 E35.9948
G1 X13.64 Y9.61 E36.0073
G1 X13.76 Y9.23 E36.0205
G1 X13.59 Y9.4 E36.0286
G1 X13.5 Y9.54 E36.0341
G1 X13.47 Y9.74 E36.0407
G1 X13.47 Y10.42 E36.0633
G1 X13.45 Y10.62 E36.07
G1 X13.36 Y10.76 E36.0755
G1 X13.02 Y11.1 E36.0914
G1 X12.88 Y11.18 E36.0969
G1 X12.68 Y11.21 E36.1036
G1 X12 Y11.21 E36.1261
G1 X11.81 Y11.24 E36.1328
G1 X11.66 Y11.32 E36.1383
G1 X11.32 Y11.66 E36.1542
G1 X11.24 Y11.81 E36.1597
G1 X11.21 Y12 E36.1664
G1 X11.21 Y12.68 E36.189
G1 X11.18 Y12.88 E36.1956
G1 X11.1 Y13.02 E36.2011
G1 X10.76 Y13.36 E36.2171
G1 X10.62 Y13.45 E36.2225
G1 X10.42 Y13.47 E36.2292
G1 X9.74 Y13.47 E36.2518
G1 X9.54 Y13.5 E36.2584
G1 X9.4 Y13.59 E36.2639
G1 X9.23 Y13.76 E36.272
G1 X9.35 Y13.38 E36.2852
G1 X9.35 Y13.01 E36.2978
G1 X9.23 Y12.63 E36.3109
G1 X9.35 Y12.25 E36.3241
G1 X9.35 Y11.87 E36.3367
G1 X9.23 Y11.5 E36.3498
G1 X9.4 Y11.32 E36.358
G1 X9.54 Y11.24 E36.3634
G1 X9.74 Y11.21 E36.3701
G1 X10.42 Y11.21 E36.3927
G1 X10.62 Y11.18 E36.3993
G1 X10.76 Y11.1 E36.4048
G1 X11.1 Y10.76 E36.4208
G1 X11.18 Y10.62 E36.4263
G1 X11.21 Y10.42 E36.4329
G1 X11.21 Y9.74 E36.4555
G1 X11.24 Y9.54 E36.4621
G1 X11.32 Y9.4 E36.4676
G1 X11.5 Y9.23 E36.4757
G1 X11.12 Y9.35 E36.4889
G1 X10.74 Y9.35 E36.5015
G1 X10.37 Y9.23 E36.5147
G1 X9.99 Y9.35 E36.5278
G1 X9.61 Y9.35 E36.5404
G1 X9.23 Y9.23 E36.5536
G1 X9.23 Y9.23 E36.5538
;
; 'Wipe', 0.0 [RPM], 42.0 [mm/s]
G1 F1800
G1 E26.5538
G1 F2520
G1 X9.23 Y9.23 E26.5538
G1 X9.61 Y9.35 E26.5538
G1 X9.99 Y9.35 E26.5538
G1 X10.37 Y9.23 E26.5538
G1 X10.74 Y9.35 E26.5538
G1 X11.12 Y9.35 E26.5538
G1 X11.5 Y9.23 E26.5538
G1 F210
G1 X11.5 Y9.23 Z1.85 E26.5538
; END_LAYER_OBJECT z=1.40
; Reset extruder pos
G92 E0
; BEGIN_LAYER_OBJECT z=1.60
; fan on
M106
;
; 'Loop', 77.7 [RPM], 39.0 [mm/s]
G1 F5400
G1 X27.38 Y27.38 E0
G1 F210
G1 X27.38 Y27.38 Z1.6 E0
G1 F1800
G1 E10
G1 F2337.2
G1 X21.63 Y27.38 E10.1914
G1 X21.62 Y27.02 E10.2036
G1 X21.58 Y26.86 E10.2089
G1 X21.44 Y26.63 E10.218
G1 X21.18 Y26.46 E10.2282
G1 X20.91 Y26.38 E10.2375
G1 X15.09 Y26.38 E10.4313
G1 X14.91 Y26.42 E10.4372
G1 X14.56 Y26.63 E10.4509
G1 X14.42 Y26.86 E10.4599
G1 X14.38 Y27.02 E10.4653
G1 X14.37 Y27.38 E10.4774
G1 X8.62 Y27.38 E10.6688
G1 X8.62 Y21.63 E10.8602
G1 X8.98 Y21.62 E10.8724
G1 X9.14 Y21.58 E10.8777
G1 X9.37 Y21.44 E10.8868
G1 X9.54 Y21.18 E10.897
G1 X9.62 Y20.91 E10.9063
G1 X9.62 Y15.09 E11.1001
G1 X9.58 Y14.91 E11.106
G1 X9.37 Y14.56 E11.1197
G1 X9.14 Y14.42 E11.1288
G1 X8.98 Y14.38 E11.1341
G1 X8.62 Y14.37 E11.1462
G1 X8.62 Y8.62 E11.3377
G1 X14.37 Y8.62 E11.5291
G1 X14.38 Y8.98 E11.5412
G1 X14.42 Y9.14 E11.5465
G1 X14.56 Y9.37 E11.5556
G1 X14.82 Y9.54 E11.5658
G1 X15.09 Y9.62 E11.5752
G1 X20.91 Y9.62 E11.7689
G1 X21.09 Y9.58 E11.7748
G1 X21.44 Y9.37 E11.7885
G1 X21.58 Y9.14 E11.7976
G1 X21.62 Y8.98 E11.8029
G1 X21.63 Y8.62 E11.8151
G1 X27.38 Y8.62 E12.0065
G1 X27.38 Y14.37 E12.1979
G1 X27.02 Y14.38 E12.2101
G1 X26.86 Y14.42 E12.2154
G1 X26.63 Y14.56 E12.2245
G1 X26.46 Y14.82 E12.2347
G1 X26.38 Y15.09 E12.244
G1 X26.38 Y20.91 E12.4378
G1 X26.42 Y21.09 E12.4436
G1 X26.63 Y21.44 E12.4573
G1 X26.86 Y21.58 E12.4664
G1 X27.02 Y21.62 E12.4717
G1 X27.38 Y21.63 E12.4839
G1 X27.38 Y27.38 E12.6753
;
; 'Perimeter', 63.1 [RPM], 31.6 [mm/s]
G1 F5400
G1 X27.64 Y27.54 E12.6753
G1 F1896
G1 X27.78 Y27.78 E12.6846
G1 X21.23 Y27.78 E12.9027
G1 X21.22 Y27.04 E12.9274
G1 X21.16 Y26.91 E12.9321
G1 X20.91 Y26.78 E12.9414
G1 X15.09 Y26.78 E13.1347
G1 X14.84 Y26.91 E13.144
G1 X14.78 Y27.04 E13.1487
G1 X14.77 Y27.78 E13.1735
G1 X8.22 Y27.78 E13.3915
G1 X8.22 Y21.23 E13.6095
G1 X8.96 Y21.22 E13.6343
G1 X9.09 Y21.16 E13.639
G1 X9.22 Y20.91 E13.6483
G1 X9.22 Y15.09 E13.8416
G1 X9.09 Y14.84 E13.8509
G1 X8.96 Y14.78 E13.8556
G1 X8.22 Y14.77 E13.8803
G1 X8.22 Y8.22 E14.0984
G1 X14.77 Y8.22 E14.3164
G1 X14.78 Y8.96 E14.3412
G1 X14.84 Y9.09 E14.3459
G1 X15.09 Y9.21 E14.3552
G1 X20.91 Y9.21 E14.5485
G1 X21.16 Y9.09 E14.5578
G1 X21.22 Y8.96 E14.5625
G1 X21.23 Y8.22 E14.5872
G1 X27.78 Y8.22 E14.8053
G1 X27.78 Y14.77 E15.0233
G1 X27.04 Y14.78 E15.048
G1 X26.91 Y14.84 E15.0527
G1 X26.78 Y15.09 E15.0621
G1 X26.78 Y20.91 E15.2554
G1 X26.91 Y21.16 E15.2647
G1 X27.04 Y21.22 E15.2694
G1 X27.78 Y21.23 E15.2941
G1 X27.78 Y27.78 E15.5122
G1 X27.54 Y27.64 E15.5215
; fan off
M107
;
; 'Solid', 83.8 [RPM], 42.0 [mm/s]
G1 F5400
G1 X27.18 Y27.18 E15.5215
G1 F2520
G1 X26.82 Y26.82 E15.5386
G1 X27.14 Y26.57 E15.552
G1 X26.78 Y26.21 E15.5691
G1 X27.18 Y26.05 E15.5836
G1 X26.82 Y25.69 E15.6007
G1 X27.14 Y25.44 E15.6141
G1 X26.78 Y25.08 E15.6312
G1 X27.18 Y24.92 E15.6458
G1 X26.82 Y24.56 E15.6629
G1 X27.14 Y24.31 E15.6763
G1 X26.78 Y23.95 E15.6934
G1 X27.18 Y23.79 E15.7079
G1 X26.82 Y23.42 E15.725
G1 X27.14 Y23.18 E15.7384
G1 X26.78 Y22.82 E15.7555
G1 X27.18 Y22.66 E15.7701
G1 X26.82 Y22.29 E15.7872
G1 X27.14 Y22.05 E15.8006
G1 X26.88 Y21.78 E15.813
G1 X26.48 Y22.52 E15.8408
G1 X25.57 Y21.61 E15.8837
;
; 'Wipe', 0.0 [RPM], 42.0 [mm/s]
G1 F1800
G1 E5.8837
G1 F2520
G1 X26.48 Y22.52 E5.8837
G1 X26.88 Y21.78 E5.8837
;
; 'Solid', 83.8 [RPM], 42.0 [mm/s]
G1 F5400
G1 X22.24 Y22.24 E5.8837
G1 F1800
G1 E15.8837
G1 F2520
G1 X13.82 Y13.82 E16.2797
G1 X13.25 Y13.82 E16.2985
G1 X22.18 Y22.75 E16.7183
G1 X22.18 Y23.31 E16.7372
G1 X12.69 Y13.82 E17.1836
G1 X12.12 Y13.82 E17.2024
G1 X22.18 Y23.88 E17.6754
G1 X22.18 Y24.44 E17.6943
G1 X11.56 Y13.82 E18.1939
G1 X10.99 Y13.82 E18.2127
G1 X22.18 Y25.01 E18.739
G1 X22.18 Y25.57 E18.7578
G1 X10.43 Y13.82 E19.3106
G1 X9.86 Y13.82 E19.3294
G1 X22.18 Y26.14 E19.9089
G1 X22.18 Y26.7 E19.9277
G1 X9.37 Y13.89 E20.5304
G1 X9.9 Y15 E20.5713
G1 X21.07 Y26.16 E21.0964
G1 X20.46 Y26.12 E21.1168
G1 X9.88 Y15.54 E21.6145
G1 X9.88 Y16.1 E21.6333
G1 X19.9 Y26.12 E22.1046
G1 X19.33 Y26.12 E22.1234
G1 X9.88 Y16.67 E22.5681
G1 X9.88 Y17.23 E22.5869
G1 X18.77 Y26.12 E23.005
G1 X18.2 Y26.12 E23.0238
G1 X9.88 Y17.8 E23.4153
G1 X9.88 Y18.36 E23.4341
G1 X13.69 Y22.18 E23.6136
G1 X13.13 Y22.18 E23.6324
G1 X9.88 Y18.93 E23.7853
G1 X9.88 Y19.5 E23.8041
G1 X12.56 Y22.18 E23.9303
G1 X12 Y22.18 E23.9491
G1 X9.88 Y20.06 E24.0488
G1 X9.88 Y20.63 E24.0676
G1 X11.43 Y22.18 E24.1407
G1 X10.87 Y22.18 E24.1595
G1 X9.83 Y21.15 E24.2081
G1 X9.64 Y21.52 E24.2221
G1 X10.3 Y22.18 E24.253
G1 X9.73 Y22.18 E24.2719
G1 X9.33 Y21.78 E24.2907
G1 X9.18 Y22.19 E24.3054
G1 X8.82 Y21.83 E24.3225
G1 X8.86 Y22.44 E24.3427
G1 X9.22 Y22.8 E24.3599
G1 X8.82 Y22.96 E24.3744
G1 X9.18 Y23.32 E24.3915
G1 X8.86 Y23.57 E24.4049
G1 X9.22 Y23.93 E24.422
G1 X8.82 Y24.09 E24.4365
G1 X9.18 Y24.45 E24.4536
G1 X8.86 Y24.7 E24.467
G1 X9.22 Y25.06 E24.4841
G1 X8.82 Y25.22 E24.4987
G1 X9.18 Y25.59 E24.5158
G1 X8.86 Y25.83 E24.5292
G1 X9.22 Y26.19 E24.5463
G1 X8.82 Y26.35 E24.5608
G1 X9.6 Y27.14 E24.5978
G1 X9.08 Y27.18 E24.6153
G1 X8.86 Y26.96 E24.6257
G1 X9.85 Y26.82 E24.6589
G1 X10.21 Y27.18 E24.676
G1 X10.37 Y26.78 E24.6905
G1 X10.74 Y27.14 E24.7076
G1 X10.98 Y26.82 E24.721
G1 X11.34 Y27.18 E24.7381
G1 X11.5 Y26.78 E24.7526
G1 X11.87 Y27.14 E24.7697
G1 X12.11 Y26.82 E24.7832
G1 X12.47 Y27.18 E24.8003
G1 X12.63 Y26.78 E24.8148
G1 X13 Y27.14 E24.8319
G1 X13.24 Y26.82 E24.8453
G1 X13.61 Y27.18 E24.8624
G1 X13.77 Y26.78 E24.8769
G1 X14.13 Y27.14 E24.894
G1 X14.26 Y26.71 E24.909
G1 X13.82 Y26.27 E24.9299
G1 X13.82 Y25.7 E24.9487
G1 X14.48 Y26.36 E24.9797
G1 X14.85 Y26.17 E24.9937
G1 X13.82 Y25.13 E25.0423
G1 X13.82 Y24.57 E25.0611
G1 X15.37 Y26.12 E25.1341
G1 X15.94 Y26.12 E25.1529
G1 X13.82 Y24 E25.2526
G1 X13.82 Y23.44 E25.2714
G1 X16.5 Y26.12 E25.3977
G1 X17.07 Y26.12 E25.4165
G1 X13.82 Y22.87 E25.5693
G1 X13.82 Y22.31 E25.5882
G1 X17.7 Y26.18 E25.7705
;
; 'Wipe', 0.0 [RPM], 42.0 [mm/s]
G1 F1800
G1 E15.7705
G1 F2520
G1 X13.82 Y22.31 E15.7705
;
; 'Solid', 83.8 [RPM], 42.0 [mm/s]
G1 F5400
G1 X21.78 Y26.88 E15.7705
G1 F1800
G1 E25.7705
G1 F2520
G1 X22.05 Y27.14 E25.7829
G1 X22.29 Y26.82 E25.7963
G1 X22.66 Y27.18 E25.8134
G1 X22.82 Y26.78 E25.8279
G1 X23.18 Y27.14 E25.845
G1 X23.42 Y26.82 E25.8584
G1 X23.79 Y27.18 E25.8756
G1 X23.95 Y26.78 E25.8901
G1 X24.31 Y27.14 E25.9072
G1 X24.56 Y26.82 E25.9206
G1 X24.92 Y27.18 E25.9377
G1 X25.08 Y26.78 E25.9522
G1 X25.44 Y27.14 E25.9693
G1 X25.69 Y26.82 E25.9827
G1 X26.05 Y27.18 E25.9998
G1 X26.21 Y26.78 E26.0143
G1 X26.57 Y27.14 E26.0314
;
; 'Wipe', 0.0 [RPM], 42.0 [mm/s]
G1 F1800
G1 E16.0314
G1 F2520
G1 X26.21 Y26.78 E16.0314
G1 X26.05 Y27.18 E16.0314
G1 X25.69 Y26.82 E16.0314
G1 X25.44 Y27.14 E16.0314
G1 X25.08 Y26.78 E16.0314
;
; 'Solid', 83.8 [RPM], 42.0 [mm/s]
G1 F5400
G1 X21.47 Y20.9 E16.0314
G1 F1800
G1 E26.0314
G1 F2520
G1 X13.82 Y13.25 E26.3912
G1 X13.82 Y12.69 E26.41
G1 X21.97 Y20.84 E26.7935
G1 X22.54 Y20.84 E26.8123
G1 X13.82 Y12.12 E27.2225
G1 X13.82 Y11.56 E27.2413
G1 X23.11 Y20.84 E27.678
G1 X23.67 Y20.84 E27.6968
G1 X13.82 Y10.99 E28.1602
G1 X13.82 Y10.43 E28.179
G1 X24.24 Y20.84 E28.6689
G1 X24.8 Y20.84 E28.6877
G1 X13.82 Y9.86 E29.2043
G1 X13.82 Y9.3 E29.2231
G1 X26.63 Y22.11 E29.8258
G1 X26.1 Y21 E29.8667
G1 X14.93 Y9.84 E30.3919
G1 X15.54 Y9.88 E30.4122
G1 X26.12 Y20.46 E30.9099
G1 X26.12 Y19.9 E30.9287
G1 X16.1 Y9.88 E31.4
G1 X16.67 Y9.88 E31.4188
G1 X26.12 Y19.33 E31.8635
G1 X26.12 Y18.77 E31.8823
G1 X17.23 Y9.88 E32.3004
G1 X17.8 Y9.88 E32.3192
G1 X26.12 Y18.2 E32.7107
G1 X26.12 Y17.64 E32.7295
G1 X22.31 Y13.82 E32.909
G1 X22.87 Y13.82 E32.9278
G1 X26.12 Y17.07 E33.0807
G1 X26.12 Y16.5 E33.0995
G1 X23.44 Y13.82 E33.2258
G1 X24 Y13.82 E33.2446
G1 X26.12 Y15.94 E33.3443
G1 X26.12 Y15.37 E33.3631
G1 X24.57 Y13.82 E33.4361
G1 X25.13 Y13.82 E33.4549
G1 X26.17 Y14.85 E33.5035
G1 X26.36 Y14.48 E33.5175
G1 X25.7 Y13.82 E33.5485
G1 X26.27 Y13.82 E33.5673
G1 X26.71 Y14.26 E33.5882
G1 X27.14 Y14.13 E33.6032
G1 X26.78 Y13.77 E33.6203
G1 X27.18 Y13.61 E33.6348
G1 X26.82 Y13.24 E33.6519
G1 X27.14 Y13 E33.6653
G1 X26.78 Y12.63 E33.6824
G1 X27.18 Y12.47 E33.6969
G1 X26.82 Y12.11 E33.714
G1 X27.14 Y11.87 E33.7275
G1 X26.78 Y11.5 E33.7446
G1 X27.18 Y11.34 E33.7591
G1 X26.82 Y10.98 E33.7762
G1 X27.14 Y10.74 E33.7896
G1 X26.78 Y10.37 E33.8067
G1 X27.18 Y10.21 E33.8212
G1 X26.82 Y9.85 E33.8383
G1 X27.14 Y9.6 E33.8518
G1 X26.35 Y8.82 E33.8888
G1 X26.19 Y9.22 E33.9033
G1 X25.83 Y8.86 E33.9204
G1 X25.59 Y9.18 E33.9338
G1 X25.22 Y8.82 E33.9509
G1 X25.06 Y9.22 E33.9654
G1 X24.7 Y8.86 E33.9826
G1 X24.45 Y9.18 E33.996
G1 X24.09 Y8.82 E34.0131
G1 X23.93 Y9.22 E34.0276
G1 X23.57 Y8.86 E34.0447
G1 X23.32 Y9.18 E34.0581
G1 X22.96 Y8.82 E34.0752
G1 X22.8 Y9.22 E34.0898
G1 X22.44 Y8.86 E34.1069
G1 X22.19 Y9.18 E34.1203
G1 X21.83 Y8.82 E34.1374
G1 X22.24 Y9.79 E34.1726
G1 X21.78 Y9.33 E34.1943
G1 X21.52 Y9.64 E34.2077
G1 X22.18 Y10.3 E34.2387
G1 X22.18 Y10.87 E34.2575
G1 X21.16 Y9.84 E34.3055
G1 X20.62 Y9.88 E34.3234
G1 X22.18 Y11.43 E34.3966
G1 X22.18 Y12 E34.4154
G1 X20.06 Y9.88 E34.515
G1 X19.5 Y9.88 E34.5339
G1 X22.18 Y12.56 E34.6601
G1 X22.18 Y13.13 E34.6789
G1 X18.93 Y9.88 E34.8318
G1 X18.36 Y9.88 E34.8506
G1 X22.24 Y13.75 E35.0329
;
; 'Solid', 83.8 [RPM], 42.0 [mm/s]
G1 F5400
G1 X14.17 Y9.08 E35.0329
G1 F2520
G1 X13.91 Y8.82 E35.0454
G1 X13.75 Y9.22 E35.0599
G1 X13.39 Y8.86 E35.077
G1 X13.14 Y9.18 E35.0904
G1 X12.78 Y8.82 E35.1075
G1 X12.62 Y9.22 E35.122
G1 X12.25 Y8.86 E35.1391
G1 X12.01 Y9.18 E35.1526
G1 X11.65 Y8.82 E35.1697
G1 X11.49 Y9.22 E35.1842
G1 X11.12 Y8.86 E35.2013
G1 X10.88 Y9.18 E35.2147
G1 X10.51 Y8.82 E35.2318
G1 X10.35 Y9.22 E35.2463
G1 X9.99 Y8.86 E35.2635
G1 X9.75 Y9.18 E35.2769
G1 X9.38 Y8.82 E35.294
G1 X9.22 Y9.22 E35.3085
G1 X8.86 Y8.86 E35.3256
G1 X8.82 Y9.38 E35.3431
G1 X9.18 Y9.75 E35.3602
G1 X8.86 Y9.99 E35.3736
G1 X9.22 Y10.35 E35.3907
G1 X8.82 Y10.51 E35.4052
G1 X9.18 Y10.88 E35.4223
G1 X8.86 Y11.12 E35.4357
G1 X9.22 Y11.49 E35.4529
G1 X8.82 Y11.65 E35.4674
G1 X9.18 Y12.01 E35.4845
G1 X8.86 Y12.25 E35.4979
G1 X9.22 Y12.62 E35.515
G1 X8.82 Y12.78 E35.5295
G1 X9.18 Y13.14 E35.5466
G1 X8.86 Y13.39 E35.56
G1 X9.22 Y13.75 E35.5772
G1 X8.82 Y13.91 E35.5917
G1 X9.08 Y14.17 E35.6041
;
; 'Wipe', 0.0 [RPM], 42.0 [mm/s]
G1 F1800
G1 E25.6041
G1 F2520
G1 X8.82 Y13.91 E25.6041
G1 X9.22 Y13.75 E25.6041
G1 X8.86 Y13.39 E25.6041
G1 X9.18 Y13.14 E25.6041
G1 X8.82 Y12.78 E25.6041
;
; 'Sparse Infill', 83.8 [RPM], 42.0 [mm/s]
G1 F5400
G1 X25.35 Y22.52 E25.6041
G1 F1800
G1 E35.6041
G1 F2520
G1 X25.36 Y22.53 E35.6044
G1 X24.23 Y22.53 E35.642
G1 X24.22 Y22.52 E35.6423
G1 X23.09 Y22.53 E35.6797
G1 X23.09 Y22.52 E35.68
;
; 'Stacked Sparse Infill', 83.8 [RPM], 42.0 [mm/s]
G1 F5400
G1 X22.24 Y22.81 E35.68
G1 F2520
G1 X22.41 Y22.98 E35.6881
G1 X22.5 Y23.12 E35.6936
G1 X22.53 Y23.32 E35.7002
G1 X22.53 Y24 E35.7228
G1 X22.55 Y24.19 E35.7294
G1 X22.64 Y24.34 E35.7349
G1 X22.98 Y24.68 E35.7509
G1 X23.12 Y24.76 E35.7564
G1 X23.32 Y24.79 E35.763
G1 X24 Y24.79 E35.7856
G1 X24.19 Y24.82 E35.7923
G1 X24.34 Y24.9 E35.7977
G1 X24.68 Y25.24 E35.8137
G1 X24.76 Y25.38 E35.8192
G1 X24.79 Y25.58 E35.8258
G1 X24.79 Y26.26 E35.8484
G1 X24.82 Y26.46 E35.8551
G1 X24.9 Y26.6 E35.8606
G1 X25.07 Y26.77 E35.8687
G1 X24.7 Y26.65 E35.8819
G1 X24.32 Y26.65 E35.8944
G1 X23.94 Y26.77 E35.9076
G1 X23.57 Y26.65 E35.9208
G1 X23.19 Y26.65 E35.9333
G1 X22.81 Y26.77 E35.9465
G1 X22.64 Y26.6 E35.9546
G1 X22.55 Y26.46 E35.9601
G1 X22.53 Y26.26 E35.9667
G1 X22.53 Y25.58 E35.9893
G1 X22.5 Y25.38 E35.996
G1 X22.41 Y25.24 E36.0015
G1 X22.24 Y25.07 E36.0096
G1 X24.5 Y22.81 E36.116
G1 X24.68 Y22.98 E36.1241
G1 X24.76 Y23.12 E36.1296
G1 X24.79 Y23.32 E36.1363
G1 X24.79 Y24 E36.1588
G1 X24.82 Y24.19 E36.1655
G1 X24.9 Y24.34 E36.171
G1 X25.24 Y24.68 E36.1869
G1 X25.38 Y24.76 E36.1924
G1 X25.58 Y24.79 E36.1991
G1 X26.26 Y24.79 E36.2216
G1 X26.46 Y24.82 E36.2283
G1 X26.6 Y24.9 E36.2338
G1 X26.77 Y25.07 E36.2419
G1 X26.65 Y24.7 E36.2551
G1 X26.65 Y24.32 E36.2676
G1 X26.77 Y23.94 E36.2808
G1 X26.65 Y23.57 E36.294
G1 X26.65 Y23.19 E36.3065
G1 X26.77 Y22.81 E36.3197
G1 X26.48 Y22.53 E36.3333
;
; 'Wipe', 0.0 [RPM], 42.0 [mm/s]
G1 F1800
G1 E26.3333
G1 F2520
G1 X26.77 Y22.81 E26.3333
G1 X26.65 Y23.19 E26.3333
G1 X26.65 Y23.57 E26.3333
G1 X26.77 Y23.94 E26.3333
G1 X26.65 Y24.32 E26.3333
G1 X26.65 Y24.7 E26.3333
;
; 'Stacked Sparse Infill', 83.8 [RPM], 42.0 [mm/s]
G1 F5400
G1 X26.77 Y13.76 E26.3333
G1 F1800
G1 E36.3333
G1 F2520
G1 X26.6 Y13.59 E36.3414
G1 X26.46 Y13.5 E36.3469
G1 X26.26 Y13.47 E36.3535
G1 X25.58 Y13.47 E36.3761
G1 X25.38 Y13.45 E36.3828
G1 X25.24 Y13.36 E36.3883
G1 X24.9 Y13.02 E36.4042
G1 X24.82 Y12.88 E36.4097
G1 X24.79 Y12.68 E36.4164
G1 X24.79 Y12 E36.4389
G1 X24.76 Y11.81 E36.4456
G1 X24.68 Y11.66 E36.4511
G1 X24.34 Y11.32 E36.467
G1 X24.19 Y11.24 E36.4725
G1 X24 Y11.21 E36.4792
G1 X23.32 Y11.21 E36.5018
G1 X23.12 Y11.18 E36.5084
G1 X22.98 Y11.1 E36.5139
G1 X22.64 Y10.76 E36.5299
G1 X22.55 Y10.62 E36.5353
G1 X22.53 Y10.42 E36.542
G1 X22.53 Y9.74 E36.5646
G1 X22.5 Y9.54 E36.5712
G1 X22.41 Y9.4 E36.5767
G1 X22.24 Y9.23 E36.5848
G1 X22.62 Y9.35 E36.598
G1 X22.99 Y9.35 E36.6106
G1 X23.37 Y9.23 E36.6237
G1 X23.75 Y9.35 E36.6369
G1 X24.13 Y9.35 E36.6495
G1 X24.5 Y9.23 E36.6626
G1 X24.68 Y9.4 E36.6708
G1 X24.76 Y9.54 E36.6762
G1 X24.79 Y9.74 E36.6829
G1 X24.79 Y10.42 E36.7055
G1 X24.82 Y10.62 E36.7121
G1 X24.9 Y10.76 E36.7176
G1 X25.24 Y11.1 E36.7336
G1 X25.38 Y11.18 E36.7391
G1 X25.58 Y11.21 E36.7457
G1 X26.26 Y11.21 E36.7683
G1 X26.46 Y11.24 E36.7749
G1 X26.6 Y11.32 E36.7804
G1 X26.77 Y11.5 E36.7885
G1 X26.65 Y11.12 E36.8017
G1 X26.65 Y10.74 E36.8143
G1 X26.77 Y10.37 E36.8274
G1 X26.65 Y9.99 E36.8406
G1 X26.65 Y9.61 E36.8532
G1 X26.77 Y9.23 E36.8664
G1 X26.77 Y9.23 E36.8666
;
; 'Stacked Sparse Infill', 83.8 [RPM], 42.0 [mm/s]
G1 F5400
G1 X22.24 Y11.49 E36.8666
G1 F2520
G1 X22.41 Y11.66 E36.8747
G1 X22.5 Y11.81 E36.8802
G1 X22.53 Y12 E36.8869
G1 X22.53 Y12.68 E36.9095
G1 X22.55 Y12.88 E36.9161
G1 X22.64 Y13.02 E36.9216
G1 X22.98 Y13.36 E36.9376
G1 X23.12 Y13.45 E36.943
G1 X23.32 Y13.47 E36.9497
G1 X24 Y13.47 E36.9723
G1 X24.19 Y13.5 E36.9789
G1 X24.34 Y13.59 E36.9844
G1 X24.51 Y13.76 E36.9925
G1 X24.13 Y13.64 E37.0057
G1 X23.75 Y13.64 E37.0183
G1 X23.38 Y13.76 E37.0314
G1 X23 Y13.64 E37.0446
G1 X22.62 Y13.64 E37.0572
G1 X22.25 Y13.76 E37.0703
G1 X22.24 Y13.75 E37.0706
;
; 'Stacked Sparse Infill', 83.8 [RPM], 42.0 [mm/s]
G1 F5400
G1 X13.76 Y13.19 E37.0706
G1 F2520
G1 X13.59 Y13.02 E37.0787
G1 X13.5 Y12.88 E37.0842
G1 X13.47 Y12.68 E37.0909
G1 X13.47 Y12 E37.1134
G1 X13.45 Y11.81 E37.1201
G1 X13.36 Y11.66 E37.1256
G1 X13.02 Y11.32 E37.1415
G1 X12.88 Y11.24 E37.147
G1 X12.68 Y11.21 E37.1537
G1 X12 Y11.21 E37.1762
G1 X11.81 Y11.18 E37.1829
G1 X11.66 Y11.1 E37.1884
G1 X11.32 Y10.76 E37.2043
G1 X11.24 Y10.62 E37.2098
G1 X11.21 Y10.42 E37.2165
G1 X11.21 Y9.74 E37.2391
G1 X11.18 Y9.54 E37.2457
G1 X11.1 Y9.4 E37.2512
G1 X10.93 Y9.23 E37.2593
G1 X9.23 Y10.93 E37.3391
G1 X9.4 Y11.1 E37.3473
G1 X9.54 Y11.18 E37.3527
G1 X9.74 Y11.21 E37.3594
G1 X10.42 Y11.21 E37.382
G1 X10.62 Y11.24 E37.3886
G1 X10.76 Y11.32 E37.3941
G1 X11.1 Y11.66 E37.4101
G1 X11.18 Y11.81 E37.4156
G1 X11.21 Y12 E37.4222
G1 X11.21 Y12.68 E37.4448
G1 X11.24 Y12.88 E37.4514
G1 X11.32 Y13.02 E37.4569
G1 X11.66 Y13.36 E37.4729
G1 X11.81 Y13.45 E37.4784
G1 X12 Y13.47 E37.485
G1 X12.68 Y13.47 E37.5076
G1 X12.88 Y13.5 E37.5143
G1 X13.02 Y13.59 E37.5197
G1 X13.19 Y13.76 E37.5279
G1 X12.82 Y13.64 E37.541
G1 X12.44 Y13.64 E37.5536
G1 X12.06 Y13.76 E37.5668
G1 X11.69 Y13.64 E37.58
G1 X11.31 Y13.64 E37.5925
G1 X10.93 Y13.76 E37.6057
G1 X10.76 Y13.59 E37.6138
G1 X10.62 Y13.5 E37.6193
G1 X10.42 Y13.47 E37.6259
G1 X9.74 Y13.47 E37.6485
G1 X9.54 Y13.45 E37.6552
G1 X9.4 Y13.36 E37.6606
G1 X9.23 Y13.19 E37.6688
;
; 'Stacked Sparse Infill', 83.8 [RPM], 42.0 [mm/s]
G1 F5400
G1 X13.76 Y10.93 E37.6688
G1 F2520
G1 X13.59 Y10.76 E37.6769
G1 X13.5 Y10.62 E37.6824
G1 X13.47 Y10.42 E37.689
G1 X13.47 Y9.74 E37.7116
G1 X13.45 Y9.54 E37.7182
G1 X13.36 Y9.4 E37.7237
G1 X13.19 Y9.23 E37.7318
;
; 'Stacked Sparse Infill', 83.8 [RPM], 42.0 [mm/s]
G1 F5400
G1 X13.75 Y22.24 E37.7318
G1 F2520
G1 X13.76 Y22.25 E37.7321
G1 X13.64 Y22.62 E37.7453
G1 X13.64 Y23 E37.7578
G1 X13.76 Y23.38 E37.771
G1 X13.64 Y23.75 E37.7842
G1 X13.64 Y24.13 E37.7967
G1 X13.76 Y24.51 E37.8099
G1 X13.59 Y24.34 E37.818
G1 X13.5 Y24.19 E37.8235
G1 X13.47 Y24 E37.8302
G1 X13.47 Y23.32 E37.8527
G1 X13.45 Y23.12 E37.8594
G1 X13.36 Y22.98 E37.8649
G1 X13.02 Y22.64 E37.8808
G1 X12.88 Y22.55 E37.8863
G1 X12.68 Y22.53 E37.893
G1 X12 Y22.53 E37.9156
G1 X11.81 Y22.5 E37.9222
G1 X11.66 Y22.41 E37.9277
G1 X11.49 Y22.24 E37.9358
G1 X11.11 Y22.36 E37.949
G1 X10.74 Y22.36 E37.9615
G1 X10.36 Y22.24 E37.9747
G1 X9.98 Y22.36 E37.9879
G1 X9.61 Y22.36 E38.0004
G1 X9.23 Y22.24 E38.0136
G1 X9.4 Y22.41 E38.0217
G1 X9.54 Y22.5 E38.0272
G1 X9.74 Y22.53 E38.0339
G1 X10.42 Y22.53 E38.0565
G1 X10.62 Y22.55 E38.0631
G1 X10.76 Y22.64 E38.0686
G1 X11.1 Y22.98 E38.0846
G1 X11.18 Y23.12 E38.0901
G1 X11.21 Y23.32 E38.0967
G1 X11.21 Y24 E38.1193
G1 X11.24 Y24.19 E38.1259
G1 X11.32 Y24.34 E38.1314
G1 X11.66 Y24.68 E38.1474
G1 X11.81 Y24.76 E38.1529
G1 X12 Y24.79 E38.1595
G1 X12.68 Y24.79 E38.1821
G1 X12.88 Y24.82 E38.1888
G1 X13.02 Y24.9 E38.1942
G1 X13.36 Y25.24 E38.2102
G1 X13.45 Y25.38 E38.2157
G1 X13.47 Y25.58 E38.2223
G1 X13.47 Y26.26 E38.2449
G1 X13.5 Y26.46 E38.2516
G1 X13.59 Y26.6 E38.2571
G1 X13.76 Y26.77 E38.2652
G1 X13.38 Y26.65 E38.2784
G1 X13.01 Y26.65 E38.2909
G1 X12.63 Y26.77 E38.3041
G1 X12.25 Y26.65 E38.3173
G1 X11.87 Y26.65 E38.3298
G1 X11.5 Y26.77 E38.343
G1 X11.32 Y26.6 E38.3511
G1 X11.24 Y26.46 E38.3566
G1 X11.21 Y26.26 E38.3632
G1 X11.21 Y25.58 E38.3858
G1 X11.18 Y25.38 E38.3925
G1 X11.1 Y25.24 E38.398
G1 X10.76 Y24.9 E38.4139
G1 X10.62 Y24.82 E38.4194
G1 X10.42 Y24.79 E38.4261
G1 X9.74 Y24.79 E38.4486
G1 X9.54 Y24.76 E38.4553
G1 X9.4 Y24.68 E38.4608
G1 X9.23 Y24.5 E38.4689
G1 X9.35 Y24.88 E38.4821
G1 X9.35 Y25.26 E38.4946
G1 X9.23 Y25.63 E38.5078
G1 X9.35 Y26.01 E38.521
G1 X9.35 Y26.39 E38.5335
G1 X9.23 Y26.77 E38.5467
G1 X9.23 Y26.77 E38.547
;
; 'Wipe', 0.0 [RPM], 42.0 [mm/s]
G1 F1800
G1 E28.547
G1 F2520
G1 X9.23 Y26.77 E28.547
G1 X9.35 Y26.39 E28.547
G1 X9.35 Y26.01 E28.547
G1 X9.23 Y25.63 E28.547
G1 X9.35 Y25.26 E28.547
G1 X9.35 Y24.88 E28.547
G1 X9.23 Y24.5 E28.547
G1 F210
G1 X9.23 Y24.5 Z2.05 E28.547
; END_LAYER_OBJECT z=1.60
; Reset extruder pos
G92 E0
; BEGIN_LAYER_OBJECT z=1.80
; fan on
M106
;
; 'Loop', 77.7 [RPM], 39.0 [mm/s]
G1 F5400
G1 X27.38 Y27.38 E0
G1 F210
G1 X27.38 Y27.38 Z1.8 E0
G1 F1800
G1 E10
G1 F2337.2
G1 X21.63 Y27.38 E10.1914
G1 X21.62 Y27.02 E10.2036
G1 X21.58 Y26.86 E10.2089
G1 X21.44 Y26.63 E10.218
G1 X21.18 Y26.46 E10.2282
G1 X20.91 Y26.38 E10.2375
G1 X15.09 Y26.38 E10.4313
G1 X14.91 Y26.42 E10.4372
G1 X14.56 Y26.63 E10.4509
G1 X14.42 Y26.86 E10.4599
G1 X14.38 Y27.02 E10.4653
G1 X14.37 Y27.38 E10.4774
G1 X8.62 Y27.38 E10.6688
G1 X8.62 Y21.63 E10.8602
G1 X8.98 Y21.62 E10.8724
G1 X9.14 Y21.58 E10.8777
G1 X9.37 Y21.44 E10.8868
G1 X9.54 Y21.18 E10.897
G1 X9.62 Y20.91 E10.9063
G1 X9.62 Y15.09 E11.1001
G1 X9.58 Y14.91 E11.106
G1 X9.37 Y14.56 E11.1197
G1 X9.14 Y14.42 E11.1288
G1 X8.98 Y14.38 E11.1341
G1 X8.62 Y14.37 E11.1462
G1 X8.62 Y8.62 E11.3377
G1 X14.37 Y8.62 E11.5291
G1 X14.38 Y8.98 E11.5412
G1 X14.42 Y9.14 E11.5465
G1 X14.56 Y9.37 E11.5556
G1 X14.82 Y9.54 E11.5658
G1 X15.09 Y9.62 E11.5752
G1 X20.91 Y9.62 E11.7689
G1 X21.09 Y9.58 E11.7748
G1 X21.44 Y9.37 E11.7885
G1 X21.58 Y9.14 E11.7976
G1 X21.62 Y8.98 E11.8029
G1 X21.63 Y8.62 E11.8151
G1 X27.38 Y8.62 E12.0065
G1 X27.38 Y14.37 E12.1979
G1 X27.02 Y14.38 E12.2101
G1 X26.86 Y14.42 E12.2154
G1 X26.63 Y14.56 E12.2245
G1 X26.46 Y14.82 E12.2347
G1 X26.38 Y15.09 E12.244
G1 X26.38 Y20.91 E12.4378
G1 X26.42 Y21.09 E12.4436
G1 X26.63 Y21.44 E12.4573
G1 X26.86 Y21.58 E12.4664
G1 X27.02 Y21.62 E12.4717
G1 X27.38 Y21.63 E12.4839
G1 X27.38 Y27.38 E12.6753
;
; 'Perimeter', 63.1 [RPM], 31.6 [mm/s]
G1 F5400
G1 X27.64 Y27.54 E12.6753
G1 F1896
G1 X27.78 Y27.78 E12.6846
G1 X21.23 Y27.78 E12.9027
G1 X21.22 Y27.04 E12.9274
G1 X21.16 Y26.91 E12.9321
G1 X20.91 Y26.78 E12.9414
G1 X15.09 Y26.78 E13.1347
G1 X14.84 Y26.91 E13.144
G1 X14.78 Y27.04 E13.1487
G1 X14.77 Y27.78 E13.1735
G1 X8.22 Y27.78 E13.3915
G1 X8.22 Y21.23 E13.6095
G1 X8.96 Y21.22 E13.6343
G1 X9.09 Y21.16 E13.639
G1 X9.22 Y20.91 E13.6483
G1 X9.22 Y15.09 E13.8416
G1 X9.09 Y14.84 E13.8509
G1 X8.96 Y14.78 E13.8556
G1 X8.22 Y14.77 E13.8803
G1 X8.22 Y8.22 E14.0984
G1 X14.77 Y8.22 E14.3164
G1 X14.78 Y8.96 E14.3412
G1 X14.84 Y9.09 E14.3459
G1 X15.09 Y9.21 E14.3552
G1 X20.91 Y9.21 E14.5485
G1 X21.16 Y9.09 E14.5578
G1 X21.22 Y8.96 E14.5625
G1 X21.23 Y8.22 E14.5872
G1 X27.78 Y8.22 E14.8053
G1 X27.78 Y14.77 E15.0233
G1 X27.04 Y14.78 E15.048
G1 X26.91 Y14.84 E15.0527
G1 X26.78 Y15.09 E15.0621
G1 X26.78 Y20.91 E15.2554
G1 X26.91 Y21.16 E15.2647
G1 X27.04 Y21.22 E15.2694
G1 X27.78 Y21.23 E15.2941
G1 X27.78 Y27.78 E15.5122
G1 X27.54 Y27.64 E15.5215
; fan off
M107
;
; 'Wipe', 0.0 [RPM], 42.0 [mm/s]
G1 F1800
G1 E5.5215
G1 F2520
G1 X27.78 Y27.78 E5.5215
G1 X27.78 Y25.94 E5.5215
;
; 'Solid', 83.8 [RPM], 42.0 [mm/s]
G1 F5400
G1 X26.71 Y21.74 E5.5215
G1 F1800
G1 E15.5215
G1 F2520
G1 X26.21 Y22.24 E15.5451
G1 X25.9 Y21.98 E15.5584
G1 X26.36 Y21.52 E15.5798
G1 X26.17 Y21.15 E15.5938
G1 X25.63 Y21.68 E15.619
G1 X25.65 Y21.1 E15.6382
G1 X26.12 Y20.63 E15.6605
G1 X26.12 Y20.06 E15.6794
G1 X25.34 Y20.84 E15.7159
G1 X24.77 Y20.84 E15.7348
G1 X26.12 Y19.5 E15.7982
G1 X26.12 Y18.93 E15.817
G1 X24.21 Y20.84 E15.9069
G1 X23.64 Y20.84 E15.9258
G1 X26.12 Y18.36 E16.0423
G1 X26.12 Y17.8 E16.0612
G1 X23.08 Y20.84 E16.2043
G1 X22.51 Y20.84 E16.2231
G1 X26.12 Y17.23 E16.3929
G1 X26.12 Y16.67 E16.4118
G1 X21.89 Y20.9 E16.611
;
; 'Wipe', 0.0 [RPM], 42.0 [mm/s]
G1 F1800
G1 E6.611
G1 F2520
G1 X26.12 Y16.67 E6.611
;
; 'Solid', 83.8 [RPM], 42.0 [mm/s]
G1 F5400
G1 X22.24 Y26.21 E6.611
G1 F1800
G1 E16.611
G1 F2520
G1 X21.78 Y26.67 E16.6326
G1 X21.52 Y26.36 E16.646
G1 X22.18 Y25.7 E16.677
G1 X22.18 Y25.13 E16.6958
G1 X21.16 Y26.16 E16.7439
G1 X20.62 Y26.12 E16.7617
G1 X22.18 Y24.57 E16.8349
G1 X22.18 Y24 E16.8537
G1 X20.06 Y26.12 E16.9533
G1 X19.5 Y26.12 E16.9722
G1 X22.18 Y23.44 E17.0984
G1 X22.18 Y22.87 E17.1172
G1 X18.93 Y26.12 E17.2701
G1 X18.36 Y26.12 E17.2889
G1 X22.2 Y22.29 E17.4692
G1 X21.96 Y21.96 E17.4826
G1 X17.8 Y26.12 E17.6782
G1 X17.23 Y26.12 E17.697
G1 X21.7 Y21.65 E17.9072
G1 X21.43 Y21.36 E17.9205
G1 X16.67 Y26.12 E18.1443
G1 X16.1 Y26.12 E18.1631
G1 X26.12 Y16.1 E18.6344
G1 X26.12 Y15.54 E18.6532
G1 X15.54 Y26.12 E19.1509
G1 X14.93 Y26.16 E19.1713
G1 X26.1 Y15 E19.6965
G1 X26.63 Y13.89 E19.7373
G1 X13.82 Y26.7 E20.34
G1 X13.82 Y26.14 E20.3588
G1 X26.14 Y13.82 E20.9383
G1 X25.57 Y13.82 E20.9571
G1 X13.82 Y25.57 E21.5099
G1 X13.82 Y25.01 E21.5288
G1 X25.01 Y13.82 E22.055
G1 X24.44 Y13.82 E22.0738
G1 X13.82 Y24.44 E22.5735
G1 X13.82 Y23.88 E22.5923
G1 X23.88 Y13.82 E23.0653
G1 X23.31 Y13.82 E23.0841
G1 X13.82 Y23.31 E23.5306
G1 X13.82 Y22.75 E23.5494
G1 X22.75 Y13.82 E23.9692
G1 X22.18 Y13.82 E23.988
G1 X13.82 Y22.18 E24.3812
G1 X13.25 Y22.18 E24.4
G1 X22.18 Y13.25 E24.8199
G1 X22.18 Y12.69 E24.8387
G1 X12.69 Y22.18 E25.2851
G1 X12.12 Y22.18 E25.3039
G1 X22.18 Y12.12 E25.777
G1 X22.18 Y11.56 E25.7958
G1 X11.56 Y22.18 E26.2954
G1 X10.99 Y22.18 E26.3142
G1 X22.18 Y10.99 E26.8405
G1 X22.18 Y10.43 E26.8593
G1 X10.43 Y22.18 E27.4122
G1 X9.86 Y22.18 E27.431
G1 X22.18 Y9.86 E28.0104
G1 X22.18 Y9.3 E28.0292
G1 X9.37 Y22.11 E28.6319
G1 X9.9 Y21 E28.6728
G1 X21.07 Y9.84 E29.198
G1 X20.46 Y9.88 E29.2183
G1 X9.88 Y20.46 E29.716
G1 X9.88 Y19.9 E29.7348
G1 X19.9 Y9.88 E30.2061
G1 X19.33 Y9.88 E30.225
G1 X9.88 Y19.33 E30.6697
G1 X9.88 Y18.77 E30.6885
G1 X18.77 Y9.88 E31.1066
G1 X18.2 Y9.88 E31.1254
G1 X9.88 Y18.2 E31.5168
G1 X9.88 Y17.64 E31.5357
G1 X13.69 Y13.82 E31.7151
G1 X13.13 Y13.82 E31.734
G1 X9.88 Y17.07 E31.8868
G1 X9.88 Y16.5 E31.9056
G1 X12.56 Y13.82 E32.0319
G1 X12 Y13.82 E32.0507
G1 X9.88 Y15.94 E32.1504
G1 X9.88 Y15.37 E32.1692
G1 X11.43 Y13.82 E32.2422
G1 X10.87 Y13.82 E32.2611
G1 X9.83 Y14.85 E32.3097
G1 X9.64 Y14.48 E32.3237
G1 X10.3 Y13.82 E32.3546
G1 X9.73 Y13.82 E32.3734
G1 X9.33 Y14.22 E32.3923
G1 X9.18 Y13.81 E32.4069
G1 X8.82 Y14.17 E32.424
G1 X8.86 Y13.56 E32.4443
G1 X9.22 Y13.2 E32.4614
;
; 'Solid', 83.8 [RPM], 42.0 [mm/s]
G1 F5400
G1 X8.82 Y9.65 E32.4614
G1 F2520
G1 X9.6 Y8.86 E32.4984
G1 X9.08 Y8.82 E32.5159
G1 X8.86 Y9.04 E32.5263
;
; 'Solid', 83.8 [RPM], 42.0 [mm/s]
G1 F5400
G1 X14.26 Y9.29 E32.5263
G1 F2520
G1 X13.82 Y9.73 E32.5471
G1 X13.82 Y10.3 E32.566
G1 X14.48 Y9.64 E32.5969
G1 X14.85 Y9.83 E32.6109
G1 X13.82 Y10.87 E32.6595
G1 X13.82 Y11.43 E32.6783
G1 X15.37 Y9.88 E32.7514
G1 X15.94 Y9.88 E32.7702
G1 X13.82 Y12 E32.8699
G1 X13.82 Y12.56 E32.8887
G1 X16.5 Y9.88 E33.0149
G1 X17.07 Y9.88 E33.0338
G1 X13.82 Y13.13 E33.1866
G1 X13.82 Y13.69 E33.2054
G1 X17.7 Y9.82 E33.3877
;
; 'Solid', 83.8 [RPM], 42.0 [mm/s]
G1 F5400
G1 X26.82 Y9.18 E33.3877
G1 F2520
G1 X27.18 Y8.82 E33.4049
G1 X27.14 Y9.43 E33.4251
G1 X26.78 Y9.79 E33.4422
;
; 'Wipe', 0.0 [RPM], 42.0 [mm/s]
G1 F1800
G1 E23.4422
G1 F2520
G1 X27.14 Y9.43 E23.4422
G1 X27.18 Y8.82 E23.4422
G1 X26.82 Y9.18 E23.4422
;
; 'Solid', 83.8 [RPM], 42.0 [mm/s]
G1 F5400
G1 X26.19 Y26.78 E23.4422
G1 F1800
G1 E33.4422
G1 F2520
G1 X25.83 Y27.14 E33.4593
G1 X26.35 Y27.18 E33.4768
G1 X26.72 Y26.82 E33.4939
G1 X25.59 Y26.82 E33.5315
G1 X25.22 Y27.18 E33.5486
;
; 'Wipe', 0.0 [RPM], 42.0 [mm/s]
G1 F1800
G1 E23.5486
G1 F2520
G1 X25.59 Y26.82 E23.5486
G1 X26.72 Y26.82 E23.5486
G1 X26.35 Y27.18 E23.5486
;
; 'Solid', 83.8 [RPM], 42.0 [mm/s]
G1 F5400
G1 X9.22 Y26.78 E23.5486
G1 F1800
G1 E33.5486
G1 F2520
G1 X8.86 Y27.14 E33.5657
G1 X8.82 Y26.62 E33.5832
G1 X9.18 Y26.25 E33.6003
;
; 'Stacked Sparse Infill', 83.8 [RPM], 42.0 [mm/s]
G1 F5400
G1 X9.23 Y22.81 E33.6003
G1 F2520
G1 X9.4 Y22.64 E33.6084
G1 X9.54 Y22.55 E33.6139
G1 X9.74 Y22.53 E33.6205
G1 X10.42 Y22.53 E33.6431
G1 X10.62 Y22.5 E33.6498
G1 X10.76 Y22.41 E33.6553
G1 X10.93 Y22.24 E33.6634
G1 X11.31 Y22.36 E33.6765
G1 X11.69 Y22.36 E33.6891
G1 X12.06 Y22.24 E33.7023
G1 X12.44 Y22.36 E33.7155
G1 X12.82 Y22.36 E33.728
G1 X13.19 Y22.24 E33.7412
G1 X13.02 Y22.41 E33.7493
G1 X12.88 Y22.5 E33.7548
G1 X12.68 Y22.53 E33.7614
G1 X12 Y22.53 E33.784
G1 X11.81 Y22.55 E33.7907
G1 X11.66 Y22.64 E33.7962
G1 X11.32 Y22.98 E33.8121
G1 X11.24 Y23.12 E33.8176
G1 X11.21 Y23.32 E33.8243
G1 X11.21 Y24 E33.8468
G1 X11.18 Y24.19 E33.8535
G1 X11.1 Y24.34 E33.859
G1 X10.76 Y24.68 E33.8749
G1 X10.62 Y24.76 E33.8804
G1 X10.42 Y24.79 E33.8871
G1 X9.74 Y24.79 E33.9097
G1 X9.54 Y24.82 E33.9163
G1 X9.4 Y24.9 E33.9218
G1 X9.23 Y25.07 E33.9299
G1 X10.93 Y26.77 E34.0097
G1 X11.1 Y26.6 E34.0178
G1 X11.18 Y26.46 E34.0233
G1 X11.21 Y26.26 E34.03
G1 X11.21 Y25.58 E34.0526
G1 X11.24 Y25.38 E34.0592
G1 X11.32 Y25.24 E34.0647
G1 X11.66 Y24.9 E34.0807
G1 X11.81 Y24.82 E34.0861
G1 X12 Y24.79 E34.0928
G1 X12.68 Y24.79 E34.1154
G1 X12.88 Y24.76 E34.122
G1 X13.02 Y24.68 E34.1275
G1 X13.36 Y24.34 E34.1435
G1 X13.45 Y24.19 E34.149
G1 X13.47 Y24 E34.1556
G1 X13.47 Y23.32 E34.1782
G1 X13.5 Y23.12 E34.1848
G1 X13.59 Y22.98 E34.1903
G1 X13.76 Y22.81 E34.1984
G1 X13.64 Y23.18 E34.2116
G1 X13.64 Y23.56 E34.2242
G1 X13.76 Y23.94 E34.2374
G1 X13.64 Y24.31 E34.2505
G1 X13.64 Y24.69 E34.2631
G1 X13.76 Y25.07 E34.2763
G1 X13.59 Y25.24 E34.2844
G1 X13.5 Y25.38 E34.2899
G1 X13.47 Y25.58 E34.2965
G1 X13.47 Y26.26 E34.3191
G1 X13.45 Y26.46 E34.3257
G1 X13.36 Y26.6 E34.3312
G1 X13.19 Y26.77 E34.3393
;
; 'Wipe', 0.0 [RPM], 42.0 [mm/s]
G1 F1800
G1 E24.3393
G1 F2520
G1 X13.36 Y26.6 E24.3393
G1 X13.45 Y26.46 E24.3393
G1 X13.47 Y26.26 E24.3393
G1 X13.47 Y25.58 E24.3393
G1 X13.5 Y25.38 E24.3393
G1 X13.59 Y25.24 E24.3393
G1 X13.76 Y25.07 E24.3393
G1 X13.64 Y24.69 E24.3393
;
; 'Stacked Sparse Infill', 83.8 [RPM], 42.0 [mm/s]
G1 F5400
G1 X22.24 Y26.77 E24.3393
G1 F1800
G1 E34.3393
G1 F2520
G1 X22.41 Y26.6 E34.3475
G1 X22.5 Y26.46 E34.3529
G1 X22.53 Y26.26 E34.3596
G1 X22.53 Y25.58 E34.3822
G1 X22.55 Y25.38 E34.3888
G1 X22.64 Y25.24 E34.3943
G1 X22.98 Y24.9 E34.4103
G1 X23.12 Y24.82 E34.4158
G1 X23.32 Y24.79 E34.4224
G1 X24 Y24.79 E34.445
G1 X24.19 Y24.76 E34.4516
G1 X24.34 Y24.68 E34.4571
G1 X24.68 Y24.34 E34.4731
G1 X24.76 Y24.19 E34.4786
G1 X24.79 Y24 E34.4852
G1 X24.79 Y23.32 E34.5078
G1 X24.82 Y23.12 E34.5145
G1 X24.9 Y22.98 E34.5199
G1 X25.07 Y22.81 E34.528
;
; 'Wipe', 0.0 [RPM], 42.0 [mm/s]
G1 F1800
G1 E24.5279
G1 F2520
G1 X24.9 Y22.98 E24.528
